MISC/Striped Purple - Grey Matter.cube
#Created by: Adobe Photoshop Export Color Lookup Plugin
#Copyright: (C) Copyright 2018 Striped Purple - Austin Barrett
TITLE "Grey Matter"
#LUT size
LUT_3D_SIZE 5
#data domain
#LUT data points
DOMAIN_MIN 0.000000 0.000000 0.000000
DOMAIN_MAX 0.903226 0.903226 0.903226
0.111145 0.100739 0.092804
0.123047 0.111542 0.102753
0.190521 0.172699 0.159088
0.362335 0.328430 0.302521
0.531189 0.481476 0.443481
0.123047 0.111542 0.102753
0.125854 0.114075 0.105072
0.201721 0.182861 0.168427
0.375214 0.340118 0.313263
0.534180 0.484222 0.446014
0.190521 0.172699 0.159088
0.201721 0.182861 0.168427
0.213501 0.193542 0.178284
0.388031 0.351746 0.323975
0.537109 0.486877 0.448456
0.362335 0.328430 0.302521
0.375214 0.340118 0.313263
0.388031 0.351746 0.323975
0.400726 0.363251 0.334564
0.539948 0.489441 0.450806
0.531189 0.481476 0.443481
0.534180 0.484222 0.446014
0.537109 0.486877 0.448456
0.539948 0.489441 0.450806
0.541534 0.490875 0.452118
0.120483 0.109222 0.100586
0.128845 0.116821 0.107605
0.213501 0.193542 0.178284
0.388031 0.351746 0.323975
0.537109 0.486877 0.448456
0.125854 0.114075 0.105072
0.153259 0.138916 0.127960
0.254639 0.230804 0.212585
0.438965 0.397888 0.366486
0.582031 0.535217 0.499390
0.201721 0.182861 0.168427
0.254639 0.230804 0.212585
0.271942 0.246490 0.227051
0.456879 0.414124 0.381439
0.590729 0.544861 0.509796
0.375214 0.340118 0.313263
0.438965 0.397888 0.366486
0.456879 0.414124 0.381439
0.475006 0.430573 0.396576
0.600189 0.555389 0.521118
0.534180 0.484222 0.446014
0.582031 0.535217 0.499390
0.590729 0.544861 0.509796
0.600189 0.555389 0.521118
0.610229 0.566559 0.533173
0.170227 0.154297 0.142120
0.201721 0.182861 0.168427
0.238678 0.216339 0.199280
0.413269 0.374603 0.345032
0.541534 0.490875 0.452118
0.190521 0.172699 0.159088
0.238220 0.215942 0.198914
0.290131 0.263000 0.242249
0.475006 0.430573 0.396576
0.600189 0.555389 0.521118
0.213501 0.193542 0.178284
0.271942 0.246490 0.227051
0.420074 0.380768 0.350708
0.603546 0.559143 0.525177
0.717346 0.685669 0.661469
0.388031 0.351746 0.323975
0.456879 0.414124 0.381439
0.603546 0.559143 0.525177
0.620911 0.578430 0.545959
0.729401 0.699097 0.675903
0.537109 0.486877 0.448456
0.590729 0.544861 0.509796
0.717346 0.685669 0.661469
0.729401 0.699097 0.675903
0.741516 0.712524 0.690399
0.323456 0.293213 0.270081
0.362335 0.328430 0.302521
0.400726 0.363251 0.334564
0.433960 0.393372 0.362305
0.544464 0.493530 0.454559
0.349365 0.316681 0.291687
0.404022 0.366241 0.337341
0.456879 0.414124 0.381439
0.510010 0.462280 0.425812
0.620819 0.578339 0.545837
0.375214 0.340118 0.313263
0.438965 0.397888 0.366486
0.585938 0.539520 0.504028
0.638245 0.597717 0.566711
0.741516 0.712524 0.690399
0.400726 0.363251 0.334564
0.475006 0.430573 0.396576
0.620911 0.578430 0.545959
0.761078 0.734283 0.713837
0.849701 0.832886 0.820007
0.539948 0.489441 0.450806
0.600189 0.555389 0.521118
0.729401 0.699097 0.675903
0.849701 0.832886 0.820007
0.856873 0.840851 0.828583
0.518158 0.469696 0.432617
0.528046 0.478668 0.440887
0.537109 0.486877 0.448456
0.543030 0.492218 0.453369
0.546936 0.496155 0.457336
0.524872 0.475769 0.438232
0.561249 0.512085 0.474487
0.582031 0.535217 0.499390
0.610229 0.566559 0.533173
0.643463 0.603485 0.572937
0.531189 0.481476 0.443481
0.574799 0.527130 0.490692
0.693390 0.659027 0.632751
0.729401 0.699097 0.675903
0.765686 0.739410 0.719330
0.537109 0.486877 0.448456
0.590729 0.544861 0.509796
0.717346 0.685669 0.661469
0.842377 0.824707 0.811218
0.863800 0.848541 0.836884
0.541534 0.490875 0.452118
0.610229 0.566559 0.533173
0.741516 0.712524 0.690399
0.856873 0.840851 0.828583
0.920349 0.911438 0.904633
