MISC/Striped Purple - Grey Matter.cube
#Created by: Adobe Photoshop Export Color Lookup Plugin
#Copyright: (C) Copyright 2018 Striped Purple - Austin Barrett
TITLE "Grey Matter"
#LUT size
LUT_3D_SIZE 8
#data domain
#LUT data points
DOMAIN_MIN 0.000000 0.000000 0.000000
DOMAIN_MAX 0.903226 0.903226 0.903226
0.111145 0.100739 0.092804
0.114929 0.104187 0.095947
0.127258 0.115356 0.106262
0.160034 0.145081 0.133636
0.230957 0.209351 0.192841
0.334106 0.302856 0.278961
0.444885 0.403259 0.371429
0.531189 0.481476 0.443481
0.114929 0.104187 0.095947
0.115692 0.104858 0.096588
0.129242 0.117157 0.107910
0.164825 0.149414 0.137634
0.238403 0.216095 0.199036
0.341888 0.309906 0.285431
0.450195 0.408081 0.375854
0.532928 0.483063 0.444916
0.127258 0.115356 0.106262
0.129242 0.117157 0.107910
0.131287 0.119019 0.109650
0.169800 0.153931 0.141785
0.245972 0.222961 0.205383
0.349640 0.316925 0.291901
0.455505 0.412872 0.380280
0.534607 0.484589 0.446350
0.160034 0.145081 0.133636
0.164825 0.149414 0.137634
0.169800 0.153931 0.141785
0.175079 0.158691 0.146179
0.253693 0.229980 0.211823
0.357391 0.323975 0.298401
0.460663 0.417572 0.384613
0.536285 0.486115 0.447754
0.230957 0.209351 0.192841
0.238403 0.216095 0.199036
0.245972 0.222961 0.205383
0.253693 0.229980 0.211823
0.261566 0.237091 0.218384
0.365143 0.330994 0.304871
0.465790 0.422241 0.388916
0.537964 0.487610 0.449127
0.334106 0.302856 0.278961
0.341888 0.309906 0.285431
0.349640 0.316925 0.291901
0.357391 0.323975 0.298401
0.365143 0.330994 0.304871
0.372894 0.338013 0.311340
0.470886 0.426849 0.393158
0.539551 0.489075 0.450470
0.444885 0.403259 0.371429
0.450195 0.408081 0.375854
0.455505 0.412872 0.380280
0.460663 0.417572 0.384613
0.465790 0.422241 0.388916
0.470886 0.426849 0.393158
0.475830 0.431305 0.397278
0.540710 0.490143 0.451447
0.531189 0.481476 0.443481
0.532928 0.483063 0.444916
0.534607 0.484589 0.446350
0.536285 0.486115 0.447754
0.537964 0.487610 0.449127
0.539551 0.489075 0.450470
0.540710 0.490143 0.451447
0.541534 0.490875 0.452118
0.114136 0.103455 0.095306
0.116516 0.105621 0.097290
0.131287 0.119019 0.109650
0.169800 0.153931 0.141785
0.245972 0.222961 0.205383
0.349640 0.316925 0.291901
0.455505 0.412872 0.380280
0.534607 0.484589 0.446350
0.115692 0.104858 0.096588
0.123566 0.112000 0.103180
0.141388 0.128174 0.118073
0.184784 0.167511 0.154297
0.265289 0.240479 0.221497
0.370972 0.336273 0.309723
0.476379 0.431824 0.397736
0.552704 0.502594 0.464264
0.129242 0.117157 0.107910
0.141388 0.128174 0.118073
0.144653 0.131104 0.120789
0.191223 0.173340 0.159668
0.274109 0.248474 0.228851
0.379730 0.344208 0.317047
0.482635 0.437469 0.402924
0.555084 0.505219 0.467072
0.164825 0.149414 0.137634
0.184784 0.167511 0.154297
0.191223 0.173340 0.159668
0.197876 0.179352 0.165222
0.283081 0.256592 0.236328
0.388550 0.352203 0.324402
0.488831 0.443085 0.408112
0.557465 0.507874 0.469940
0.238403 0.216095 0.199036
0.265289 0.240479 0.221497
0.274109 0.248474 0.228851
0.283081 0.256592 0.236328
0.292175 0.264832 0.243927
0.397369 0.360199 0.331787
0.494965 0.448669 0.413239
0.560181 0.510864 0.473175
0.341888 0.309906 0.285431
0.370972 0.336273 0.309723
0.379730 0.344208 0.317047
0.388550 0.352203 0.324402
0.397369 0.360199 0.331787
0.406189 0.368195 0.339142
0.501099 0.454224 0.418365
0.563110 0.514160 0.476746
0.450195 0.408081 0.375854
0.476379 0.431824 0.397736
0.482635 0.437469 0.402924
0.488831 0.443085 0.408112
0.494965 0.448669 0.413239
0.501099 0.454224 0.418365
0.506836 0.459412 0.423157
0.566284 0.517700 0.480530
0.532928 0.483063 0.444916
0.552704 0.502594 0.464264
0.555084 0.505219 0.467072
0.557465 0.507874 0.469940
0.560181 0.510864 0.473175
0.563110 0.514160 0.476746
0.566284 0.517700 0.480530
0.569641 0.521423 0.484528
0.123718 0.112152 0.103302
0.129242 0.117157 0.107910
0.135864 0.123169 0.113434
0.180573 0.163666 0.150757
0.261566 0.237091 0.218384
0.365143 0.330994 0.304871
0.465790 0.422241 0.388916
0.537964 0.487610 0.449127
0.127258 0.115356 0.106262
0.138336 0.125397 0.115509
0.148010 0.134186 0.123596
0.197876 0.179352 0.165222
0.283081 0.256592 0.236328
0.388550 0.352203 0.324402
0.488831 0.443085 0.408112
0.557465 0.507874 0.469940
0.131287 0.119019 0.109650
0.144653 0.131104 0.120789
0.170807 0.154816 0.142609
0.227844 0.206543 0.190247
0.319763 0.289856 0.266968
0.430023 0.389801 0.359039
0.533173 0.483276 0.445129
0.597046 0.551880 0.517334
0.169800 0.153931 0.141785
0.191223 0.173340 0.159668
0.227844 0.206543 0.190247
0.237091 0.214935 0.197968
0.331451 0.300446 0.276733
0.441528 0.400238 0.368652
0.542206 0.491486 0.452698
0.602661 0.558136 0.524109
0.245972 0.222961 0.205383
0.274109 0.248474 0.228851
0.319763 0.289856 0.266968
0.331451 0.300446 0.276733
0.343384 0.311279 0.286713
0.453186 0.410797 0.378357
0.550018 0.499573 0.461029
0.608521 0.564636 0.531097
0.349640 0.316925 0.291901
0.379730 0.344208 0.317047
0.430023 0.389801 0.359039
0.441528 0.400238 0.368652
0.453186 0.410797 0.378357
0.464905 0.421417 0.388153
0.557343 0.507721 0.469788
0.614502 0.571320 0.538269
0.455505 0.412872 0.380280
0.482635 0.437469 0.402924
0.533173 0.483276 0.445129
0.542206 0.491486 0.452698
0.550018 0.499573 0.461029
0.557343 0.507721 0.469788
0.564789 0.516022 0.478729
0.620667 0.578186 0.545685
0.534607 0.484589 0.446350
0.555084 0.505219 0.467072
0.597046 0.551880 0.517334
0.602661 0.558136 0.524109
0.608521 0.564636 0.531097
0.614502 0.571320 0.538269
0.620667 0.578186 0.545685
0.627014 0.585205 0.553253
0.147217 0.133453 0.122925
0.160034 0.145081 0.133636
0.175079 0.158691 0.146179
0.192169 0.174194 0.160461
0.277557 0.251587 0.231750
0.380585 0.344971 0.317749
0.475830 0.431305 0.397278
0.540710 0.490143 0.451447
0.155487 0.140961 0.129852
0.172729 0.156586 0.144226
0.191223 0.173340 0.159668
0.211823 0.192017 0.176849
0.301392 0.273193 0.251617
0.406189 0.368195 0.339142
0.501099 0.454224 0.418365
0.563110 0.514160 0.476746
0.164825 0.149414 0.137634
0.184784 0.167511 0.154297
0.218964 0.198486 0.182800
0.246735 0.223663 0.206024
0.343384 0.311279 0.286713
0.453186 0.410797 0.378357
0.550018 0.499573 0.461029
0.608521 0.564636 0.531097
0.175079 0.158691 0.146179
0.197876 0.179352 0.165222
0.237091 0.214935 0.197968
0.310913 0.281830 0.259613
0.415588 0.376709 0.346954
0.530731 0.481079 0.443115
0.615112 0.571991 0.539032
0.674255 0.637756 0.609863
0.253693 0.229980 0.211823
0.283081 0.256592 0.236328
0.331451 0.300446 0.276733
0.415588 0.376709 0.346954
0.430847 0.390533 0.359711
0.544006 0.493103 0.454193
0.623627 0.581451 0.549194
0.681274 0.645538 0.618225
0.357391 0.323975 0.298401
0.388550 0.352203 0.324402
0.441528 0.400238 0.368652
0.530731 0.481079 0.443115
0.544006 0.493103 0.454193
0.554535 0.504608 0.466431
0.632202 0.591003 0.559479
0.688324 0.653381 0.626678
0.460663 0.417572 0.384613
0.488831 0.443085 0.408112
0.542206 0.491486 0.452698
0.615112 0.571991 0.539032
0.623627 0.581451 0.549194
0.632202 0.591003 0.559479
0.640808 0.600555 0.569763
0.695435 0.661285 0.635193
0.536285 0.486115 0.447754
0.557465 0.507874 0.469940
0.602661 0.558136 0.524109
0.674255 0.637756 0.609863
0.681274 0.645538 0.618225
0.688324 0.653381 0.626678
0.695435 0.661285 0.635193
0.702637 0.669312 0.643829
0.202850 0.183868 0.169373
0.223663 0.202759 0.186768
0.245972 0.222961 0.205383
0.269501 0.244293 0.225006
0.293945 0.266449 0.245422
0.395844 0.358826 0.330505
0.484344 0.439026 0.404388
0.542389 0.491638 0.452850
0.216553 0.196289 0.180786
0.239777 0.217346 0.200195
0.265289 0.240479 0.221497
0.292175 0.264832 0.243927
0.320160 0.290222 0.267303
0.423798 0.384155 0.353821
0.512421 0.464478 0.427826
0.569641 0.521423 0.484528
0.230957 0.209351 0.192841
0.256592 0.232574 0.214233
0.297241 0.269440 0.248169
0.331451 0.300446 0.276733
0.367920 0.333496 0.307190
0.476135 0.431580 0.397522
0.564789 0.516022 0.478729
0.620667 0.578186 0.545685
0.245972 0.222961 0.205383
0.274109 0.248474 0.228851
0.319763 0.289856 0.266968
0.400513 0.363037 0.334381
0.446289 0.404541 0.372620
0.554535 0.504608 0.466431
0.632202 0.591003 0.559479
0.688324 0.653381 0.626678
0.261566 0.237091 0.218384
0.292175 0.264832 0.243927
0.343384 0.311279 0.286713
0.430847 0.390533 0.359711
0.541748 0.491058 0.452301
0.631653 0.590363 0.558807
0.706421 0.673523 0.648376
0.759674 0.732727 0.712128
0.365143 0.330994 0.304871
0.397369 0.360199 0.331787
0.453186 0.410797 0.378357
0.544006 0.493103 0.454193
0.631653 0.590363 0.558807
0.641571 0.601410 0.570709
0.714417 0.682404 0.657928
0.766052 0.739838 0.719788
0.465790 0.422241 0.388916
0.494965 0.448669 0.413239
0.550018 0.499573 0.461029
0.623627 0.581451 0.549194
0.706421 0.673523 0.648376
0.714417 0.682404 0.657928
0.722351 0.691254 0.667450
0.772400 0.746887 0.727386
0.537964 0.487610 0.449127
0.560181 0.510864 0.473175
0.608521 0.564636 0.531097
0.681274 0.645538 0.618225
0.759674 0.732727 0.712128
0.766052 0.739838 0.719788
0.772400 0.746887 0.727386
0.778748 0.753937 0.734985
0.295654 0.268005 0.246857
0.318634 0.288849 0.266052
0.341888 0.309906 0.285431
0.365143 0.330994 0.304871
0.388214 0.351898 0.324127
0.409485 0.371155 0.341858
0.490051 0.444183 0.409149
0.544067 0.493164 0.454254
0.310913 0.281830 0.259613
0.336060 0.304626 0.280579
0.362183 0.328308 0.302399
0.388550 0.352203 0.324402
0.415009 0.376160 0.346497
0.439819 0.398651 0.367188
0.524109 0.475098 0.437592
0.576874 0.529449 0.493164
0.326355 0.295837 0.272491
0.353455 0.320404 0.295105
0.396240 0.359161 0.330811
0.430023 0.389801 0.359039
0.464905 0.421417 0.388153
0.498444 0.451813 0.416138
0.580231 0.533173 0.497192
0.633484 0.592407 0.561005
0.341888 0.309906 0.285431
0.370972 0.336273 0.309723
0.418640 0.379486 0.349518
0.501556 0.454620 0.418732
0.544006 0.493103 0.454193
0.575409 0.527832 0.491455
0.649445 0.610168 0.580109
0.702637 0.669312 0.643829
0.357391 0.323975 0.298401
0.388580 0.352234 0.324432
0.441528 0.400238 0.368652
0.530731 0.481079 0.443115
0.621613 0.579224 0.546783
0.651550 0.612488 0.582642
0.722351 0.691254 0.667450
0.772400 0.746887 0.727386
0.372894 0.338013 0.311340
0.406189 0.368195 0.339142
0.464905 0.421417 0.388153
0.554535 0.504608 0.466431
0.641571 0.601410 0.570709
0.723328 0.692352 0.668640
0.788971 0.765320 0.747253
0.834167 0.815582 0.801361
0.470886 0.426849 0.393158
0.501099 0.454224 0.418365
0.557343 0.507721 0.469788
0.632202 0.591003 0.559479
0.714417 0.682404 0.657928
0.788971 0.765320 0.747253
0.795166 0.772217 0.754669
0.838776 0.820709 0.806885
0.539551 0.489075 0.450470
0.563110 0.514160 0.476746
0.614502 0.571320 0.538269
0.688324 0.653381 0.626678
0.766052 0.739838 0.719788
0.834167 0.815582 0.801361
0.838776 0.820709 0.806885
0.843323 0.825775 0.812347
0.411591 0.373077 0.343628
0.428436 0.388367 0.357697
0.444885 0.403259 0.371429
0.460663 0.417572 0.384613
0.475830 0.431305 0.397278
0.487213 0.441620 0.406769
0.495605 0.449249 0.413788
0.545563 0.494659 0.455719
0.422852 0.383301 0.353027
0.444580 0.402985 0.371155
0.463776 0.420380 0.387207
0.482635 0.437469 0.402924
0.501099 0.454224 0.418365
0.518158 0.469696 0.432617
0.536560 0.486389 0.447998
0.584900 0.538391 0.502838
0.433960 0.393372 0.362305
0.457428 0.414642 0.381897
0.497681 0.451141 0.415527
0.524170 0.475128 0.437622
0.550018 0.499573 0.461029
0.572449 0.524536 0.487885
0.596161 0.550903 0.516296
0.646881 0.607300 0.577026
0.444885 0.403259 0.371429
0.470093 0.426117 0.392487
0.515259 0.467072 0.430206
0.587646 0.541443 0.506104
0.615112 0.571991 0.539032
0.640808 0.600555 0.569763
0.666840 0.629517 0.600952
0.717102 0.685394 0.661163
0.455505 0.412872 0.380280
0.482635 0.437469 0.402924
0.533173 0.483276 0.445129
0.606659 0.562561 0.528870
0.690338 0.655640 0.629089
0.714417 0.682404 0.657928
0.738098 0.708740 0.686310
0.785034 0.760956 0.742523
0.465790 0.422241 0.388916
0.494965 0.448669 0.413239
0.550018 0.499573 0.461029
0.623627 0.581451 0.549194
0.706421 0.673523 0.648376
0.782684 0.758331 0.739716
0.801331 0.779083 0.762054
0.843323 0.825775 0.812347
0.475830 0.431305 0.397278
0.506836 0.459412 0.423157
0.564789 0.516022 0.478729
0.640808 0.600555 0.569763
0.722351 0.691254 0.667450
0.795166 0.772217 0.754669
0.851044 0.834381 0.821625
0.887878 0.875305 0.865692
0.540710 0.490143 0.451447
0.566284 0.517700 0.480530
0.620667 0.578186 0.545685
0.695435 0.661285 0.635193
0.772400 0.746887 0.727386
0.838776 0.820709 0.806885
0.887878 0.875305 0.865692
0.890503 0.878235 0.868866
0.518158 0.469696 0.432617
0.523956 0.474945 0.437439
0.529449 0.479919 0.442017
0.534607 0.484589 0.446350
0.539551 0.489075 0.450470
0.542389 0.491638 0.452850
0.544922 0.493927 0.454926
0.546936 0.496155 0.457336
0.522064 0.473206 0.435852
0.537384 0.487122 0.448669
0.545654 0.494751 0.455811
0.552704 0.502594 0.464264
0.560181 0.510864 0.473175
0.569641 0.521423 0.484528
0.580780 0.533783 0.497864
0.593658 0.548126 0.513306
0.525818 0.476624 0.438995
0.542969 0.492188 0.453339
0.573090 0.525238 0.488647
0.586945 0.540680 0.505280
0.602661 0.558136 0.524109
0.620667 0.578186 0.545685
0.640106 0.599792 0.568939
0.660767 0.622772 0.593689
0.529449 0.479919 0.442017
0.548004 0.497345 0.458618
0.582245 0.535431 0.499634
0.646759 0.607178 0.576904
0.667328 0.630035 0.601532
0.688324 0.653381 0.626678
0.709839 0.677338 0.652466
0.731689 0.701630 0.678619
0.532928 0.483063 0.444916
0.552704 0.502594 0.464264
0.591797 0.546051 0.511078
0.660461 0.622406 0.593323
0.740448 0.711365 0.689148
0.759674 0.732727 0.712128
0.778748 0.753937 0.734985
0.797516 0.774811 0.757477
0.536285 0.486115 0.447754
0.557465 0.507874 0.469940
0.602661 0.558136 0.524109
0.674255 0.637756 0.609863
0.753296 0.725647 0.704498
0.824768 0.805115 0.790100
0.838776 0.820709 0.806885
0.852264 0.835724 0.823059
0.539551 0.489075 0.450470
0.563110 0.514160 0.476746
0.614502 0.571320 0.538269
0.688324 0.653381 0.626678
0.766052 0.739838 0.719788
0.834167 0.815582 0.801361
0.885162 0.872284 0.862457
0.893097 0.881134 0.871979
0.541534 0.490875 0.452118
0.569641 0.521423 0.484528
0.627014 0.585205 0.553253
0.702637 0.669312 0.643829
0.778748 0.753937 0.734985
0.843323 0.825775 0.812347
0.890503 0.878235 0.868866
0.920349 0.911438 0.904633
