MISC/Striped Purple - Grey Matter.cube
#Created by: Adobe Photoshop Export Color Lookup Plugin
#Copyright: (C) Copyright 2018 Striped Purple - Austin Barrett
TITLE "Grey Matter"
#LUT size
LUT_3D_SIZE 32
#data domain
DOMAIN_MIN 0.0 0.0 0.0
DOMAIN_MAX 1.0 1.0 1.0
#LUT data points
0.111145 0.100739 0.092804
0.111389 0.100952 0.093018
0.112091 0.101624 0.093597
0.113281 0.102692 0.094574
0.114929 0.104187 0.095947
0.117035 0.106079 0.097717
0.119690 0.108490 0.099945
0.123047 0.111542 0.102753
0.127258 0.115356 0.106262
0.132660 0.120270 0.110779
0.139618 0.126556 0.116577
0.148590 0.134705 0.124084
0.160034 0.145081 0.133636
0.174011 0.157745 0.145294
0.190521 0.172699 0.159088
0.209564 0.189972 0.174988
0.230957 0.209351 0.192841
0.254425 0.230621 0.212433
0.279724 0.253571 0.233551
0.306396 0.277740 0.255829
0.334106 0.302856 0.278961
0.362335 0.328430 0.302521
0.390533 0.354004 0.326050
0.418213 0.379089 0.349152
0.444885 0.403259 0.371429
0.469910 0.425964 0.392334
0.492981 0.446838 0.411591
0.513519 0.465454 0.428711
0.531189 0.481476 0.443481
0.545868 0.494965 0.456055
0.556610 0.506897 0.468903
0.566406 0.517822 0.480652
0.111389 0.100952 0.093018
0.111450 0.101013 0.093048
0.112213 0.101715 0.093689
0.113434 0.102844 0.094727
0.115112 0.104340 0.096100
0.117279 0.106293 0.097900
0.120026 0.108795 0.100220
0.123444 0.111877 0.103058
0.127747 0.115784 0.106659
0.133301 0.120819 0.111298
0.140381 0.127228 0.117218
0.149567 0.135590 0.124878
0.161194 0.146118 0.134583
0.175354 0.158966 0.146423
0.192108 0.174133 0.160400
0.211273 0.191498 0.176392
0.232819 0.211060 0.194397
0.256348 0.232391 0.214050
0.281677 0.255341 0.235199
0.308380 0.279541 0.257477
0.336060 0.304626 0.280579
0.364197 0.330109 0.304077
0.392242 0.355560 0.327484
0.419739 0.380493 0.350464
0.446198 0.404449 0.372528
0.471039 0.426971 0.393280
0.493835 0.447632 0.412292
0.514160 0.466064 0.429291
0.531647 0.481903 0.443848
0.546082 0.495209 0.456329
0.556702 0.507050 0.469055
0.566406 0.517822 0.480652
0.112091 0.101624 0.093597
0.112213 0.101715 0.093689
0.112305 0.101807 0.093781
0.113556 0.102936 0.094818
0.115295 0.104523 0.096283
0.117523 0.106537 0.098114
0.120300 0.109070 0.100464
0.123810 0.112244 0.103394
0.128235 0.116241 0.107056
0.133881 0.121368 0.111786
0.141144 0.127960 0.117859
0.150574 0.136475 0.125702
0.162384 0.147186 0.135590
0.176758 0.160217 0.147583
0.193665 0.175537 0.161682
0.213043 0.193115 0.177887
0.234650 0.212677 0.195892
0.258331 0.234161 0.215668
0.283661 0.257141 0.236847
0.310333 0.281311 0.259125
0.337982 0.306366 0.282196
0.365997 0.331787 0.305603
0.393951 0.357086 0.328918
0.421295 0.381897 0.351746
0.447540 0.405670 0.373657
0.472137 0.427979 0.394196
0.494720 0.448456 0.413055
0.514832 0.466644 0.429810
0.532043 0.482269 0.444214
0.546295 0.495453 0.456573
0.556793 0.507141 0.469147
0.566406 0.517822 0.480652
0.113281 0.102692 0.094574
0.113434 0.102844 0.094727
0.113556 0.102936 0.094818
0.113708 0.103088 0.094971
0.115479 0.104675 0.096436
0.117798 0.106781 0.098358
0.120605 0.109344 0.100708
0.124207 0.112579 0.103699
0.128723 0.116699 0.107483
0.134521 0.121948 0.112335
0.141937 0.128662 0.118530
0.151550 0.137390 0.126556
0.163605 0.148315 0.136597
0.178162 0.161499 0.148773
0.195221 0.176971 0.162994
0.214752 0.194672 0.179291
0.236542 0.214417 0.197479
0.260254 0.235901 0.217285
0.285675 0.258972 0.238525
0.312378 0.283142 0.260803
0.339905 0.308105 0.283813
0.367828 0.333435 0.307129
0.395660 0.358643 0.330322
0.422821 0.383270 0.352997
0.448883 0.406891 0.374756
0.473297 0.429016 0.395142
0.495605 0.449249 0.413788
0.515472 0.467255 0.430359
0.532501 0.482666 0.444580
0.546509 0.495697 0.456848
0.556915 0.507263 0.469299
0.566406 0.517822 0.480652
0.114929 0.104187 0.095947
0.115112 0.104340 0.096100
0.115295 0.104523 0.096283
0.115479 0.104675 0.096436
0.115692 0.104858 0.096588
0.118042 0.106995 0.098572
0.120972 0.109650 0.101013
0.124603 0.112976 0.104065
0.129242 0.117157 0.107910
0.135132 0.122498 0.112823
0.142792 0.129425 0.119232
0.152557 0.138306 0.127380
0.164825 0.149414 0.137634
0.179596 0.162811 0.149963
0.196869 0.178467 0.164368
0.216522 0.196259 0.180756
0.238403 0.216095 0.199036
0.262207 0.237671 0.218933
0.287659 0.260742 0.240173
0.314362 0.284973 0.262482
0.341888 0.309906 0.285431
0.369690 0.335114 0.308655
0.397369 0.360199 0.331787
0.424377 0.384674 0.354309
0.450195 0.408081 0.375854
0.474396 0.429993 0.396057
0.496460 0.450012 0.414490
0.516083 0.467804 0.430878
0.532928 0.483063 0.444916
0.546722 0.495941 0.457092
0.557037 0.507385 0.469421
0.566406 0.517822 0.480652
0.117035 0.106079 0.097717
0.117279 0.106293 0.097900
0.117523 0.106537 0.098114
0.117798 0.106781 0.098358
0.118042 0.106995 0.098572
0.118286 0.107239 0.098785
0.121277 0.109924 0.101257
0.125000 0.113312 0.104370
0.129730 0.117615 0.108337
0.135773 0.123077 0.113373
0.143585 0.130157 0.119873
0.153564 0.139221 0.128235
0.166046 0.150513 0.138641
0.181030 0.164093 0.151154
0.198456 0.179871 0.165680
0.218231 0.197815 0.182220
0.240295 0.217804 0.200623
0.264191 0.239471 0.220581
0.289673 0.262573 0.241852
0.316376 0.286774 0.264130
0.343781 0.311615 0.287018
0.371521 0.336761 0.310181
0.399078 0.361755 0.333191
0.425934 0.386078 0.355621
0.451538 0.409302 0.376984
0.475494 0.431000 0.396973
0.497375 0.450836 0.415253
0.516754 0.468414 0.431427
0.533356 0.483459 0.445312
0.546936 0.496155 0.457336
0.557129 0.507477 0.469543
0.566406 0.517822 0.480652
0.119690 0.108490 0.099945
0.120026 0.108795 0.100220
0.120300 0.109070 0.100464
0.120605 0.109344 0.100708
0.120972 0.109650 0.101013
0.121277 0.109924 0.101257
0.121582 0.110199 0.101501
0.125397 0.113678 0.104706
0.130219 0.118042 0.108734
0.136444 0.123688 0.113922
0.144409 0.130890 0.120575
0.154602 0.140137 0.129089
0.167297 0.151642 0.139679
0.182465 0.165405 0.152344
0.200073 0.181366 0.167053
0.220032 0.199463 0.183716
0.242188 0.219543 0.202209
0.266144 0.241272 0.222229
0.291656 0.264374 0.243500
0.318359 0.288574 0.265808
0.345734 0.313385 0.288666
0.373352 0.338409 0.311707
0.400757 0.363281 0.334595
0.427399 0.387421 0.356842
0.452850 0.410492 0.378082
0.476562 0.431976 0.397888
0.498230 0.451630 0.415985
0.517395 0.468994 0.431976
0.533752 0.483826 0.445618
0.547150 0.496399 0.457611
0.557220 0.507599 0.469666
0.566406 0.517822 0.480652
0.123047 0.111542 0.102753
0.123444 0.111877 0.103058
0.123810 0.112244 0.103394
0.124207 0.112579 0.103699
0.124603 0.112976 0.104065
0.125000 0.113312 0.104370
0.125397 0.113678 0.104706
0.125854 0.114075 0.105072
0.130768 0.118530 0.109192
0.137115 0.124298 0.114502
0.145264 0.131683 0.121277
0.155670 0.141113 0.129974
0.168549 0.152802 0.140747
0.183868 0.166687 0.153534
0.201721 0.182861 0.168427
0.221832 0.201080 0.185211
0.244080 0.221252 0.203796
0.268158 0.243073 0.223877
0.293701 0.266235 0.245209
0.320374 0.290405 0.267487
0.347687 0.315155 0.290283
0.375214 0.340118 0.313263
0.402466 0.364807 0.336029
0.428955 0.388824 0.358124
0.454163 0.411682 0.379181
0.477661 0.432983 0.398804
0.499115 0.452423 0.416718
0.518036 0.469574 0.432495
0.534180 0.484222 0.446014
0.547394 0.496674 0.457886
0.557343 0.507721 0.469788
0.566406 0.517822 0.480652
0.127258 0.115356 0.106262
0.127747 0.115784 0.106659
0.128235 0.116241 0.107056
0.128723 0.116699 0.107483
0.129242 0.117157 0.107910
0.129730 0.117615 0.108337
0.130219 0.118042 0.108734
0.130768 0.118530 0.109192
0.131287 0.119019 0.109650
0.137787 0.124908 0.115051
0.146088 0.132416 0.121979
0.156738 0.142059 0.130859
0.169800 0.153931 0.141785
0.185394 0.168060 0.154785
0.203369 0.184357 0.169800
0.223633 0.202728 0.186737
0.245972 0.222961 0.205383
0.270142 0.244873 0.225555
0.295685 0.268036 0.246887
0.322357 0.292206 0.269165
0.349640 0.316925 0.291901
0.377045 0.341766 0.314789
0.404175 0.366364 0.337433
0.430450 0.390167 0.359375
0.455505 0.412872 0.380280
0.478760 0.433960 0.399719
0.499969 0.453186 0.417419
0.518646 0.470123 0.433014
0.534607 0.484589 0.446350
0.547577 0.496887 0.458130
0.557404 0.507812 0.469879
0.566406 0.517822 0.480652
0.132660 0.120270 0.110779
0.133301 0.120819 0.111298
0.133881 0.121368 0.111786
0.134521 0.121948 0.112335
0.135132 0.122498 0.112823
0.135773 0.123077 0.113373
0.136444 0.123688 0.113922
0.137115 0.124298 0.114502
0.137787 0.124908 0.115051
0.138428 0.125488 0.115601
0.146973 0.133240 0.122742
0.157837 0.143097 0.131805
0.171112 0.155121 0.142883
0.186859 0.169403 0.156036
0.204987 0.185822 0.171173
0.225433 0.204346 0.188232
0.247894 0.224701 0.206970
0.272125 0.246643 0.227203
0.297729 0.269867 0.248566
0.324371 0.294037 0.270813
0.351562 0.318665 0.293518
0.378906 0.343445 0.316345
0.405853 0.367889 0.338867
0.431976 0.391571 0.360657
0.456787 0.414032 0.381378
0.479858 0.434967 0.400635
0.500793 0.453949 0.418121
0.519287 0.470703 0.433563
0.535034 0.484985 0.446686
0.547791 0.497131 0.458374
0.557526 0.507935 0.470001
0.566406 0.517822 0.480652
0.139618 0.126556 0.116577
0.140381 0.127228 0.117218
0.141144 0.127960 0.117859
0.141937 0.128662 0.118530
0.142792 0.129425 0.119232
0.143585 0.130157 0.119873
0.144409 0.130890 0.120575
0.145264 0.131683 0.121277
0.146088 0.132416 0.121979
0.146973 0.133240 0.122742
0.147888 0.134064 0.123474
0.158936 0.144073 0.132721
0.172455 0.156311 0.143982
0.188385 0.170776 0.157288
0.206696 0.187347 0.172577
0.227234 0.205994 0.189728
0.249847 0.226471 0.208588
0.274109 0.248474 0.228851
0.299744 0.271698 0.250275
0.326355 0.295837 0.272491
0.353485 0.320435 0.295135
0.380737 0.345123 0.317871
0.407562 0.369446 0.340271
0.433472 0.392914 0.361908
0.458069 0.415222 0.382446
0.480927 0.435944 0.401550
0.501648 0.454712 0.418823
0.519928 0.471283 0.434082
0.535461 0.485352 0.447052
0.548004 0.497375 0.458649
0.557617 0.508057 0.470154
0.566406 0.517822 0.480652
0.148590 0.134705 0.124084
0.149567 0.135590 0.124878
0.150574 0.136475 0.125702
0.151550 0.137390 0.126556
0.152557 0.138306 0.127380
0.153564 0.139221 0.128235
0.154602 0.140137 0.129089
0.155670 0.141113 0.129974
0.156738 0.142059 0.130859
0.157837 0.143097 0.131805
0.158936 0.144073 0.132721
0.160034 0.145081 0.133636
0.173737 0.157471 0.145050
0.189880 0.172119 0.158539
0.208405 0.188904 0.174011
0.229095 0.207672 0.191284
0.251770 0.228210 0.210205
0.276123 0.250275 0.230530
0.301758 0.273529 0.251953
0.328339 0.297638 0.274139
0.355469 0.322205 0.296783
0.382538 0.346771 0.319397
0.409241 0.370941 0.341675
0.434967 0.394257 0.363159
0.459381 0.416412 0.383545
0.481995 0.436920 0.402435
0.502472 0.455475 0.419525
0.520508 0.471802 0.434570
0.535858 0.485718 0.447357
0.548218 0.497589 0.458893
0.557739 0.508179 0.470276
0.566406 0.517822 0.480652
0.160034 0.145081 0.133636
0.161194 0.146118 0.134583
0.162384 0.147186 0.135590
0.163605 0.148315 0.136597
0.164825 0.149414 0.137634
0.166046 0.150513 0.138641
0.167297 0.151642 0.139679
0.168549 0.152802 0.140747
0.169800 0.153931 0.141785
0.171112 0.155121 0.142883
0.172455 0.156311 0.143982
0.173737 0.157471 0.145050
0.175079 0.158691 0.146179
0.191406 0.173523 0.159821
0.210052 0.190399 0.175385
0.230927 0.209320 0.192810
0.253693 0.229980 0.211823
0.278107 0.252106 0.232208
0.303802 0.275360 0.253632
0.330383 0.299469 0.275848
0.357391 0.323975 0.298401
0.384399 0.348450 0.320953
0.410919 0.372467 0.343079
0.436493 0.395660 0.364441
0.460663 0.417572 0.384613
0.483093 0.437897 0.403351
0.503357 0.456268 0.420258
0.521149 0.472412 0.435120
0.536285 0.486115 0.447754
0.548462 0.497864 0.459167
0.557831 0.508301 0.470398
0.566406 0.517822 0.480652
0.174011 0.157745 0.145294
0.175354 0.158966 0.146423
0.176758 0.160217 0.147583
0.178162 0.161499 0.148773
0.179596 0.162811 0.149963
0.181030 0.164093 0.151154
0.182465 0.165405 0.152344
0.183868 0.166687 0.153534
0.185394 0.168060 0.154785
0.186859 0.169403 0.156036
0.188385 0.170776 0.157288
0.189880 0.172119 0.158539
0.191406 0.173523 0.159821
0.192932 0.174896 0.161102
0.211792 0.191986 0.176819
0.232758 0.210999 0.194336
0.255646 0.231720 0.213440
0.280121 0.253906 0.233856
0.305817 0.277222 0.255341
0.332367 0.301270 0.277496
0.359314 0.325714 0.300018
0.386230 0.350098 0.322479
0.412567 0.373993 0.344482
0.437988 0.397003 0.365662
0.461975 0.418762 0.385712
0.484161 0.438873 0.404236
0.504181 0.457001 0.420929
0.521759 0.472931 0.435608
0.536682 0.486450 0.448059
0.548676 0.498108 0.459412
0.557953 0.508423 0.470520
0.566406 0.517822 0.480652
0.190521 0.172699 0.159088
0.192108 0.174133 0.160400
0.193665 0.175537 0.161682
0.195221 0.176971 0.162994
0.196869 0.178467 0.164368
0.198456 0.179871 0.165680
0.200073 0.181366 0.167053
0.201721 0.182861 0.168427
0.203369 0.184357 0.169800
0.204987 0.185822 0.171173
0.206696 0.187347 0.172577
0.208405 0.188904 0.174011
0.210052 0.190399 0.175385
0.211792 0.191986 0.176819
0.213501 0.193542 0.178284
0.234619 0.212646 0.195862
0.257599 0.233521 0.215088
0.282135 0.255737 0.235565
0.307892 0.279083 0.257050
0.334412 0.303101 0.279175
0.361267 0.327454 0.301605
0.388031 0.351746 0.323975
0.414246 0.375488 0.345856
0.439484 0.398376 0.366943
0.463257 0.419922 0.386780
0.485229 0.439850 0.405121
0.505035 0.457764 0.421631
0.522369 0.473511 0.436127
0.537109 0.486877 0.448456
0.548859 0.498291 0.459625
0.558044 0.508514 0.470642
0.566406 0.517822 0.480652
0.209564 0.189972 0.174988
0.211273 0.191498 0.176392
0.213043 0.193115 0.177887
0.214752 0.194672 0.179291
0.216522 0.196259 0.180756
0.218231 0.197815 0.182220
0.220032 0.199463 0.183716
0.221832 0.201080 0.185211
0.223633 0.202728 0.186737
0.225433 0.204346 0.188232
0.227234 0.205994 0.189728
0.229095 0.207672 0.191284
0.230927 0.209320 0.192810
0.232758 0.210999 0.194336
0.234619 0.212646 0.195862
0.236481 0.214355 0.197418
0.259613 0.235321 0.216766
0.284149 0.257568 0.237244
0.309906 0.280914 0.258728
0.336395 0.304932 0.280853
0.363220 0.329254 0.303253
0.389862 0.353394 0.325500
0.415924 0.377014 0.347260
0.440948 0.399719 0.368164
0.464539 0.421051 0.387817
0.486267 0.440796 0.406006
0.505859 0.458527 0.422333
0.522980 0.474060 0.436646
0.537506 0.487213 0.448761
0.549103 0.498566 0.459900
0.558136 0.508606 0.470734
0.566406 0.517822 0.480652
0.230957 0.209351 0.192841
0.232819 0.211060 0.194397
0.234650 0.212677 0.195892
0.236542 0.214417 0.197479
0.238403 0.216095 0.199036
0.240295 0.217804 0.200623
0.242188 0.219543 0.202209
0.244080 0.221252 0.203796
0.245972 0.222961 0.205383
0.247894 0.224701 0.206970
0.249847 0.226471 0.208588
0.251770 0.228210 0.210205
0.253693 0.229980 0.211823
0.255646 0.231720 0.213440
0.257599 0.233521 0.215088
0.259613 0.235321 0.216766
0.261566 0.237091 0.218384
0.286163 0.259399 0.238953
0.311951 0.282776 0.260468
0.338409 0.306732 0.282532
0.365143 0.330994 0.304871
0.391693 0.355042 0.327026
0.417603 0.378540 0.348663
0.442444 0.401031 0.369385
0.465790 0.422241 0.388916
0.487305 0.441711 0.406860
0.506683 0.459290 0.423035
0.523590 0.474609 0.437134
0.537964 0.487610 0.449127
0.549316 0.498810 0.460175
0.558228 0.508728 0.470886
0.566406 0.517822 0.480652
0.254425 0.230621 0.212433
0.256348 0.232391 0.214050
0.258331 0.234161 0.215668
0.260254 0.235901 0.217285
0.262207 0.237671 0.218933
0.264191 0.239471 0.220581
0.266144 0.241272 0.222229
0.268158 0.243073 0.223877
0.270142 0.244873 0.225555
0.272125 0.246643 0.227203
0.274109 0.248474 0.228851
0.276123 0.250275 0.230530
0.278107 0.252106 0.232208
0.280121 0.253906 0.233856
0.282135 0.255737 0.235565
0.284149 0.257568 0.237244
0.286163 0.259399 0.238953
0.288239 0.261292 0.240662
0.313995 0.284607 0.262146
0.340424 0.308594 0.284241
0.367065 0.332733 0.306488
0.393524 0.356720 0.328552
0.419281 0.380035 0.350067
0.443909 0.402374 0.370636
0.467102 0.423401 0.389984
0.488373 0.442688 0.407745
0.507507 0.460052 0.423737
0.524200 0.475159 0.437653
0.538361 0.487976 0.449463
0.549500 0.498993 0.460388
0.558319 0.508820 0.470978
0.566406 0.517822 0.480652
0.279724 0.253571 0.233551
0.281677 0.255341 0.235199
0.283661 0.257141 0.236847
0.285675 0.258972 0.238525
0.287659 0.260742 0.240173
0.289673 0.262573 0.241852
0.291656 0.264374 0.243500
0.293701 0.266235 0.245209
0.295685 0.268036 0.246887
0.297729 0.269867 0.248566
0.299744 0.271698 0.250275
0.301758 0.273529 0.251953
0.303802 0.275360 0.253632
0.305817 0.277222 0.255341
0.307892 0.279083 0.257050
0.309906 0.280914 0.258728
0.311951 0.282776 0.260468
0.313995 0.284607 0.262146
0.316040 0.286469 0.263855
0.342468 0.310425 0.285919
0.369019 0.334473 0.308075
0.395325 0.358337 0.330048
0.420929 0.381561 0.351440
0.445404 0.403717 0.371857
0.468353 0.424530 0.391022
0.489410 0.443634 0.408600
0.508301 0.460754 0.424377
0.524811 0.475708 0.438171
0.538757 0.488342 0.449799
0.549683 0.499237 0.460632
0.558411 0.508911 0.471069
0.566406 0.517822 0.480652
0.306396 0.277740 0.255829
0.308380 0.279541 0.257477
0.310333 0.281311 0.259125
0.312378 0.283142 0.260803
0.314362 0.284973 0.262482
0.316376 0.286774 0.264130
0.318359 0.288574 0.265808
0.320374 0.290405 0.267487
0.322357 0.292206 0.269165
0.324371 0.294037 0.270813
0.326355 0.295837 0.272491
0.328339 0.297638 0.274139
0.330383 0.299469 0.275848
0.332367 0.301270 0.277496
0.334412 0.303101 0.279175
0.336395 0.304932 0.280853
0.338409 0.306732 0.282532
0.340424 0.308594 0.284241
0.342468 0.310425 0.285919
0.344452 0.312225 0.287598
0.370941 0.336243 0.309692
0.397095 0.359955 0.331543
0.422577 0.383057 0.352814
0.446869 0.405060 0.373108
0.469635 0.425690 0.392090
0.490479 0.444611 0.409515
0.509125 0.461487 0.425079
0.525360 0.476227 0.438629
0.539154 0.488708 0.450134
0.549927 0.499481 0.460907
0.558472 0.509003 0.471161
0.566406 0.517822 0.480652
0.334106 0.302856 0.278961
0.336060 0.304626 0.280579
0.337982 0.306366 0.282196
0.339905 0.308105 0.283813
0.341888 0.309906 0.285431
0.343781 0.311615 0.287018
0.345734 0.313385 0.288666
0.347687 0.315155 0.290283
0.349640 0.316925 0.291901
0.351562 0.318665 0.293518
0.353485 0.320435 0.295135
0.355469 0.322205 0.296783
0.357391 0.323975 0.298401
0.359314 0.325714 0.300018
0.361267 0.327454 0.301605
0.363220 0.329254 0.303253
0.365143 0.330994 0.304871
0.367065 0.332733 0.306488
0.369019 0.334473 0.308075
0.370941 0.336243 0.309692
0.372894 0.338013 0.311340
0.398926 0.361603 0.333069
0.424255 0.384583 0.354218
0.448334 0.406372 0.374298
0.470886 0.426849 0.393158
0.491516 0.445526 0.410370
0.509918 0.462219 0.425751
0.525970 0.476776 0.439148
0.539551 0.489075 0.450470
0.550079 0.499664 0.461121
0.558533 0.509064 0.471222
0.566406 0.517822 0.480652
0.362335 0.328430 0.302521
0.364197 0.330109 0.304077
0.365997 0.331787 0.305603
0.367828 0.333435 0.307129
0.369690 0.335114 0.308655
0.371521 0.336761 0.310181
0.373352 0.338409 0.311707
0.375214 0.340118 0.313263
0.377045 0.341766 0.314789
0.378906 0.343445 0.316345
0.380737 0.345123 0.317871
0.382538 0.346771 0.319397
0.384399 0.348450 0.320953
0.386230 0.350098 0.322479
0.388031 0.351746 0.323975
0.389862 0.353394 0.325500
0.391693 0.355042 0.327026
0.393524 0.356720 0.328552
0.395325 0.358337 0.330048
0.397095 0.359955 0.331543
0.398926 0.361603 0.333069
0.400726 0.363251 0.334564
0.425873 0.386047 0.355591
0.449799 0.407715 0.375549
0.472107 0.427948 0.394165
0.492554 0.446472 0.411224
0.510773 0.462982 0.426453
0.526581 0.477325 0.439636
0.539948 0.489441 0.450806
0.550201 0.499786 0.461243
0.558594 0.509125 0.471283
0.566406 0.517822 0.480652
0.390533 0.354004 0.326050
0.392242 0.355560 0.327484
0.393951 0.357086 0.328918
0.395660 0.358643 0.330322
0.397369 0.360199 0.331787
0.399078 0.361755 0.333191
0.400757 0.363281 0.334595
0.402466 0.364807 0.336029
0.404175 0.366364 0.337433
0.405853 0.367889 0.338867
0.407562 0.369446 0.340271
0.409241 0.370941 0.341675
0.410919 0.372467 0.343079
0.412567 0.373993 0.344482
0.414246 0.375488 0.345856
0.415924 0.377014 0.347260
0.417603 0.378540 0.348663
0.419281 0.380035 0.350067
0.420929 0.381561 0.351440
0.422577 0.383057 0.352814
0.424255 0.384583 0.354218
0.425873 0.386047 0.355591
0.427521 0.387512 0.356934
0.451263 0.409027 0.376740
0.473358 0.429077 0.395203
0.493561 0.447357 0.412048
0.511566 0.463715 0.427124
0.527161 0.477844 0.440125
0.540283 0.489746 0.451080
0.550293 0.499908 0.461365
0.558655 0.509186 0.471344
0.566406 0.517822 0.480652
0.418213 0.379089 0.349152
0.419739 0.380493 0.350464
0.421295 0.381897 0.351746
0.422821 0.383270 0.352997
0.424377 0.384674 0.354309
0.425934 0.386078 0.355621
0.427399 0.387421 0.356842
0.428955 0.388824 0.358124
0.430450 0.390167 0.359375
0.431976 0.391571 0.360657
0.433472 0.392914 0.361908
0.434967 0.394257 0.363159
0.436493 0.395660 0.364441
0.437988 0.397003 0.365662
0.439484 0.398376 0.366943
0.440948 0.399719 0.368164
0.442444 0.401031 0.369385
0.443909 0.402374 0.370636
0.445404 0.403717 0.371857
0.446869 0.405060 0.373108
0.448334 0.406372 0.374298
0.449799 0.407715 0.375549
0.451263 0.409027 0.376740
0.452698 0.410339 0.377960
0.474609 0.430206 0.396271
0.494568 0.448303 0.412933
0.512329 0.464417 0.427765
0.527740 0.478363 0.440613
0.540466 0.489899 0.451233
0.550415 0.500031 0.461487
0.558685 0.509247 0.471436
0.566406 0.517822 0.480652
0.444885 0.403259 0.371429
0.446198 0.404449 0.372528
0.447540 0.405670 0.373657
0.448883 0.406891 0.374756
0.450195 0.408081 0.375854
0.451538 0.409302 0.376984
0.452850 0.410492 0.378082
0.454163 0.411682 0.379181
0.455505 0.412872 0.380280
0.456787 0.414032 0.381378
0.458069 0.415222 0.382446
0.459381 0.416412 0.383545
0.460663 0.417572 0.384613
0.461975 0.418762 0.385712
0.463257 0.419922 0.386780
0.464539 0.421051 0.387817
0.465790 0.422241 0.388916
0.467102 0.423401 0.389984
0.468353 0.424530 0.391022
0.469635 0.425690 0.392090
0.470886 0.426849 0.393158
0.472107 0.427948 0.394165
0.473358 0.429077 0.395203
0.474609 0.430206 0.396271
0.475830 0.431305 0.397278
0.495605 0.449249 0.413788
0.513123 0.465118 0.428406
0.528198 0.478790 0.440979
0.540710 0.490143 0.451447
0.550537 0.500153 0.461639
0.558746 0.509308 0.471497
0.566406 0.517822 0.480652
0.469910 0.425964 0.392334
0.471039 0.426971 0.393280
0.472137 0.427979 0.394196
0.473297 0.429016 0.395142
0.474396 0.429993 0.396057
0.475494 0.431000 0.396973
0.476562 0.431976 0.397888
0.477661 0.432983 0.398804
0.478760 0.433960 0.399719
0.479858 0.434967 0.400635
0.480927 0.435944 0.401550
0.481995 0.436920 0.402435
0.483093 0.437897 0.403351
0.484161 0.438873 0.404236
0.485229 0.439850 0.405121
0.486267 0.440796 0.406006
0.487305 0.441711 0.406860
0.488373 0.442688 0.407745
0.489410 0.443634 0.408600
0.490479 0.444611 0.409515
0.491516 0.445526 0.410370
0.492554 0.446472 0.411224
0.493561 0.447357 0.412048
0.494568 0.448303 0.412933
0.495605 0.449249 0.413788
0.496582 0.450134 0.414612
0.513916 0.465851 0.429077
0.528503 0.479065 0.441254
0.540924 0.490295 0.451599
0.550629 0.500244 0.461731
0.558777 0.509338 0.471527
0.566406 0.517822 0.480652
0.492981 0.446838 0.411591
0.493835 0.447632 0.412292
0.494720 0.448456 0.413055
0.495605 0.449249 0.413788
0.496460 0.450012 0.414490
0.497375 0.450836 0.415253
0.498230 0.451630 0.415985
0.499115 0.452423 0.416718
0.499969 0.453186 0.417419
0.500793 0.453949 0.418121
0.501648 0.454712 0.418823
0.502472 0.455475 0.419525
0.503357 0.456268 0.420258
0.504181 0.457001 0.420929
0.505035 0.457764 0.421631
0.505859 0.458527 0.422333
0.506683 0.459290 0.423035
0.507507 0.460052 0.423737
0.508301 0.460754 0.424377
0.509125 0.461487 0.425079
0.509918 0.462219 0.425751
0.510773 0.462982 0.426453
0.511566 0.463715 0.427124
0.512329 0.464417 0.427765
0.513123 0.465118 0.428406
0.513916 0.465851 0.429077
0.514557 0.466400 0.429596
0.528839 0.479370 0.441528
0.541107 0.490479 0.451782
0.550751 0.500397 0.461914
0.558838 0.509399 0.471588
0.566406 0.517822 0.480652
0.513519 0.465454 0.428711
0.514160 0.466064 0.429291
0.514832 0.466644 0.429810
0.515472 0.467255 0.430359
0.516083 0.467804 0.430878
0.516754 0.468414 0.431427
0.517395 0.468994 0.431976
0.518036 0.469574 0.432495
0.518646 0.470123 0.433014
0.519287 0.470703 0.433563
0.519928 0.471283 0.434082
0.520508 0.471802 0.434570
0.521149 0.472412 0.435120
0.521759 0.472931 0.435608
0.522369 0.473511 0.436127
0.522980 0.474060 0.436646
