Film Simulations/Infrared/Striped Purple - Infrared.cube
#Created by: Adobe Photoshop Export Color Lookup Plugin
#Copyright: (C) Copyright 2018 Striped Purple - Austin Barrett
TITLE "Infrared"
#LUT size
LUT_3D_SIZE 5
#data domain
#LUT data points
DOMAIN_MIN 0.000000 0.000000 0.000000
DOMAIN_MAX 0.903226 0.903226 0.903226
0.000000 0.000000 0.000000
0.096832 0.041962 0.000000
0.193542 0.083862 0.000000
0.290344 0.125824 0.000000
0.387115 0.167755 0.000000
0.289154 0.000000 0.110840
0.490204 0.185547 0.101349
0.629791 0.211273 0.007111
0.675415 0.159119 0.000000
0.731903 0.138672 0.000000
0.578186 0.000000 0.221619
0.798523 0.080261 0.131104
0.980408 0.371155 0.202759
1.000000 0.556732 0.235229
1.000000 0.493286 0.246094
0.867279 0.000000 0.332428
1.000000 0.151093 0.239380
1.000000 0.430725 0.452118
1.000000 0.671478 0.580688
1.000000 0.777618 0.583099
1.000000 0.145233 0.472870
1.000000 0.351654 0.438080
1.000000 0.545593 0.577759
1.000000 0.694366 0.700775
1.000000 0.837769 0.792938
0.000031 0.027924 0.027924
0.000031 0.156860 0.000031
0.195831 0.248566 0.000000
0.343842 0.294556 0.000000
0.439880 0.300598 0.000000
0.090302 0.090302 0.316101
0.225800 0.225800 0.225800
0.362183 0.233215 0.134613
0.498566 0.240631 0.043396
0.612885 0.265594 0.000000
0.501312 0.087708 0.608673
0.518097 0.222626 0.335876
0.716003 0.411346 0.327148
0.855591 0.437042 0.232880
0.949768 0.359222 0.177216
0.914276 0.062714 0.772705
0.810425 0.219452 0.445984
1.000000 0.330383 0.377808
1.000000 0.692017 0.606873
1.000000 0.758240 0.582886
1.000000 0.228088 0.728058
1.000000 0.314636 0.577332
1.000000 0.528412 0.577454
1.000000 0.707275 0.718292
1.000000 0.858337 0.819183
0.000031 0.055817 0.055817
0.000031 0.158630 0.079346
0.000031 0.313812 0.000031
0.174408 0.403564 0.000031
0.391632 0.497101 0.000000
0.000031 0.153717 0.307373
0.049683 0.275482 0.275482
0.185120 0.410919 0.185120
0.451111 0.547302 0.093903
0.684540 0.586700 0.001831
0.180664 0.180664 0.632263
0.316101 0.316101 0.541901
0.451599 0.451599 0.451599
0.587982 0.459015 0.360382
0.724365 0.466431 0.269196
0.500427 0.201691 0.910614
0.727173 0.313538 0.834534
0.743896 0.448395 0.561676
0.941895 0.637207 0.552979
1.000000 0.690948 0.540192
0.861603 0.328308 1.000000
1.000000 0.406036 0.901245
1.000000 0.481476 0.680237
1.000000 0.706573 0.727356
1.000000 0.878845 0.845367
0.000031 0.083710 0.083710
0.000031 0.180054 0.120056
0.000031 0.304321 0.101440
0.000031 0.470734 0.000031
0.142334 0.559418 0.000031
0.000031 0.199768 0.299622
0.000031 0.309540 0.309540
0.008972 0.460602 0.234802
0.144470 0.596100 0.144470
0.346893 0.731598 0.054169
0.004517 0.230286 0.681946
0.139954 0.365784 0.591583
0.275452 0.501282 0.501282
0.410950 0.636780 0.410950
0.676910 0.773102 0.319702
0.270996 0.270996 0.948425
0.406433 0.406433 0.858063
0.541931 0.541931 0.767761
0.677429 0.677429 0.677429
0.813812 0.684845 0.586243
0.562195 0.416260 1.000000
0.713806 0.504761 1.000000
0.914764 0.586334 1.000000
0.969727 0.674255 0.787506
1.000000 0.899384 0.871582
0.000031 0.111603 0.111603
0.000031 0.205017 0.153778
0.000031 0.317291 0.158661
0.000031 0.454956 0.113770
0.000031 0.627594 0.000031
0.000031 0.234924 0.313232
0.000031 0.337402 0.337402
0.000031 0.465851 0.310608
0.000031 0.631561 0.210480
0.103851 0.781281 0.103851
0.000031 0.307404 0.614746
0.000031 0.416901 0.625275
0.099335 0.550964 0.550964
0.234833 0.686462 0.460663
0.370270 0.821899 0.370270
0.094879 0.320679 0.998108
0.230316 0.456085 0.907745
0.365814 0.591644 0.817444
0.501312 0.727112 0.727112
0.636749 0.862549 0.636749
0.474701 0.474701 1.000000
0.571503 0.571503 1.000000
0.668213 0.668213 1.000000
0.767731 0.767731 0.993530
0.903229 0.903229 0.903229
