Film Simulations/Infrared/Striped Purple - Infrared.cube
#Created by: Adobe Photoshop Export Color Lookup Plugin
#Copyright: (C) Copyright 2018 Striped Purple - Austin Barrett
TITLE "Infrared"
#LUT size
LUT_3D_SIZE 32
#data domain
DOMAIN_MIN 0.0 0.0 0.0
DOMAIN_MAX 1.0 1.0 1.0
#LUT data points
0.000000 0.000000 0.000000
0.013855 0.006012 0.000000
0.027679 0.011993 0.000000
0.041473 0.017975 0.000000
0.055298 0.023956 0.000000
0.069122 0.029968 0.000000
0.083008 0.035980 0.000000
0.096832 0.041962 0.000000
0.110626 0.047943 0.000000
0.124451 0.053925 0.000000
0.138275 0.059937 0.000000
0.152100 0.065918 0.000000
0.165924 0.071899 0.000000
0.179718 0.077881 0.000000
0.193542 0.083862 0.000000
0.207367 0.089874 0.000000
0.221252 0.095886 0.000000
0.235046 0.101868 0.000000
0.248871 0.107849 0.000000
0.262695 0.113831 0.000000
0.276520 0.119843 0.000000
0.290344 0.125824 0.000000
0.304138 0.131805 0.000000
0.317963 0.137787 0.000000
0.331787 0.143768 0.000000
0.345612 0.149780 0.000000
0.359497 0.155792 0.000000
0.373291 0.161774 0.000000
0.387115 0.167755 0.000000
0.400940 0.173737 0.000000
0.414764 0.179749 0.000000
0.428589 0.185730 0.000000
0.041382 0.000000 0.015869
0.070038 0.026489 0.014465
0.089966 0.030182 0.001007
0.096527 0.022736 0.000000
0.104584 0.019806 0.000000
0.115845 0.027039 0.000000
0.128143 0.034149 0.000000
0.140930 0.040924 0.000000
0.153992 0.047485 0.000000
0.167267 0.053894 0.000000
0.180725 0.060242 0.000000
0.194183 0.066528 0.000000
0.207703 0.072723 0.000000
0.221283 0.078888 0.000000
0.234894 0.084991 0.000000
0.248535 0.091125 0.000000
0.262207 0.097229 0.000000
0.275879 0.103333 0.000000
0.289642 0.109467 0.000000
0.303375 0.115479 0.000000
0.317078 0.121521 0.000000
0.330811 0.127594 0.000000
0.344574 0.133667 0.000000
0.358307 0.139709 0.000000
0.372070 0.145691 0.000000
0.385834 0.151764 0.000000
0.399597 0.157745 0.000000
0.413361 0.163788 0.000000
0.427124 0.169861 0.000000
0.440887 0.175873 0.000000
0.454742 0.181854 0.000000
0.468536 0.187927 0.000000
0.082581 0.000000 0.031647
0.114075 0.011414 0.018677
0.140015 0.052979 0.028931
0.166168 0.075867 0.010345
0.179962 0.060394 0.002045
0.187500 0.051086 0.000000
0.193054 0.045471 0.000000
0.200073 0.041870 0.000000
0.209137 0.039612 0.000000
0.220032 0.046478 0.000000
0.231689 0.054077 0.000000
0.243805 0.061310 0.000000
0.256256 0.068329 0.000000
0.268951 0.075195 0.000000
0.281921 0.081909 0.000000
0.294922 0.088501 0.000000
0.308044 0.094971 0.000000
0.321259 0.101410 0.000000
0.334564 0.107819 0.000000
0.347931 0.114166 0.000000
0.361328 0.120422 0.000000
0.374756 0.126709 0.000000
0.388336 0.133026 0.000000
0.401825 0.139221 0.000000
0.415375 0.145416 0.000000
0.428955 0.151550 0.000000
0.442535 0.157745 0.000000
0.456146 0.163940 0.000000
0.469757 0.170074 0.000000
0.483398 0.176208 0.000000
0.497040 0.182251 0.000000
0.510712 0.188385 0.000000
0.123932 0.000000 0.047516
0.149353 0.015106 0.029083
0.187988 0.024139 0.030304
0.210083 0.079529 0.043427
0.242035 0.123535 0.019867
0.256500 0.105103 0.010895
0.269867 0.090485 0.002991
0.278503 0.080292 0.000000
0.283997 0.073486 0.000000
0.289490 0.068207 0.000000
0.296112 0.064270 0.000000
0.304382 0.061462 0.000000
0.313690 0.059418 0.000000
0.324402 0.065735 0.000000
0.335754 0.073517 0.000000
0.347504 0.081116 0.000000
0.359650 0.088409 0.000000
0.371948 0.095520 0.000000
0.384460 0.102509 0.000000
0.397095 0.109344 0.000000
0.409912 0.116089 0.000000
0.422791 0.122833 0.000000
0.435791 0.129364 0.000000
0.448883 0.136017 0.000000
0.462036 0.142456 0.000000
0.475220 0.148956 0.000000
0.488556 0.155304 0.000000
0.501862 0.161743 0.000000
0.515228 0.168060 0.000000
0.528595 0.174347 0.000000
0.542023 0.180634 0.000000
0.555450 0.187012 0.000000
0.165253 0.000000 0.063354
0.186401 0.017548 0.040070
0.228180 0.022919 0.037445
0.260040 0.038757 0.043396
0.280121 0.106079 0.057953
0.312103 0.150024 0.034332
0.332275 0.151642 0.020599
0.346649 0.134888 0.011749
0.359833 0.120697 0.004028
0.369385 0.109833 0.000000
0.375031 0.102173 0.000000
0.380463 0.096039 0.000000
0.385986 0.090942 0.000000
0.392365 0.086884 0.000000
0.400116 0.083710 0.000000
0.408813 0.081146 0.000000
0.418243 0.079224 0.000000
0.428802 0.084900 0.000000
0.440094 0.092926 0.000000
0.451599 0.100647 0.000000
0.463409 0.108154 0.000000
0.475433 0.115479 0.000000
0.487671 0.122620 0.000000
0.500031 0.129761 0.000000
0.512573 0.136658 0.000000
0.525208 0.143616 0.000000
0.537964 0.150391 0.000000
0.550781 0.157074 0.000000
0.563721 0.163788 0.000000
0.576691 0.170349 0.000000
0.589813 0.176971 0.000000
0.602936 0.183411 0.000000
0.206482 0.000000 0.079132
0.228119 0.017059 0.055756
0.263275 0.026672 0.048157
0.303711 0.034058 0.047760
0.330841 0.057678 0.053070
0.350189 0.132568 0.072418
0.382141 0.176605 0.048859
0.408234 0.199097 0.030212
0.422150 0.180786 0.021759
0.436584 0.164795 0.012817
0.449829 0.150909 0.005066
0.460419 0.139374 0.000000
0.465912 0.131378 0.000000
0.471344 0.124512 0.000000
0.477020 0.118774 0.000000
0.482452 0.113678 0.000000
0.488708 0.109528 0.000000
0.496094 0.106232 0.000000
0.504303 0.103302 0.000000
0.513275 0.101013 0.000000
0.522766 0.099030 0.000000
0.533264 0.104156 0.000000
0.544434 0.112183 0.000000
0.555786 0.119965 0.000000
0.567413 0.127716 0.000000
0.579224 0.135193 0.000000
0.591248 0.142456 0.000000
0.603394 0.149811 0.000000
0.615723 0.156799 0.000000
0.628143 0.163940 0.000000
0.640686 0.170807 0.000000
0.653320 0.177673 0.000000
0.247833 0.000000 0.095001
0.269897 0.016632 0.071472
0.298645 0.030212 0.058136
0.342224 0.034363 0.056152
0.376007 0.048248 0.060577
0.400818 0.084137 0.067535
0.420166 0.159058 0.086884
0.452179 0.203064 0.063324
0.484131 0.247070 0.039764
0.498444 0.227478 0.030945
0.513062 0.210266 0.021851
0.526154 0.194977 0.014282
0.539795 0.181061 0.006073
0.551422 0.169098 0.000000
0.556885 0.160553 0.000000
0.562408 0.153229 0.000000
0.567963 0.146973 0.000000
0.573486 0.141418 0.000000
0.578949 0.136383 0.000000
0.585144 0.132294 0.000000
0.592163 0.128510 0.000000
0.600128 0.125549 0.000000
0.608673 0.122894 0.000000
0.617767 0.120819 0.000000
0.627350 0.118866 0.000000
0.637726 0.123322 0.000000
0.648834 0.131470 0.000000
0.660065 0.139404 0.000000
0.671539 0.147064 0.000000
0.683228 0.154633 0.000000
0.695068 0.162231 0.000000
0.707062 0.169525 0.000000
0.289154 0.000000 0.110840
0.311646 0.016174 0.087219
0.334167 0.033630 0.067749
0.377289 0.038239 0.067139
0.419281 0.043976 0.065155
0.448212 0.062744 0.073486
0.470856 0.110657 0.082001
0.490204 0.185547 0.101349
0.522156 0.229553 0.077789
0.554138 0.273529 0.054199
0.574371 0.274811 0.040405
0.588379 0.256531 0.032013
0.603210 0.239807 0.022675
0.616852 0.224976 0.014557
0.629791 0.211273 0.007111
0.642365 0.198853 0.000000
0.647858 0.190125 0.000000
0.653351 0.182312 0.000000
0.658813 0.175629 0.000000
0.664429 0.169525 0.000000
0.669983 0.164215 0.000000
0.675415 0.159119 0.000000
0.681458 0.154877 0.000000
0.688446 0.151093 0.000000
0.696136 0.148041 0.000000
0.704346 0.145142 0.000000
0.713104 0.142578 0.000000
0.722290 0.140533 0.000000
0.731903 0.138672 0.000000
0.742218 0.142426 0.000000
0.753235 0.150604 0.000000
0.764404 0.158630 0.000000
0.330383 0.000000 0.126648
0.353363 0.015686 0.102905
0.372711 0.035034 0.080048
0.412720 0.041748 0.077332
0.456329 0.045868 0.074921
0.491638 0.058258 0.078156
0.520111 0.077545 0.086823
0.540894 0.137207 0.096527
0.560242 0.212097 0.115875
0.592224 0.256073 0.092285
0.624176 0.300079 0.068726
0.649994 0.322632 0.050293
0.664551 0.303284 0.041229
0.678986 0.285706 0.032318
0.693268 0.269745 0.023499
0.707092 0.254944 0.015259
0.719757 0.241425 0.008087
0.733337 0.228638 0.000000
0.738892 0.219727 0.000000
0.744354 0.211700 0.000000
0.749908 0.204315 0.000000
0.755371 0.198059 0.000000
0.760773 0.192047 0.000000
0.766418 0.186920 0.000000
0.771912 0.181854 0.000000
0.777924 0.177582 0.000000
0.784698 0.173767 0.000000
0.792236 0.170410 0.000000
0.800171 0.167419 0.000000
0.808746 0.164856 0.000000
0.817535 0.162262 0.000000
0.826752 0.160461 0.000000
0.371735 0.000000 0.142487
0.395172 0.015259 0.118683
0.414520 0.034607 0.095825
0.447968 0.045349 0.087219
0.491699 0.049316 0.085602
0.535034 0.053680 0.082367
0.564026 0.072418 0.090912
0.591614 0.091675 0.094482
0.610962 0.163757 0.111023
0.630310 0.238647 0.130371
0.662262 0.282684 0.106812
0.694214 0.326660 0.083191
0.726166 0.370605 0.059631
0.740723 0.350494 0.050568
0.754700 0.332092 0.042084
0.769531 0.315369 0.032776
0.783234 0.299652 0.024628
0.796844 0.285156 0.016571
0.809753 0.271637 0.009125
0.823303 0.258789 0.001038
0.829865 0.249420 0.000000
0.835327 0.240845 0.000000
0.840820 0.233612 0.000000
0.846344 0.226685 0.000000
0.851837 0.220459 0.000000
0.857391 0.214752 0.000000
0.862854 0.209595 0.000000
0.868408 0.204590 0.000000
0.874329 0.200439 0.000000
0.881073 0.196381 0.000000
0.888245 0.192780 0.000000
0.896057 0.189880 0.000000
0.413055 0.000000 0.158325
0.436920 0.014832 0.134369
0.456268 0.034180 0.111572
0.483459 0.048767 0.097046
0.526550 0.053406 0.096375
0.570374 0.057312 0.093628
0.607361 0.068054 0.095428
0.636261 0.086853 0.103882
0.661591 0.115356 0.106140
0.680939 0.190186 0.125488
0.700287 0.265106 0.144836
0.732300 0.309082 0.121277
0.764252 0.353210 0.097717
0.796234 0.397095 0.074097
0.816498 0.398193 0.060364
0.830719 0.379120 0.051575
0.844299 0.361572 0.043457
0.859650 0.344788 0.033630
0.872101 0.329865 0.026642
0.887238 0.315186 0.017151
0.899719 0.301819 0.010132
0.913208 0.289124 0.002197
0.920898 0.278778 0.000000
0.926331 0.270477 0.000000
0.931885 0.262787 0.000000
0.937408 0.255402 0.000000
0.942810 0.249054 0.000000
0.948303 0.242859 0.000000
0.953888 0.237549 0.000000
0.959259 0.232086 0.000000
0.964783 0.227295 0.000000
0.970764 0.223022 0.000000
0.454285 0.000000 0.174133
0.478638 0.014343 0.150146
0.497986 0.033691 0.127197
0.518829 0.052307 0.106537
0.562317 0.056580 0.106201
0.605743 0.060852 0.104340
0.649933 0.064453 0.100616
0.680023 0.082001 0.108124
0.707916 0.101868 0.117249
0.731628 0.141785 0.120605
0.750977 0.216766 0.139954
0.770325 0.291626 0.159302
0.802277 0.335571 0.135742
0.834259 0.379578 0.112122
0.866211 0.423645 0.088562
0.892395 0.446014 0.069916
0.906982 0.426270 0.060822
0.920074 0.408142 0.053223
0.935211 0.390808 0.043610
0.948517 0.374908 0.035736
0.963684 0.359344 0.026031
0.976105 0.345520 0.019135
0.989655 0.331940 0.011108
1.000000 0.320557 0.006409
1.000000 0.313171 0.011841
1.000000 0.307220 0.017426
1.000000 0.301727 0.022858
1.000000 0.297302 0.028290
1.000000 0.293274 0.033813
1.000000 0.290283 0.039307
1.000000 0.287598 0.044861
1.000000 0.284546 0.049164
0.495605 0.000000 0.189972
0.520386 0.013916 0.165894
0.539734 0.033264 0.142944
0.559082 0.052612 0.120117
0.597229 0.060455 0.116272
0.640869 0.064575 0.115082
0.684418 0.068756 0.112335
0.723389 0.077606 0.112610
0.752106 0.096588 0.121246
0.780151 0.116302 0.130249
0.801666 0.168335 0.135132
0.821014 0.243317 0.154480
0.840363 0.318176 0.173828
0.872345 0.362122 0.150208
0.904297 0.406128 0.126648
0.936279 0.450104 0.103058
0.968292 0.494171 0.079498
0.982208 0.473694 0.071075
0.996918 0.455017 0.061920
1.000000 0.439423 0.064331
1.000000 0.426300 0.069733
1.000000 0.415070 0.075317
1.000000 0.405334 0.080841
1.000000 0.396790 0.086243
1.000000 0.389557 0.091766
1.000000 0.383606 0.097321
1.000000 0.377930 0.102814
1.000000 0.373535 0.108398
1.000000 0.369354 0.113831
1.000000 0.363617 0.115814
1.000000 0.358765 0.118622
1.000000 0.355499 0.122375
0.536957 0.000000 0.205811
0.562164 0.013458 0.181580
0.581512 0.032806 0.158722
0.600861 0.052155 0.135895
0.633026 0.063599 0.125885
0.675934 0.068420 0.125519
0.719391 0.072632 0.123474
0.763580 0.076263 0.119568
0.796021 0.091492 0.125031
0.823975 0.111267 0.134399
0.852325 0.130188 0.140411
0.871735 0.194916 0.149597
0.891083 0.269806 0.168945
0.910431 0.344666 0.188293
0.942383 0.388763 0.164734
0.974365 0.432648 0.141144
1.000000 0.477875 0.123871
1.000000 0.524384 0.132233
1.000000 0.527283 0.138702
1.000000 0.512207 0.144318
1.000000 0.499176 0.149841
1.000000 0.488129 0.155273
1.000000 0.478180 0.160828
1.000000 0.469788 0.166321
1.000000 0.462555 0.171814
1.000000 0.456116 0.177338
1.000000 0.450714 0.182770
1.000000 0.442322 0.182465
1.000000 0.434753 0.182739
1.000000 0.428467 0.184021
1.000000 0.423340 0.186646
1.000000 0.419891 0.190430
0.578186 0.000000 0.221619
0.603882 0.012970 0.197205
0.623230 0.032318 0.174408
0.642578 0.051666 0.151489
0.668335 0.067291 0.135529
0.711212 0.072144 0.135803
0.754517 0.076477 0.134247
0.798523 0.080261 0.131104
0.838562 0.087982 0.130310
0.867767 0.106415 0.138763
0.896454 0.125488 0.146942
0.922363 0.146423 0.144714
0.941711 0.221405 0.164062
0.961060 0.296173 0.183411
0.980408 0.371155 0.202759
1.000000 0.420593 0.191681
1.000000 0.473267 0.200043
1.000000 0.519562 0.208405
1.000000 0.560394 0.216797
1.000000 0.580505 0.224274
1.000000 0.567810 0.229675
1.000000 0.556732 0.235229
1.000000 0.547119 0.240692
1.000000 0.538879 0.246307
1.000000 0.531616 0.251770
1.000000 0.520447 0.249420
1.000000 0.510132 0.247070
1.000000 0.500885 0.245911
1.000000 0.493286 0.246094
1.000000 0.487213 0.247437
1.000000 0.482330 0.249939
1.000000 0.478333 0.253387
0.619507 0.000000 0.237457
0.645630 0.012543 0.213013
0.664978 0.031891 0.190155
0.684326 0.051239 0.167328
0.703827 0.070557 0.144928
0.746552 0.075592 0.145386
0.789764 0.080109 0.144562
0.833435 0.084137 0.142303
0.878693 0.086792 0.137634
0.911072 0.102112 0.143188
0.940094 0.120728 0.151520
0.969513 0.139069 0.159149
0.992432 0.173035 0.159210
1.000000 0.257751 0.190338
1.000000 0.344604 0.229034
1.000000 0.426300 0.267731
1.000000 0.478180 0.276215
1.000000 0.523682 0.284576
1.000000 0.563965 0.292969
1.000000 0.599670 0.301331
1.000000 0.631775 0.309723
1.000000 0.621185 0.315277
1.000000 0.611908 0.320648
1.000000 0.598145 0.316437
1.000000 0.584930 0.311432
1.000000 0.573334 0.307892
1.000000 0.562958 0.305634
1.000000 0.554077 0.304718
1.000000 0.546600 0.304962
1.000000 0.540344 0.306305
1.000000 0.535339 0.308685
1.000000 0.531647 0.312164
0.660828 0.000000 0.253296
0.687439 0.012085 0.228729
0.706787 0.031433 0.205872
0.726135 0.050781 0.183014
0.745483 0.070129 0.160156
0.782471 0.078705 0.154999
0.825409 0.083496 0.154694
0.868774 0.087860 0.152863
0.912689 0.091736 0.149872
0.954071 0.097931 0.147888
0.983246 0.116516 0.156311
1.000000 0.147491 0.175995
1.000000 0.195282 0.212189
1.000000 0.258362 0.236176
1.000000 0.341248 0.274872
1.000000 0.419312 0.313568
1.000000 0.492615 0.352386
1.000000 0.536804 0.360748
1.000000 0.575836 0.369141
1.000000 0.610626 0.377502
1.000000 0.641663 0.385895
1.000000 0.663330 0.382721
1.000000 0.659424 0.376099
1.000000 0.645050 0.370056
1.000000 0.632263 0.365509
1.000000 0.620850 0.362213
1.000000 0.610870 0.360168
1.000000 0.602386 0.359314
1.000000 0.595093 0.359650
1.000000 0.588776 0.360992
1.000000 0.583954 0.363434
1.000000 0.580048 0.366913
0.702148 0.000000 0.269135
0.729187 0.011658 0.244476
0.748535 0.031006 0.221588
0.767883 0.050354 0.198730
0.787231 0.069702 0.175873
0.817902 0.082153 0.164429
0.860352 0.087341 0.164917
0.904266 0.091095 0.163147
0.947754 0.095428 0.160980
0.991547 0.099426 0.157349
1.000000 0.138672 0.184509
1.000000 0.186493 0.220245
1.000000 0.234161 0.256958
1.000000 0.281891 0.294861
1.000000 0.347900 0.320709
1.000000 0.422760 0.359406
1.000000 0.493042 0.398102
1.000000 0.558868 0.436920
1.000000 0.596313 0.445312
1.000000 0.620758 0.440826
1.000000 0.641266 0.433777
1.000000 0.660828 0.428070
1.000000 0.679474 0.423676
1.000000 0.686920 0.419739
1.000000 0.674622 0.415466
1.000000 0.663757 0.412445
1.000000 0.654083 0.410614
1.000000 0.645966 0.410034
1.000000 0.638977 0.410614
1.000000 0.632996 0.412109
1.000000 0.628265 0.414612
1.000000 0.624359 0.418091
0.743378 0.000000 0.284943
0.770966 0.011200 0.260132
0.790314 0.030548 0.237366
0.809662 0.049896 0.214417
0.829010 0.069244 0.191681
0.852844 0.086090 0.174438
0.895935 0.090729 0.174469
0.939484 0.094910 0.173462
0.983398 0.098694 0.171265
1.000000 0.129913 0.191528
1.000000 0.177490 0.226501
1.000000 0.225281 0.262909
1.000000 0.272949 0.300293
1.000000 0.320862 0.338776
1.000000 0.366577 0.370148
1.000000 0.434906 0.405273
1.000000 0.502625 0.443970
1.000000 0.555054 0.469574
1.000000 0.600189 0.489685
1.000000 0.621368 0.481842
1.000000 0.641479 0.475342
1.000000 0.660614 0.470215
1.000000 0.678925 0.466278
1.000000 0.696259 0.463501
1.000000 0.712921 0.461853
1.000000 0.702484 0.459137
1.000000 0.693390 0.457764
1.000000 0.685486 0.457367
1.000000 0.678619 0.458038
1.000000 0.673035 0.459747
1.000000 0.668610 0.462433
1.000000 0.664948 0.466003
0.784729 0.000000 0.300781
0.812683 0.010712 0.275818
0.832031 0.030060 0.253082
0.851379 0.049408 0.230133
0.870728 0.068756 0.207367
0.890137 0.088165 0.184509
0.932098 0.093414 0.183929
0.974060 0.099304 0.184296
1.000000 0.121033 0.197205
1.000000 0.168793 0.232117
1.000000 0.216553 0.268005
1.000000 0.264252 0.304840
1.000000 0.311859 0.342590
1.000000 0.359619 0.381500
1.000000 0.407349 0.421387
1.000000 0.442749 0.439331
1.000000 0.492432 0.460693
1.000000 0.538971 0.481201
1.000000 0.582855 0.500977
1.000000 0.623993 0.520050
1.000000 0.643677 0.514130
1.000000 0.662415 0.509491
1.000000 0.680298 0.506012
1.000000 0.697418 0.503662
1.000000 0.713776 0.502380
1.000000 0.729462 0.502167
1.000000 0.728912 0.501648
1.000000 0.721222 0.501587
1.000000 0.714905 0.502472
1.000000 0.709595 0.504395
1.000000 0.705261 0.507233
1.000000 0.701874 0.510986
0.826050 0.000000 0.316620
0.854431 0.010284 0.291595
0.873779 0.029633 0.268707
0.893127 0.048981 0.246002
0.912476 0.068329 0.223114
0.931824 0.087677 0.200195
0.966919 0.097504 0.194092
1.000000 0.112213 0.201721
1.000000 0.159882 0.236176
1.000000 0.207764 0.271790
1.000000 0.255524 0.308228
1.000000 0.303192 0.345734
1.000000 0.350830 0.383789
1.000000 0.388763 0.413849
1.000000 0.420441 0.438416
1.000000 0.450684 0.462219
1.000000 0.482697 0.473969
1.000000 0.527863 0.494141
1.000000 0.570190 0.513550
1.000000 0.610138 0.532257
1.000000 0.647736 0.550354
1.000000 0.666138 0.546265
1.000000 0.683655 0.543274
1.000000 0.700470 0.541351
1.000000 0.716583 0.540436
1.000000 0.731903 0.540527
1.000000 0.746582 0.541504
1.000000 0.753815 0.542877
1.000000 0.747803 0.544128
1.000000 0.742767 0.546265
1.000000 0.738800 0.549316
1.000000 0.735718 0.553223
0.867279 0.000000 0.332428
0.896240 0.009857 0.307404
0.915588 0.029205 0.284546
0.934937 0.048553 0.261719
0.954285 0.067902 0.238861
0.973633 0.087250 0.216003
1.000000 0.103363 0.205139
1.000000 0.151093 0.239380
1.000000 0.198792 0.274506
1.000000 0.246521 0.310730
1.000000 0.294312 0.347717
1.000000 0.334045 0.378113
1.000000 0.367859 0.403503
1.000000 0.400085 0.428192
1.000000 0.430725 0.452118
1.000000 0.460052 0.475067
1.000000 0.487976 0.497467
1.000000 0.521057 0.508209
1.000000 0.562103 0.527252
1.000000 0.600769 0.545624
1.000000 0.637177 0.563416
1.000000 0.671478 0.580688
1.000000 0.688690 0.578186
1.000000 0.705170 0.576721
1.000000 0.720978 0.576233
1.000000 0.736115 0.576630
1.000000 0.750549 0.577972
1.000000 0.764343 0.580139
1.000000 0.777618 0.583099
1.000000 0.772919 0.585510
1.000000 0.769257 0.588745
1.000000 0.766418 0.592865
0.908600 0.000000 0.348267
0.937927 0.009369 0.323120
0.957275 0.028717 0.300293
0.976624 0.048065 0.277252
0.995972 0.067413 0.254425
1.000000 0.102203 0.242279
1.000000 0.142303 0.241974
1.000000 0.190002 0.276825
1.000000 0.237793 0.312592
1.000000 0.279236 0.343475
1.000000 0.315063 0.369751
1.000000 0.349335 0.395416
1.000000 0.381958 0.420135
1.000000 0.412994 0.443939
1.000000 0.442749 0.467102
1.000000 0.471222 0.489563
1.000000 0.498505 0.511230
1.000000 0.523407 0.528534
1.000000 0.557922 0.542053
1.000000 0.595337 0.560120
1.000000 0.630707 0.577606
1.000000 0.663940 0.594543
1.000000 0.695221 0.610992
1.000000 0.711365 0.609955
1.000000 0.726837 0.609863
1.000000 0.741669 0.610718
1.000000 0.755920 0.612366
1.000000 0.769592 0.614807
1.000000 0.782654 0.618073
1.000000 0.795135 0.622040
1.000000 0.796997 0.625977
1.000000 0.794495 0.630310
0.949951 0.000000 0.364105
0.979706 0.008942 0.338837
0.999054 0.028290 0.316010
1.000000 0.066040 0.302277
1.000000 0.104736 0.292267
1.000000 0.143433 0.285645
1.000000 0.182129 0.282379
1.000000 0.224182 0.309418
1.000000 0.262177 0.336761
1.000000 0.298492 0.363403
1.000000 0.333038 0.389038
1.000000 0.366089 0.413757
1.000000 0.397614 0.437775
1.000000 0.427734 0.460846
1.000000 0.456604 0.483398
1.000000 0.484192 0.505096
1.000000 0.510590 0.526245
1.000000 0.535889 0.546661
1.000000 0.557831 0.558167
1.000000 0.593719 0.575592
1.000000 0.627869 0.592773
1.000000 0.660065 0.609436
1.000000 0.690430 0.625610
1.000000 0.718994 0.641327
1.000000 0.734100 0.641632
1.000000 0.748749 0.642792
1.000000 0.762756 0.644806
1.000000 0.776093 0.647552
1.000000 0.788910 0.651093
1.000000 0.801361 0.655396
1.000000 0.813141 0.660309
1.000000 0.820068 0.665588
0.991180 0.000000 0.379913
1.000000 0.029877 0.361237
1.000000 0.068695 0.348145
1.000000 0.107391 0.337952
1.000000 0.146088 0.330994
1.000000 0.181213 0.324554
1.000000 0.212341 0.317322
1.000000 0.247406 0.331940
1.000000 0.283905 0.358368
1.000000 0.318848 0.384216
1.000000 0.352203 0.408966
1.000000 0.384094 0.432800
1.000000 0.414734 0.456177
1.000000 0.443970 0.478729
1.000000 0.471924 0.500549
1.000000 0.498718 0.521729
1.000000 0.524353 0.542236
1.000000 0.548859 0.562073
1.000000 0.572510 0.581482
1.000000 0.595245 0.591858
1.000000 0.628357 0.608765
1.000000 0.659515 0.625214
1.000000 0.688965 0.641113
1.000000 0.716644 0.656616
1.000000 0.742737 0.671631
1.000000 0.757050 0.673187
1.000000 0.770721 0.675507
1.000000 0.783905 0.678619
1.000000 0.796570 0.682434
1.000000 0.808685 0.686920
1.000000 0.820374 0.692139
1.000000 0.831543 0.697906
1.000000 0.032501 0.403351
1.000000 0.071198 0.390015
1.000000 0.109894 0.379791
1.000000 0.145966 0.370728
1.000000 0.178375 0.361908
1.000000 0.209625 0.354553
1.000000 0.239807 0.348755
1.000000 0.271576 0.355164
1.000000 0.306793 0.380737
1.000000 0.340515 0.405731
1.000000 0.372681 0.429657
1.000000 0.403564 0.452942
1.000000 0.433105 0.475464
1.000000 0.461426 0.497467
1.000000 0.488495 0.518585
1.000000 0.514557 0.539215
1.000000 0.539581 0.559357
1.000000 0.563446 0.578674
1.000000 0.586395 0.597504
1.000000 0.608337 0.615784
1.000000 0.631836 0.625610
1.000000 0.662048 0.641754
1.000000 0.690521 0.657410
1.000000 0.717346 0.672668
1.000000 0.742676 0.687500
1.000000 0.766510 0.701965
1.000000 0.779999 0.704651
1.000000 0.792877 0.708069
1.000000 0.805359 0.712189
1.000000 0.817322 0.716980
1.000000 0.828796 0.722382
1.000000 0.839813 0.728424
1.000000 0.073853 0.428833
1.000000 0.110718 0.417267
1.000000 0.144470 0.406616
1.000000 0.177002 0.397430
1.000000 0.208344 0.390015
1.000000 0.238556 0.383942
1.000000 0.267761 0.379486
1.000000 0.296539 0.378815
1.000000 0.330475 0.403717
1.000000 0.363037 0.427582
1.000000 0.394196 0.451141
1.000000 0.424072 0.473694
1.000000 0.452698 0.495728
1.000000 0.480194 0.516998
1.000000 0.506531 0.537628
1.000000 0.531738 0.557800
1.000000 0.555969 0.577118
1.000000 0.579285 0.596130
1.000000 0.601593 0.614532
1.000000 0.623016 0.632324
1.000000 0.643219 0.648285
1.000000 0.667419 0.659088
1.000000 0.694916 0.674500
1.000000 0.720917 0.689545
1.000000 0.745483 0.704163
1.000000 0.768585 0.718414
1.000000 0.790253 0.732269
1.000000 0.802948 0.735992
1.000000 0.815125 0.740417
1.000000 0.826965 0.745514
1.000000 0.838226 0.751160
1.000000 0.849121 0.757446
1.000000 0.110382 0.451385
1.000000 0.144226 0.440491
1.000000 0.176910 0.431519
1.000000 0.208313 0.423828
1.000000 0.238617 0.417633
1.000000 0.267914 0.412872
1.000000 0.296204 0.409607
1.000000 0.323547 0.407440
1.000000 0.355225 0.427155
1.000000 0.386566 0.450378
1.000000 0.416656 0.473206
1.000000 0.445587 0.495117
1.000000 0.473328 0.516541
1.000000 0.499878 0.537109
1.000000 0.525574 0.557434
1.000000 0.550018 0.576813
