Film Simulations/Infrared/Striped Purple - Infrared.cube
#Created by: Adobe Photoshop Export Color Lookup Plugin
#Copyright: (C) Copyright 2018 Striped Purple - Austin Barrett
TITLE "Infrared"
#LUT size
LUT_3D_SIZE 8
#data domain
#LUT data points
DOMAIN_MIN 0.000000 0.000000 0.000000
DOMAIN_MAX 0.903226 0.903226 0.903226
0.000000 0.000000 0.000000
0.055298 0.023956 0.000000
0.110626 0.047943 0.000000
0.165924 0.071899 0.000000
0.221252 0.095886 0.000000
0.276520 0.119843 0.000000
0.331787 0.143768 0.000000
0.387115 0.167755 0.000000
0.165253 0.000000 0.063354
0.280121 0.106079 0.057953
0.359833 0.120697 0.004028
0.385986 0.090942 0.000000
0.418243 0.079224 0.000000
0.463409 0.108154 0.000000
0.512573 0.136658 0.000000
0.563721 0.163788 0.000000
0.330383 0.000000 0.126648
0.456329 0.045868 0.074921
0.560242 0.212097 0.115875
0.664551 0.303284 0.041229
0.719757 0.241425 0.008087
0.749908 0.204315 0.000000
0.771912 0.181854 0.000000
0.800171 0.167419 0.000000
0.495605 0.000000 0.189972
0.597229 0.060455 0.116272
0.752106 0.096588 0.121246
0.840363 0.318176 0.173828
0.968292 0.494171 0.079498
1.000000 0.426300 0.069733
1.000000 0.389557 0.091766
1.000000 0.369354 0.113831
0.660828 0.000000 0.253296
0.745483 0.070129 0.160156
0.912689 0.091736 0.149872
1.000000 0.195282 0.212189
1.000000 0.492615 0.352386
1.000000 0.641663 0.385895
1.000000 0.632263 0.365509
1.000000 0.595093 0.359650
0.826050 0.000000 0.316620
0.912476 0.068329 0.223114
1.000000 0.159882 0.236176
1.000000 0.350830 0.383789
1.000000 0.482697 0.473969
1.000000 0.647736 0.550354
1.000000 0.716583 0.540436
1.000000 0.747803 0.544128
0.991180 0.000000 0.379913
1.000000 0.146088 0.330994
1.000000 0.283905 0.358368
1.000000 0.414734 0.456177
1.000000 0.524353 0.542236
1.000000 0.628357 0.608765
1.000000 0.742737 0.671631
1.000000 0.796570 0.682434
1.000000 0.145233 0.472870
1.000000 0.269135 0.444885
1.000000 0.380646 0.450958
1.000000 0.494904 0.537933
1.000000 0.592407 0.615387
1.000000 0.675507 0.684540
1.000000 0.758667 0.739471
1.000000 0.837769 0.792938
0.000031 0.015930 0.015930
0.000031 0.089630 0.000031
0.111908 0.142059 0.000000
0.196472 0.168427 0.000000
0.251373 0.171783 0.000000
0.306427 0.194061 0.000000
0.361511 0.216949 0.000000
0.416748 0.240112 0.000000
0.051636 0.051636 0.180664
0.129028 0.129028 0.129028
0.206909 0.133240 0.076874
0.284882 0.137512 0.024811
0.350220 0.151764 0.000000
0.405579 0.175751 0.000000
0.460846 0.199707 0.000000
0.516113 0.223663 0.000000
0.286469 0.050079 0.347809
0.296082 0.127228 0.191956
0.409149 0.235107 0.186981
0.488861 0.249725 0.133057
0.542725 0.205292 0.101288
0.594971 0.170288 0.071014
0.670898 0.172455 0.020691
0.727020 0.193817 0.000000
0.522430 0.035828 0.441528
0.463043 0.125366 0.254791
0.585358 0.174896 0.203949
0.689270 0.341125 0.244904
0.793671 0.432373 0.170288
0.848785 0.370453 0.137115
0.902252 0.322754 0.105713
0.956421 0.281525 0.073517
0.694824 0.023712 0.458405
0.630066 0.123535 0.317688
0.726318 0.189514 0.245331
0.881134 0.225586 0.250244
0.969482 0.447235 0.302887
1.000000 0.629730 0.305878
1.000000 0.585754 0.328003
1.000000 0.550568 0.331329
0.863464 0.019318 0.511658
0.797119 0.121765 0.380615
0.874512 0.199158 0.289185
1.000000 0.262482 0.314697
1.000000 0.453339 0.464813
1.000000 0.659485 0.565369
1.000000 0.735107 0.546021
1.000000 0.734680 0.542236
1.000000 0.047943 0.571625
0.964111 0.119965 0.443512
1.000000 0.238892 0.378448
1.000000 0.393951 0.449005
1.000000 0.520813 0.545135
1.000000 0.626404 0.620087
1.000000 0.754486 0.686615
1.000000 0.811066 0.693634
1.000000 0.192719 0.617462
1.000000 0.242035 0.532562
1.000000 0.366638 0.503784
1.000000 0.482300 0.536133
1.000000 0.591614 0.620514
1.000000 0.682373 0.694305
1.000000 0.765503 0.753143
1.000000 0.849487 0.807892
0.000031 0.031891 0.031891
0.000031 0.090637 0.045349
0.000031 0.179321 0.000031
0.099762 0.230591 0.000031
0.223816 0.284088 0.000000
0.338318 0.337891 0.000000
0.392914 0.336609 0.000000
0.447754 0.338013 0.000000
0.000031 0.087860 0.175690
0.028381 0.157410 0.157410
0.105774 0.234802 0.105774
0.257782 0.312744 0.053680
0.391144 0.335236 0.001007
0.443237 0.302887 0.000000
0.496704 0.314575 0.000000
0.550812 0.330536 0.000000
0.103210 0.103210 0.361267
0.180664 0.180664 0.309692
0.258057 0.258057 0.258057
0.335938 0.262268 0.205902
0.413910 0.266510 0.153809
0.491791 0.270721 0.101654
0.569763 0.274994 0.049591
0.645172 0.279572 0.000000
0.285919 0.115234 0.520325
0.415497 0.179108 0.476837
0.425110 0.256256 0.320984
0.538177 0.364136 0.316010
0.617981 0.378784 0.262115
0.671753 0.334320 0.230316
0.723999 0.299316 0.200043
0.799927 0.301483 0.149719
0.572968 0.100220 0.695648
0.651520 0.164886 0.570618
0.592133 0.254425 0.383881
0.714417 0.303894 0.332947
0.818390 0.470215 0.373962
0.922699 0.561401 0.299316
0.977875 0.499542 0.266205
1.000000 0.466278 0.266144
0.870270 0.085907 0.856476
0.823853 0.152740 0.587433
0.759094 0.252563 0.446716
0.855347 0.318542 0.374359
1.000000 0.364777 0.388672
1.000000 0.632111 0.530426
1.000000 0.757782 0.545959
1.000000 0.711182 0.531464
1.000000 0.116516 0.853119
0.992493 0.148346 0.640686
0.926147 0.250793 0.509644
1.000000 0.331726 0.420807
1.000000 0.506714 0.541626
1.000000 0.627808 0.635620
1.000000 0.766235 0.701630
1.000000 0.826782 0.703125
1.000000 0.243134 0.793610
1.000000 0.290070 0.680573
1.000000 0.338898 0.592285
1.000000 0.464203 0.562439
1.000000 0.583466 0.621307
1.000000 0.686066 0.701996
1.000000 0.770081 0.766205
1.000000 0.861267 0.822906
0.000031 0.047821 0.047821
0.000031 0.102875 0.068604
0.000031 0.173920 0.058014
0.000031 0.268951 0.000031
0.081360 0.319702 0.000031
0.214050 0.372437 0.000000
0.335663 0.426056 0.000000
0.451660 0.480286 0.000000
0.000031 0.114166 0.171234
0.000031 0.176849 0.176849
0.005127 0.263184 0.134155
0.082581 0.340637 0.082581
0.198395 0.418030 0.030914
0.381409 0.484131 0.000000
0.535004 0.534363 0.000000
0.587402 0.503235 0.000000
0.002563 0.131561 0.389648
0.080017 0.209045 0.338074
0.157410 0.286438 0.286438
0.234802 0.363831 0.234802
0.386810 0.441772 0.182678
0.520172 0.464264 0.130035
0.598145 0.433441 0.077972
0.676025 0.437592 0.025818
0.154846 0.154846 0.541931
0.232239 0.232239 0.490295
0.309692 0.309692 0.438721
0.387085 0.387085 0.387085
0.465027 0.391327 0.334961
0.542938 0.395538 0.282837
0.620819 0.399750 0.230682
0.698792 0.404022 0.178619
0.307098 0.178070 0.694214
0.415314 0.244293 0.649414
0.544586 0.308167 0.605927
0.554138 0.385254 0.449982
0.667267 0.493164 0.445038
0.747009 0.507812 0.391144
0.800842 0.463440 0.359436
0.853088 0.428406 0.329132
0.566681 0.164337 0.869232
0.701996 0.229248 0.824677
0.780548 0.293915 0.699646
0.721161 0.383453 0.512909
0.843506 0.432983 0.462036
0.947418 0.599243 0.502991
1.000000 0.698669 0.480072
1.000000 0.665100 0.501709
0.833862 0.193787 1.000000
0.999298 0.214935 0.985504
0.952881 0.281769 0.716461
0.888123 0.381592 0.575745
0.984375 0.447571 0.503387
1.000000 0.622833 0.637024
1.000000 0.777954 0.716583
1.000000 0.844910 0.709290
0.967560 0.300812 1.000000
1.000000 0.344666 0.891052
1.000000 0.387726 0.744843
1.000000 0.434998 0.651550
1.000000 0.562225 0.620575
1.000000 0.683533 0.705933
1.000000 0.777313 0.781982
1.000000 0.872986 0.837860
0.000031 0.063782 0.063782
0.000031 0.117157 0.087921
0.000031 0.181335 0.090698
0.000031 0.259949 0.065002
0.000031 0.358643 0.000031
0.081787 0.408966 0.000031
0.199554 0.461212 0.000031
0.326660 0.514404 0.000000
0.000031 0.134247 0.178986
0.000031 0.192810 0.192810
0.000031 0.266235 0.177521
0.000031 0.360901 0.120300
0.059357 0.446472 0.059357
0.139038 0.523865 0.007721
0.330719 0.575928 0.000000
0.493347 0.626190 0.000000
0.000031 0.175659 0.351257
0.000031 0.238251 0.357330
0.056732 0.314819 0.314819
0.134125 0.392212 0.263184
0.211578 0.469666 0.211578
0.327240 0.547058 0.159943
0.515594 0.625519 0.107361
0.703156 0.702667 0.055450
0.054169 0.183197 0.570312
0.131561 0.260651 0.518677
0.209015 0.338074 0.467102
0.286407 0.415466 0.415466
0.363861 0.492920 0.363861
0.515839 0.570801 0.311707
0.649200 0.593475 0.259064
0.727173 0.562469 0.207001
0.206451 0.206451 0.722595
0.283905 0.283905 0.671021
0.361298 0.361298 0.619385
0.438690 0.438690 0.567749
0.516144 0.516144 0.516144
0.594025 0.520355 0.463989
0.671997 0.524628 0.411926
0.749878 0.528839 0.359772
0.358704 0.229706 0.874878
0.436127 0.307098 0.823242
0.544037 0.373322 0.778442
0.673615 0.437195 0.734955
0.683197 0.514343 0.579071
0.796265 0.622223 0.574097
0.875977 0.636841 0.520172
0.929840 0.592438 0.488434
0.570892 0.258392 1.000000
0.695374 0.293365 0.998260
0.831024 0.358276 0.953705
0.909576 0.422943 0.828918
0.850159 0.512482 0.641907
0.972473 0.562012 0.591064
1.000000 0.771576 0.708435
1.000000 0.828918 0.704834
0.764069 0.354858 1.000000
0.876801 0.402069 1.000000
1.000000 0.446716 0.990692
1.000000 0.486481 0.819092
1.000000 0.527893 0.708862
1.000000 0.666779 0.701447
1.000000 0.781982 0.790192
1.000000 0.884735 0.852875
0.000031 0.079712 0.079712
0.000031 0.132141 0.105743
0.000031 0.192688 0.115631
0.000031 0.263458 0.105438
0.000031 0.347382 0.069489
0.000031 0.448273 0.000031
0.083130 0.498444 0.000031
0.181763 0.550201 0.000031
0.000031 0.152435 0.190521
0.000031 0.208740 0.208740
0.000031 0.275482 0.206635
0.000031 0.355682 0.177856
0.000031 0.454041 0.113525
0.036102 0.552246 0.036102
0.123962 0.619781 0.000031
0.288300 0.667114 0.000031
0.000031 0.204803 0.341278
0.000031 0.264587 0.352783
0.000031 0.337769 0.337769
0.033539 0.420654 0.291656
0.110931 0.498047 0.239929
0.188385 0.575500 0.188385
0.268066 0.652893 0.136749
0.455750 0.731537 0.083832
0.000031 0.223358 0.558472
0.030914 0.289001 0.547058
0.108368 0.366486 0.495483
0.185760 0.443848 0.443848
0.263214 0.521301 0.392273
0.340607 0.598694 0.340607
0.456268 0.676086 0.288971
0.644623 0.754547 0.236389
0.105804 0.234802 0.750977
0.183258 0.312286 0.699402
0.260651 0.389648 0.647766
0.338043 0.467102 0.596130
0.415497 0.544525 0.544525
0.492889 0.621918 0.492889
0.644897 0.699860 0.440796
0.778259 0.722351 0.388153
0.258087 0.258087 0.903259
0.335480 0.335480 0.851624
0.412933 0.412933 0.800049
0.490326 0.490326 0.748413
0.567780 0.567780 0.696808
0.645172 0.645172 0.645172
0.723053 0.649384 0.593018
0.801025 0.653656 0.540955
0.422821 0.307312 1.000000
0.488464 0.360626 1.000000
0.565155 0.436127 0.952271
0.673065 0.502350 0.907471
0.802612 0.566223 0.863953
0.812225 0.643372 0.708099
0.925293 0.751251 0.703125
1.000000 0.767609 0.654236
0.592712 0.405273 1.000000
0.684723 0.455109 1.000000
0.786652 0.503510 1.000000
0.907166 0.549408 1.000000
1.000000 0.590210 0.931854
0.979187 0.641510 0.770935
1.000000 0.775513 0.791412
1.000000 0.896484 0.867859
0.000031 0.095673 0.095673
0.000031 0.147461 0.122925
0.000031 0.205780 0.137207
0.000031 0.271973 0.136017
0.000031 0.347809 0.115936
0.000031 0.435425 0.072632
0.000031 0.537964 0.000031
0.083984 0.587891 0.000031
0.000031 0.169769 0.203735
0.000031 0.224701 0.224701
0.000031 0.287598 0.230103
0.000031 0.360260 0.216217
0.000031 0.445251 0.178192
0.000031 0.545868 0.109161
0.012848 0.658020 0.012848
0.118500 0.710541 0.000031
0.000031 0.228302 0.342377
0.000031 0.286163 0.357666
0.000031 0.353729 0.353729
0.000031 0.433807 0.325378
0.010284 0.526428 0.268372
0.087738 0.603882 0.216766
0.165131 0.681274 0.165131
0.242493 0.758667 0.113495
0.000031 0.263489 0.526947
0.000031 0.323181 0.538544
0.007721 0.394836 0.523865
0.085114 0.472229 0.472229
0.162567 0.549683 0.420593
0.239960 0.627075 0.368958
0.317413 0.704529 0.317413
0.397095 0.781921 0.265778
0.005157 0.263153 0.779358
0.082611 0.340607 0.727783
0.160004 0.418091 0.676147
0.237396 0.495422 0.624512
0.314850 0.572906 0.572906
0.392242 0.650299 0.521271
0.469696 0.727753 0.469696
0.585327 0.805145 0.418060
0.157440 0.286530 0.931641
0.234833 0.363831 0.880005
0.312286 0.441315 0.828430
0.389679 0.518677 0.776794
0.467133 0.596161 0.725189
0.544525 0.673553 0.673553
0.621918 0.750946 0.621918
0.773926 0.828888 0.569824
0.345703 0.345703 1.000000
0.400970 0.400970 1.000000
0.464508 0.464508 0.980652
0.541962 0.541962 0.929077
0.619354 0.619354 0.877411
0.696808 0.696808 0.825836
0.774200 0.774200 0.774200
0.852081 0.778412 0.722046
0.521606 0.441895 1.000000
0.580536 0.496582 1.000000
0.640717 0.550934 1.000000
0.703583 0.604767 1.000000
0.799683 0.653809 1.000000
0.931641 0.695251 0.992981
0.941254 0.772400 0.837128
1.000000 0.908203 0.882843
0.000031 0.111603 0.111603
0.000031 0.162964 0.139679
0.000031 0.219757 0.156982
0.000031 0.282959 0.161743
0.000031 0.353729 0.151581
0.000031 0.433411 0.123810
0.000031 0.523956 0.074860
0.000031 0.627594 0.000031
0.000031 0.186676 0.217773
0.000031 0.240631 0.240631
0.000031 0.301056 0.250946
0.000031 0.369110 0.246124
0.000031 0.446381 0.223206
0.000031 0.534790 0.178253
0.000031 0.637024 0.106262
0.000031 0.756653 0.000031
0.000031 0.249176 0.348785
0.000031 0.305634 0.366699
0.000031 0.369659 0.369659
0.000031 0.443054 0.354462
0.000031 0.527832 0.316772
0.000031 0.626984 0.250763
0.064484 0.709656 0.193481
0.141876 0.787048 0.141876
0.000031 0.294006 0.514374
0.000031 0.352356 0.528473
0.000031 0.419891 0.524811
0.000031 0.498688 0.498688
0.061920 0.578064 0.449036
0.139313 0.655457 0.397400
0.216766 0.732910 0.345795
0.294159 0.810303 0.294159
0.000031 0.313202 0.730499
0.000031 0.371979 0.743896
0.059357 0.446381 0.704529
0.136749 0.523865 0.652893
0.214203 0.601288 0.601288
0.291595 0.678680 0.549683
0.369049 0.756134 0.498047
0.446442 0.833527 0.446442
0.056793 0.314789 0.960022
0.134186 0.392181 0.908386
0.211639 0.469635 0.856812
0.289032 0.547119 0.805176
0.366486 0.624573 0.753571
0.443878 0.701935 0.701935
0.521271 0.779327 0.650299
0.598724 0.856781 0.598724
0.279205 0.382141 1.000000
0.326660 0.438934 1.000000
0.370392 0.496277 1.000000
0.441315 0.570343 0.957458
0.518707 0.647705 0.905792
0.596161 0.725189 0.854218
0.673553 0.802582 0.802582
0.750946 0.879974 0.750946
0.474701 0.474701 1.000000
0.530029 0.530029 1.000000
0.585297 0.585297 1.000000
0.640564 0.640564 1.000000
0.695923 0.695923 1.000000
0.751160 0.751160 1.000000
0.825836 0.825836 0.954865
0.903229 0.903229 0.903229
