Drink it in!/Striped Purple - Aricha Blend.cube
#Created by: Adobe Photoshop Export Color Lookup Plugin
#Copyright: (C) Copyright 2018 Striped Purple - Austin Barrett
TITLE "Aricha Blend"
#LUT size
LUT_3D_SIZE 5
#data domain
#LUT data points
DOMAIN_MIN 0.000000 0.000000 0.000000
DOMAIN_MAX 0.903226 0.903226 0.903226
0.082367 0.066772 0.049225
0.102905 0.067963 0.049530
0.235199 0.074982 0.051514
0.596802 0.089691 0.057190
0.896759 0.104584 0.064209
0.086273 0.084930 0.049866
0.113983 0.091278 0.050446
0.274261 0.111847 0.053192
0.635010 0.145233 0.059967
0.905701 0.188843 0.067413
0.114410 0.207916 0.054016
0.167786 0.233582 0.055420
0.351471 0.271667 0.059235
0.693359 0.356903 0.068512
0.909210 0.406036 0.072266
0.193665 0.575317 0.067261
0.272552 0.603729 0.069214
0.458099 0.629181 0.072083
0.677551 0.630066 0.071625
0.887543 0.641876 0.071625
0.166382 0.873688 0.071625
0.233521 0.875610 0.071625
0.398987 0.869873 0.071625
0.661011 0.869659 0.072632
0.906097 0.897491 0.095062
0.082886 0.067078 0.058807
0.114746 0.069244 0.068298
0.287750 0.078186 0.079468
0.649231 0.092682 0.098480
0.906952 0.107971 0.122070
0.088165 0.090088 0.065399
0.130463 0.103729 0.073639
0.336975 0.130005 0.087524
0.689178 0.168976 0.110565
0.915588 0.215820 0.136780
0.122528 0.231628 0.078644
0.201660 0.286194 0.091553
0.423004 0.333435 0.104858
0.735382 0.412537 0.132111
0.910248 0.441406 0.154327
0.198761 0.602203 0.107086
0.296539 0.652130 0.124329
0.482666 0.666443 0.133453
0.696503 0.657410 0.141113
0.888245 0.669067 0.168793
0.160095 0.878021 0.124847
0.238708 0.882629 0.141113
0.430756 0.875214 0.154114
0.705811 0.882599 0.183197
0.918854 0.909637 0.257172
0.085968 0.068970 0.115753
0.126923 0.072357 0.158386
0.357727 0.084015 0.220703
0.705383 0.098419 0.280884
0.916199 0.115540 0.341522
0.093231 0.098145 0.144012
0.145966 0.114685 0.178619
0.408813 0.154938 0.249237
0.743561 0.205780 0.317078
0.920776 0.255859 0.375641
0.134796 0.260071 0.188171
0.230865 0.321808 0.234711
0.498108 0.404053 0.297668
0.755035 0.451996 0.354584
0.906036 0.464874 0.398987
0.203705 0.628937 0.259399
0.301178 0.672516 0.308441
0.486755 0.686707 0.353027
0.705139 0.673309 0.375702
0.896271 0.709290 0.439209
0.144348 0.878754 0.306885
0.231171 0.880524 0.352997
0.462128 0.879272 0.399506
0.773285 0.906006 0.490356
0.930634 0.922607 0.576355
0.095551 0.074799 0.353668
0.147186 0.078735 0.430389
0.402496 0.089325 0.519440
0.751831 0.107819 0.608917
0.922272 0.121704 0.652405
0.105743 0.111481 0.406433
0.178223 0.130005 0.461945
0.457977 0.175110 0.556061
0.777130 0.254120 0.637787
0.921448 0.287567 0.674561
0.155945 0.297150 0.475494
0.267242 0.363770 0.537811
0.529175 0.437378 0.605652
0.755676 0.475647 0.657043
0.903046 0.490662 0.689362
0.200836 0.651367 0.557678
0.288544 0.686462 0.607635
0.479187 0.685852 0.640656
0.721527 0.699951 0.675110
0.918365 0.778229 0.753082
0.123535 0.878357 0.606750
0.226318 0.878845 0.640625
0.499573 0.887787 0.688080
0.824707 0.921967 0.782990
0.939423 0.933441 0.822174
0.112244 0.081787 0.781281
0.178131 0.084595 0.807739
0.445862 0.094452 0.835907
0.769989 0.114532 0.858429
0.926788 0.124054 0.872223
0.125702 0.125244 0.800415
0.206787 0.144867 0.818451
0.501678 0.196411 0.848175
0.788147 0.275116 0.866730
0.920258 0.316162 0.876434
0.175995 0.336090 0.826111
0.297211 0.402405 0.845001
0.543610 0.457886 0.860382
0.754578 0.483673 0.869873
0.901886 0.530243 0.879700
0.187317 0.667938 0.850128
0.279907 0.693024 0.859741
0.482788 0.691101 0.866577
0.750854 0.729889 0.881165
0.932831 0.823975 0.915771
0.110138 0.877991 0.859741
0.236389 0.879669 0.866516
0.560394 0.902985 0.889404
0.842468 0.928192 0.919983
0.945526 0.941010 0.935944
