Drink it in!/Striped Purple - Vanilla Bean.cube
#Created by: Adobe Photoshop Export Color Lookup Plugin
#Copyright: (C) Copyright 2018 Striped Purple - Austin Barrett
TITLE "Vanilla Bean"
#LUT size
LUT_3D_SIZE 5
#data domain
#LUT data points
DOMAIN_MIN 0.000000 0.000000 0.000000
DOMAIN_MAX 0.903226 0.903226 0.903226
0.126556 0.120911 0.098083
0.147797 0.115417 0.095520
0.257172 0.094696 0.081665
0.567993 0.085632 0.070831
0.883606 0.099487 0.080841
0.121033 0.132690 0.092987
0.145172 0.128296 0.088623
0.269470 0.121460 0.073944
0.600555 0.137451 0.073364
0.893768 0.189026 0.088104
0.101959 0.214142 0.071686
0.141785 0.231476 0.070831
0.305664 0.259674 0.072418
0.660583 0.361908 0.090881
0.909668 0.455078 0.110992
0.153198 0.574921 0.087708
0.229736 0.610138 0.092804
0.439178 0.653046 0.102692
0.721954 0.697845 0.130676
0.924316 0.756958 0.158997
0.205841 0.895538 0.125549
0.305878 0.902130 0.132385
0.532684 0.911621 0.151001
0.784637 0.922333 0.174805
0.940704 0.936035 0.207092
0.125793 0.119415 0.113892
0.155975 0.109619 0.122833
0.293518 0.089844 0.112427
0.619019 0.087585 0.117950
0.894897 0.101898 0.150787
0.118500 0.132294 0.114990
0.151215 0.133179 0.116058
0.312805 0.130280 0.110291
0.655060 0.161346 0.133789
0.905670 0.223816 0.176392
0.102386 0.231476 0.099518
0.163239 0.275574 0.110291
0.371399 0.322174 0.127747
0.715912 0.434967 0.177094
0.918701 0.514709 0.235046
0.161072 0.606232 0.139282
0.265869 0.667603 0.167389
0.499634 0.706177 0.199554
0.766174 0.746674 0.246033
0.930023 0.786194 0.309265
0.208344 0.901001 0.204651
0.335114 0.912323 0.238342
0.582550 0.920074 0.280823
0.816864 0.931030 0.336426
0.946106 0.942017 0.392181
0.121460 0.110840 0.194794
0.154785 0.099335 0.234955
0.336060 0.084839 0.260101
0.673828 0.093140 0.317810
0.905518 0.115540 0.396881
0.112305 0.128784 0.212219
0.150848 0.130798 0.232788
0.369385 0.147766 0.282196
0.713226 0.202240 0.368164
0.914917 0.282867 0.452759
0.106079 0.252136 0.219849
0.183868 0.308472 0.267792
0.451782 0.406830 0.353699
0.760071 0.503784 0.447296
0.926147 0.575195 0.521851
0.173279 0.640839 0.322845
0.289398 0.697693 0.389954
0.560181 0.752014 0.471100
0.796997 0.781036 0.521759
0.938568 0.821869 0.593170
0.214264 0.907471 0.425873
0.361450 0.917053 0.486389
0.632416 0.927155 0.555511
0.851288 0.941254 0.615967
0.949921 0.947449 0.662781
0.109802 0.095001 0.437012
0.150085 0.089172 0.492523
0.366333 0.085449 0.554413
0.722137 0.101807 0.649780
0.913452 0.130188 0.705170
0.103210 0.121887 0.464020
0.155090 0.130280 0.504120
0.410187 0.166412 0.590668
0.756195 0.270416 0.695831
0.922607 0.342621 0.743713
0.117737 0.284332 0.511047
0.215302 0.354462 0.580139
0.498688 0.457916 0.670654
0.793518 0.567688 0.742828
0.933014 0.632782 0.782593
0.186340 0.674652 0.634369
0.315460 0.728027 0.691498
0.591461 0.772583 0.739288
0.825195 0.812134 0.781403
0.948364 0.857880 0.823517
0.221954 0.914276 0.711151
0.390137 0.921722 0.746460
0.671082 0.934265 0.790100
0.874481 0.948273 0.834991
0.952637 0.951294 0.856598
0.102051 0.085968 0.807159
0.155060 0.084839 0.827789
0.401672 0.089050 0.850800
0.742645 0.113556 0.879242
0.919678 0.138641 0.897552
0.103058 0.123810 0.820496
0.169769 0.138733 0.834930
0.452393 0.188904 0.866241
0.775421 0.305267 0.896149
0.929138 0.402313 0.910339
0.133728 0.325775 0.845459
0.247955 0.403412 0.868591
0.533081 0.494934 0.892792
0.809418 0.599487 0.909821
0.938873 0.683716 0.922455
0.196259 0.704468 0.887024
0.343231 0.748596 0.898987
0.619568 0.790283 0.910980
0.845856 0.834625 0.923492
0.953918 0.881958 0.937378
0.227356 0.918365 0.905212
0.417145 0.925537 0.912994
0.705963 0.940338 0.925995
0.881989 0.950562 0.938660
0.955231 0.954346 0.947052
