Drink it in!/Striped Purple - Horchata.cube
#Created by: Adobe Photoshop Export Color Lookup Plugin
#Copyright: (C) Copyright 2018 Striped Purple - Austin Barrett
TITLE "Horchata"
#LUT size
LUT_3D_SIZE 5
#data domain
#LUT data points
DOMAIN_MIN 0.000000 0.000000 0.000000
DOMAIN_MAX 0.903226 0.903226 0.903226
0.101959 0.101959 0.101959
0.123810 0.101959 0.101959
0.247650 0.101959 0.101959
0.562836 0.101959 0.101959
0.872711 0.101959 0.101959
0.101959 0.123810 0.101959
0.128937 0.128937 0.101959
0.268188 0.140594 0.101959
0.586548 0.154755 0.101959
0.878235 0.172028 0.101959
0.101959 0.247650 0.101959
0.140594 0.268188 0.101959
0.289825 0.289825 0.101959
0.610046 0.335968 0.101959
0.883575 0.385315 0.101959
0.101959 0.562836 0.101959
0.154755 0.586548 0.101959
0.335968 0.610046 0.101959
0.633362 0.633362 0.101959
0.888794 0.678955 0.101959
0.101959 0.872711 0.101959
0.172028 0.878235 0.101959
0.385315 0.883575 0.101959
0.678955 0.888794 0.101959
0.891724 0.891724 0.101959
0.101959 0.101959 0.119141
0.134491 0.101959 0.134491
0.289825 0.101959 0.147308
0.610046 0.101959 0.162994
0.883575 0.101959 0.181915
0.101959 0.128937 0.128937
0.140594 0.140594 0.140594
0.312469 0.154755 0.154755
0.633392 0.172028 0.172028
0.888794 0.192627 0.192627
0.101959 0.268188 0.140594
0.154755 0.312469 0.154755
0.335999 0.335999 0.162994
0.656372 0.385376 0.181946
0.891724 0.434357 0.208832
0.101959 0.586548 0.154755
0.172028 0.633392 0.172028
0.385376 0.656372 0.181946
0.678986 0.678986 0.192627
0.894440 0.708954 0.226868
0.101959 0.878235 0.172028
0.192627 0.888794 0.192627
0.434357 0.891724 0.208832
0.708954 0.894440 0.226868
0.897095 0.897095 0.246277
0.101959 0.101959 0.210388
0.140594 0.101959 0.268188
0.335968 0.101959 0.335968
0.656372 0.101959 0.385315
0.891724 0.101959 0.434357
0.101959 0.134491 0.247650
0.147339 0.147339 0.289825
0.360352 0.172028 0.360352
0.678986 0.192627 0.410980
0.894440 0.226868 0.457886
0.101959 0.289825 0.289825
0.162994 0.335999 0.335999
0.385376 0.385376 0.385376
0.694366 0.434387 0.434387
0.897125 0.481659 0.481659
0.101959 0.610046 0.335968
0.181946 0.656372 0.385376
0.434387 0.694366 0.434387
0.708984 0.708984 0.457916
0.899750 0.737427 0.505554
0.101959 0.883575 0.385315
0.208832 0.891724 0.434357
0.481659 0.897125 0.481659
0.737427 0.899750 0.505554
0.902344 0.902344 0.529541
0.101959 0.101959 0.491547
0.147308 0.101959 0.562836
0.360321 0.101959 0.633362
0.694336 0.101959 0.694336
0.897095 0.101959 0.723297
0.101959 0.140594 0.539093
0.154755 0.154755 0.586578
0.385315 0.181946 0.656372
0.708954 0.226868 0.708954
0.899750 0.266876 0.737396
0.101959 0.312439 0.586548
0.172028 0.360352 0.633392
0.410980 0.410980 0.679016
0.723328 0.481659 0.723328
0.902344 0.529541 0.751251
0.101959 0.633362 0.633362
0.192627 0.678986 0.678986
0.457916 0.708984 0.708984
0.737427 0.737427 0.737427
0.904938 0.764740 0.764740
0.101959 0.888794 0.678955
0.226868 0.894440 0.708954
0.505554 0.899750 0.737427
0.764740 0.904938 0.764740
0.907501 0.907501 0.777924
0.101959 0.101959 0.848816
0.154755 0.101959 0.867004
0.385315 0.101959 0.883575
0.708954 0.101959 0.894440
0.902344 0.101959 0.902344
0.101959 0.147308 0.861145
0.162994 0.162994 0.872711
0.410980 0.192627 0.888794
0.723297 0.246277 0.897095
0.904938 0.311432 0.904938
0.101959 0.335968 0.872711
0.181946 0.385315 0.883575
0.434387 0.434387 0.891724
0.737427 0.505554 0.899750
0.907501 0.577484 0.907501
0.101959 0.656372 0.883575
0.208832 0.694366 0.891724
0.481659 0.723328 0.897125
0.751251 0.751251 0.902344
0.909973 0.790741 0.909973
0.101959 0.891724 0.891724
0.246277 0.897095 0.897095
0.529541 0.902344 0.902344
0.777924 0.907501 0.907501
0.912476 0.912476 0.912476
