Drink it in!/Striped Purple - Horchata.cube
#Created by: Adobe Photoshop Export Color Lookup Plugin
#Copyright: (C) Copyright 2018 Striped Purple - Austin Barrett
TITLE "Horchata"
#LUT size
LUT_3D_SIZE 32
#data domain
DOMAIN_MIN 0.0 0.0 0.0
DOMAIN_MAX 1.0 1.0 1.0
#LUT data points
0.101959 0.101959 0.101959
0.102417 0.101959 0.101959
0.103729 0.101959 0.101959
0.105896 0.101959 0.101959
0.108917 0.101959 0.101959
0.112793 0.101959 0.101959
0.117676 0.101959 0.101959
0.123810 0.101959 0.101959
0.131592 0.101959 0.101959
0.141479 0.101959 0.101959
0.154236 0.101959 0.101959
0.170715 0.101959 0.101959
0.191681 0.101959 0.101959
0.217316 0.101959 0.101959
0.247650 0.101959 0.101959
0.282593 0.101959 0.101959
0.321838 0.101959 0.101959
0.364899 0.101959 0.101959
0.411285 0.101959 0.101959
0.460266 0.101959 0.101959
0.511078 0.101959 0.101959
0.562836 0.101959 0.101959
0.614594 0.101959 0.101959
0.665405 0.101959 0.101959
0.714325 0.101959 0.101959
0.760284 0.101959 0.101959
0.802582 0.101959 0.101959
0.840271 0.101959 0.101959
0.872711 0.101959 0.101959
0.899963 0.101959 0.101959
0.923553 0.101959 0.101959
0.945099 0.101959 0.101959
0.101959 0.102417 0.101959
0.102509 0.102509 0.101959
0.103912 0.102692 0.101959
0.106201 0.102905 0.101959
0.109253 0.103088 0.101959
0.113220 0.103302 0.101959
0.118256 0.103516 0.101959
0.124542 0.103668 0.101959
0.132446 0.103882 0.101959
0.142609 0.104065 0.101959
0.155640 0.104279 0.101959
0.172485 0.104492 0.101959
0.193817 0.104675 0.101959
0.219818 0.104858 0.101959
0.250519 0.105042 0.101959
0.285706 0.105255 0.101959
0.325226 0.105469 0.101959
0.368469 0.105652 0.101959
0.414917 0.105865 0.101959
0.463928 0.106049 0.101959
0.514679 0.106262 0.101959
0.566254 0.106415 0.101959
0.617767 0.106628 0.101959
0.668243 0.106842 0.101959
0.716766 0.107025 0.101959
0.762360 0.107239 0.101959
0.804199 0.107422 0.101959
0.841492 0.107635 0.101959
0.873505 0.107849 0.101959
0.900421 0.108032 0.101959
0.923798 0.108246 0.101959
0.945099 0.108429 0.101959
0.101959 0.103729 0.101959
0.102692 0.103912 0.101959
0.104095 0.104095 0.101959
0.106445 0.104492 0.101959
0.109619 0.104858 0.101959
0.113708 0.105255 0.101959
0.118835 0.105621 0.101959
0.125244 0.106018 0.101959
0.133362 0.106384 0.101959
0.143707 0.106781 0.101959
0.157043 0.107147 0.101959
0.174286 0.107544 0.101959
0.196014 0.107941 0.101959
0.222382 0.108337 0.101959
0.253387 0.108704 0.101959
0.288910 0.109100 0.101959
0.328613 0.109497 0.101959
0.372040 0.109894 0.101959
0.418579 0.110291 0.101959
0.467529 0.110687 0.101959
0.518219 0.111084 0.101959
0.569641 0.111481 0.101959
0.620911 0.111908 0.101959
0.671051 0.112274 0.101959
0.719238 0.112701 0.101959
0.764404 0.113098 0.101959
0.805817 0.113525 0.101959
0.842682 0.113922 0.101959
0.874298 0.114319 0.101959
0.900909 0.114746 0.101959
0.924011 0.115173 0.101959
0.945099 0.115570 0.101959
0.101959 0.105896 0.101959
0.102905 0.106201 0.101959
0.104492 0.106445 0.101959
0.106720 0.106720 0.101959
0.109985 0.107269 0.101959
0.114166 0.107849 0.101959
0.119385 0.108398 0.101959
0.125977 0.108978 0.101959
0.134247 0.109528 0.101959
0.144867 0.110107 0.101959
0.158508 0.110687 0.101959
0.176117 0.111267 0.101959
0.198212 0.111847 0.101959
0.224945 0.112427 0.101959
0.256287 0.113007 0.101959
0.292084 0.113617 0.101959
0.332062 0.114197 0.101959
0.375580 0.114807 0.101959
0.422211 0.115417 0.101959
0.471252 0.116028 0.101959
0.521759 0.116638 0.101959
0.572998 0.117279 0.101959
0.624023 0.117889 0.101959
0.673889 0.118530 0.101959
0.721649 0.119171 0.101959
0.766449 0.119812 0.101959
0.807434 0.120483 0.101959
0.843842 0.121124 0.101959
0.875092 0.121826 0.101959
0.901398 0.122467 0.101959
0.924225 0.123169 0.101959
0.945099 0.123871 0.101959
0.101959 0.108917 0.101959
0.103088 0.109253 0.101959
0.104858 0.109619 0.101959
0.107269 0.109985 0.101959
0.110352 0.110352 0.101959
0.114624 0.111115 0.101959
0.119995 0.111877 0.101959
0.126678 0.112579 0.101959
0.135162 0.113373 0.101959
0.145996 0.114136 0.101959
0.160004 0.114899 0.101959
0.177948 0.115692 0.101959
0.200470 0.116486 0.101959
0.227570 0.117279 0.101959
0.259247 0.118103 0.101959
0.295319 0.118896 0.101959
0.335480 0.119751 0.101959
0.379181 0.120605 0.101959
0.425873 0.121429 0.101959
0.474884 0.122314 0.101959
0.525360 0.123199 0.101959
0.576416 0.124084 0.101959
0.627167 0.125000 0.101959
0.676727 0.125885 0.101959
0.724121 0.126831 0.101959
0.768463 0.127808 0.101959
0.809021 0.128754 0.101959
0.845032 0.129730 0.101959
0.875885 0.130737 0.101959
0.901855 0.131744 0.101959
0.924469 0.132782 0.101959
0.945099 0.133820 0.101959
0.101959 0.112793 0.101959
0.103302 0.113220 0.101959
0.105255 0.113708 0.101959
0.107849 0.114166 0.101959
0.111115 0.114624 0.101959
0.115112 0.115112 0.101959
0.120575 0.116028 0.101959
0.127411 0.117004 0.101959
0.136078 0.117981 0.101959
0.147217 0.118958 0.101959
0.161499 0.119995 0.101959
0.179840 0.121002 0.101959
0.202728 0.122040 0.101959
0.230194 0.123077 0.101959
0.262177 0.124146 0.101959
0.298523 0.125244 0.101959
0.338959 0.126373 0.101959
0.382812 0.127502 0.101959
0.429565 0.128662 0.101959
0.478546 0.129852 0.101959
0.528870 0.131012 0.101959
0.579773 0.132294 0.101959
0.630280 0.133514 0.101959
0.679535 0.134796 0.101959
0.726532 0.136108 0.101959
0.770508 0.137451 0.101959
0.810638 0.138824 0.101959
0.846222 0.140198 0.101959
0.876678 0.141632 0.101959
0.902313 0.143097 0.101959
0.924683 0.144562 0.101959
0.945099 0.146088 0.101959
0.101959 0.117676 0.101959
0.103516 0.118256 0.101959
0.105621 0.118835 0.101959
0.108398 0.119385 0.101959
0.111877 0.119995 0.101959
0.116028 0.120575 0.101959
0.121155 0.121155 0.101959
0.128174 0.122375 0.101959
0.137024 0.123596 0.101959
0.148407 0.124847 0.101959
0.163025 0.126129 0.101959
0.181763 0.127411 0.101959
0.205017 0.128754 0.101959
0.232849 0.130127 0.101959
0.265167 0.131500 0.101959
0.301788 0.132965 0.101959
0.342438 0.134430 0.101959
0.386383 0.135925 0.101959
0.433228 0.137451 0.101959
0.482208 0.139038 0.101959
0.532440 0.140656 0.101959
0.583130 0.142303 0.101959
0.633423 0.144012 0.101959
0.682312 0.145752 0.101959
0.728973 0.147522 0.101959
0.772522 0.149384 0.101959
0.812225 0.151245 0.101959
0.847382 0.153168 0.101959
0.877441 0.155151 0.101959
0.902802 0.157196 0.101959
0.924896 0.159271 0.101959
0.945099 0.161407 0.101959
0.101959 0.123810 0.101959
0.103668 0.124542 0.101959
0.106018 0.125244 0.101959
0.108978 0.125977 0.101959
0.112579 0.126678 0.101959
0.117004 0.127411 0.101959
0.122375 0.128174 0.101959
0.128937 0.128937 0.101959
0.137970 0.130463 0.101959
0.149628 0.132019 0.101959
0.164581 0.133667 0.101959
0.183716 0.135315 0.101959
0.207306 0.137024 0.101959
0.235474 0.138794 0.101959
0.268188 0.140594 0.101959
0.305084 0.142456 0.101959
0.345917 0.144348 0.101959
0.390045 0.146332 0.101959
0.436920 0.148346 0.101959
0.485870 0.150421 0.101959
0.536011 0.152557 0.101959
0.586548 0.154755 0.101959
0.636505 0.157013 0.101959
0.685120 0.159363 0.101959
0.731384 0.161743 0.101959
0.774536 0.164215 0.101959
0.813812 0.166748 0.101959
0.848541 0.169373 0.101959
0.878235 0.172028 0.101959
0.903290 0.174774 0.101959
0.925140 0.177582 0.101959
0.945099 0.180450 0.101959
0.101959 0.131592 0.101959
0.103882 0.132446 0.101959
0.106384 0.133362 0.101959
0.109528 0.134247 0.101959
0.113373 0.135162 0.101959
0.117981 0.136078 0.101959
0.123596 0.137024 0.101959
0.130463 0.137970 0.101959
0.138977 0.138977 0.101959
0.150848 0.140930 0.101959
0.166138 0.143005 0.101959
0.185669 0.145111 0.101959
0.209656 0.147308 0.101959
0.238220 0.149536 0.101959
0.271210 0.151855 0.101959
0.308380 0.154236 0.101959
0.349396 0.156708 0.101959
0.393707 0.159271 0.101959
0.440613 0.161896 0.101959
0.489532 0.164612 0.101959
0.539581 0.167389 0.101959
0.589905 0.170258 0.101959
0.639648 0.173218 0.101959
0.687866 0.176239 0.101959
0.733795 0.179352 0.101959
0.776520 0.182587 0.101959
0.815399 0.185852 0.101959
0.849701 0.189209 0.101959
0.879028 0.192657 0.101959
0.903748 0.196167 0.101959
0.925354 0.199738 0.101959
0.945099 0.203400 0.101959
0.101959 0.141479 0.101959
0.104065 0.142609 0.101959
0.106781 0.143707 0.101959
0.110107 0.144867 0.101959
0.114136 0.145996 0.101959
0.118958 0.147217 0.101959
0.124847 0.148407 0.101959
0.132019 0.149628 0.101959
0.140930 0.150848 0.101959
0.152100 0.152100 0.101959
0.167755 0.154694 0.101959
0.187683 0.157379 0.101959
0.212036 0.160126 0.101959
0.240936 0.162994 0.101959
0.274231 0.165924 0.101959
0.311707 0.169006 0.101959
0.352905 0.172150 0.101959
0.397339 0.175385 0.101959
0.444336 0.178741 0.101959
0.493225 0.182129 0.101959
0.543121 0.185669 0.101959
0.593292 0.189270 0.101959
0.642761 0.192993 0.101959
0.690674 0.196777 0.101959
0.736206 0.200653 0.101959
0.778534 0.204590 0.101959
0.816956 0.208618 0.101959
0.850861 0.212708 0.101959
0.879761 0.216919 0.101959
0.904205 0.221191 0.101959
0.925598 0.225555 0.101959
0.945099 0.229980 0.101959
0.101959 0.154236 0.101959
0.104279 0.155640 0.101959
0.107147 0.157043 0.101959
0.110687 0.158508 0.101959
0.114899 0.160004 0.101959
0.119995 0.161499 0.101959
0.126129 0.163025 0.101959
0.133667 0.164581 0.101959
0.143005 0.166138 0.101959
0.154694 0.167755 0.101959
0.169403 0.169403 0.101959
0.189667 0.172760 0.101959
0.214447 0.176208 0.101959
0.243713 0.179749 0.101959
0.277313 0.183441 0.101959
0.315002 0.187195 0.101959
0.356476 0.191101 0.101959
0.401001 0.195068 0.101959
0.448059 0.199127 0.101959
0.496887 0.203278 0.101959
0.546692 0.207550 0.101959
0.596649 0.211884 0.101959
0.645844 0.216339 0.101959
0.693420 0.220825 0.101959
0.738586 0.225433 0.101959
0.780518 0.230164 0.101959
0.818542 0.234955 0.101959
0.852020 0.239777 0.101959
0.880524 0.244720 0.101959
0.904694 0.249756 0.101959
0.925812 0.254852 0.101959
0.945099 0.260010 0.101959
0.101959 0.170715 0.101959
0.104492 0.172485 0.101959
0.107544 0.174286 0.101959
0.111267 0.176117 0.101959
0.115692 0.177948 0.101959
0.121002 0.179840 0.101959
0.127411 0.181763 0.101959
0.135315 0.183716 0.101959
0.145111 0.185669 0.101959
0.157379 0.187683 0.101959
0.172760 0.189667 0.101959
0.191711 0.191711 0.101959
0.216858 0.195923 0.101959
0.246460 0.200195 0.101959
0.280426 0.204590 0.101959
0.318390 0.209045 0.101959
0.360016 0.213654 0.101959
0.404694 0.218323 0.101959
0.451782 0.223145 0.101959
0.500549 0.227997 0.101959
0.550262 0.232971 0.101959
0.599976 0.238037 0.101959
0.648956 0.243164 0.101959
0.696167 0.248383 0.101959
0.740967 0.253723 0.101959
0.782471 0.259125 0.101959
0.820068 0.264587 0.101959
0.853149 0.270172 0.101959
0.881287 0.275787 0.101959
0.905151 0.281494 0.101959
0.926056 0.287292 0.101959
0.945099 0.293152 0.101959
0.101959 0.191681 0.101959
0.104675 0.193817 0.101959
0.107941 0.196014 0.101959
0.111847 0.198212 0.101959
0.116486 0.200470 0.101959
0.122040 0.202728 0.101959
0.128754 0.205017 0.101959
0.137024 0.207306 0.101959
0.147308 0.209656 0.101959
0.160126 0.212036 0.101959
0.176208 0.214447 0.101959
0.195923 0.216858 0.101959
0.219299 0.219299 0.101959
0.249268 0.224304 0.101959
0.283508 0.229370 0.101959
0.321747 0.234558 0.101959
0.363586 0.239838 0.101959
0.408356 0.245209 0.101959
0.455505 0.250671 0.101959
0.504242 0.256195 0.101959
0.553833 0.261841 0.101959
0.603363 0.267548 0.101959
0.652008 0.273346 0.101959
0.698944 0.279266 0.101959
0.743317 0.285217 0.101959
0.784454 0.291260 0.101959
0.821625 0.297363 0.101959
0.854309 0.303558 0.101959
0.882080 0.309814 0.101959
0.905640 0.316162 0.101959
0.926239 0.322540 0.101959
0.945099 0.329010 0.101959
0.101959 0.217316 0.101959
0.104858 0.219818 0.101959
0.108337 0.222382 0.101959
0.112427 0.224945 0.101959
0.117279 0.227570 0.101959
0.123077 0.230194 0.101959
0.130127 0.232849 0.101959
0.138794 0.235474 0.101959
0.149536 0.238220 0.101959
0.162994 0.240936 0.101959
0.179749 0.243713 0.101959
0.200195 0.246460 0.101959
0.224304 0.249268 0.101959
0.252075 0.252075 0.101959
0.286652 0.257812 0.101959
0.325134 0.263641 0.101959
0.367126 0.269531 0.101959
0.412048 0.275513 0.101959
0.459198 0.281555 0.101959
0.507904 0.287720 0.101959
0.557373 0.293976 0.101959
0.606720 0.300293 0.101959
0.655090 0.306671 0.101959
0.701691 0.313141 0.101959
0.745728 0.319672 0.101959
0.786407 0.326263 0.101959
0.823151 0.332947 0.101959
0.855408 0.339661 0.101959
0.882812 0.346466 0.101959
0.906097 0.353333 0.101959
0.926483 0.360260 0.101959
0.945099 0.367188 0.101959
0.101959 0.247650 0.101959
0.105042 0.250519 0.101959
0.108704 0.253387 0.101959
0.113007 0.256287 0.101959
0.118103 0.259247 0.101959
0.124146 0.262177 0.101959
0.131500 0.265167 0.101959
0.140594 0.268188 0.101959
0.151855 0.271210 0.101959
0.165924 0.274231 0.101959
0.183441 0.277313 0.101959
0.204590 0.280426 0.101959
0.229370 0.283508 0.101959
0.257812 0.286652 0.101959
0.289825 0.289825 0.101959
0.328522 0.296173 0.101959
0.370728 0.302612 0.101959
0.415741 0.309143 0.101959
0.462982 0.315735 0.101959
0.511627 0.322449 0.101959
0.560913 0.329163 0.101959
0.610046 0.335968 0.101959
0.658142 0.342865 0.101959
0.704437 0.349792 0.101959
0.748077 0.356781 0.101959
0.788361 0.363861 0.101959
0.824677 0.370941 0.101959
0.856537 0.378082 0.101959
0.883575 0.385315 0.101959
0.906555 0.392578 0.101959
0.926727 0.399872 0.101959
0.945099 0.407257 0.101959
0.101959 0.282593 0.101959
0.105255 0.285706 0.101959
0.109100 0.288910 0.101959
0.113617 0.292084 0.101959
0.118896 0.295319 0.101959
0.125244 0.298523 0.101959
0.132965 0.301788 0.101959
0.142456 0.305084 0.101959
0.154236 0.308380 0.101959
0.169006 0.311707 0.101959
0.187195 0.315002 0.101959
0.209045 0.318390 0.101959
0.234558 0.321747 0.101959
0.263641 0.325134 0.101959
0.296173 0.328522 0.101959
0.331970 0.331970 0.101959
0.374359 0.338867 0.101959
0.419434 0.345825 0.101959
0.466675 0.352844 0.101959
0.515289 0.359924 0.101959
0.564484 0.367065 0.101959
0.613403 0.374237 0.101959
0.661224 0.381500 0.101959
0.707153 0.388794 0.101959
0.750427 0.396118 0.101959
0.790314 0.403534 0.101959
0.826233 0.410980 0.101959
0.857635 0.418396 0.101959
0.884338 0.425964 0.101959
0.907013 0.433502 0.101959
0.926941 0.441071 0.101959
0.945099 0.448669 0.101959
0.101959 0.321838 0.101959
0.105469 0.325226 0.101959
0.109497 0.328613 0.101959
0.114197 0.332062 0.101959
0.119751 0.335480 0.101959
0.126373 0.338959 0.101959
0.134430 0.342438 0.101959
0.144348 0.345917 0.101959
0.156708 0.349396 0.101959
0.172150 0.352905 0.101959
0.191101 0.356476 0.101959
0.213654 0.360016 0.101959
0.239838 0.363586 0.101959
0.269531 0.367126 0.101959
0.302612 0.370728 0.101959
0.338867 0.374359 0.101959
0.377960 0.377960 0.101959
0.423157 0.385223 0.101959
0.470459 0.392548 0.101959
0.518982 0.399902 0.101959
0.568054 0.407318 0.101959
0.616730 0.414795 0.101959
0.664307 0.422272 0.101959
0.709869 0.429810 0.101959
0.752747 0.437378 0.101959
0.792236 0.444946 0.101959
0.827759 0.452576 0.101959
0.858765 0.460205 0.101959
0.885101 0.467926 0.101959
0.907501 0.475555 0.101959
0.927155 0.483307 0.101959
0.945099 0.490662 0.101959
0.101959 0.364899 0.101959
0.105652 0.368469 0.101959
0.109894 0.372040 0.101959
0.114807 0.375580 0.101959
0.120605 0.379181 0.101959
0.127502 0.382812 0.101959
0.135925 0.386383 0.101959
0.146332 0.390045 0.101959
0.159271 0.393707 0.101959
0.175385 0.397339 0.101959
0.195068 0.401001 0.101959
0.218323 0.404694 0.101959
0.245209 0.408356 0.101959
0.275513 0.412048 0.101959
0.309143 0.415741 0.101959
0.345825 0.419434 0.101959
0.385223 0.423157 0.101959
0.426910 0.426910 0.101959
0.474182 0.434387 0.101959
0.522705 0.441925 0.101959
0.571564 0.449463 0.101959
0.620087 0.457031 0.101959
0.667358 0.464630 0.101959
0.712585 0.472260 0.101959
0.755096 0.479858 0.101959
0.794159 0.487549 0.101959
0.829254 0.495209 0.101959
0.859894 0.502869 0.101959
0.885834 0.510590 0.101959
0.907959 0.518311 0.101959
0.927368 0.526001 0.101959
0.945099 0.532410 0.101959
0.101959 0.411285 0.101959
0.105865 0.414917 0.101959
0.110291 0.418579 0.101959
0.115417 0.422211 0.101959
0.121429 0.425873 0.101959
0.128662 0.429565 0.101959
0.137451 0.433228 0.101959
0.148346 0.436920 0.101959
0.161896 0.440613 0.101959
0.178741 0.444336 0.101959
0.199127 0.448059 0.101959
0.223145 0.451782 0.101959
0.250671 0.455505 0.101959
0.281555 0.459198 0.101959
0.315735 0.462982 0.101959
0.352844 0.466675 0.101959
0.392548 0.470459 0.101959
0.434387 0.474182 0.101959
0.477936 0.477936 0.101959
0.526398 0.485474 0.101959
0.575134 0.493011 0.101959
0.623413 0.500549 0.101959
0.670380 0.508148 0.101959
0.715302 0.515717 0.101959
0.757416 0.523285 0.101959
0.796082 0.530823 0.101959
0.830750 0.538422 0.101959
0.860992 0.545990 0.101959
0.886566 0.553558 0.101959
0.908386 0.561157 0.101959
0.927521 0.568237 0.101959
0.945099 0.573822 0.101959
0.101959 0.460266 0.101959
0.106049 0.463928 0.101959
0.110687 0.467529 0.101959
0.116028 0.471252 0.101959
0.122314 0.474884 0.101959
0.129852 0.478546 0.101959
0.139038 0.482208 0.101959
0.150421 0.485870 0.101959
0.164612 0.489532 0.101959
0.182129 0.493225 0.101959
0.203278 0.496887 0.101959
0.227997 0.500549 0.101959
0.256195 0.504242 0.101959
0.287720 0.507904 0.101959
0.322449 0.511627 0.101959
0.359924 0.515289 0.101959
0.399902 0.518982 0.101959
0.441925 0.522705 0.101959
0.485474 0.526398 0.101959
0.530060 0.530060 0.101959
0.578674 0.537445 0.101959
0.626709 0.544861 0.101959
0.673431 0.552216 0.101959
0.717987 0.559601 0.101959
0.759735 0.566956 0.101959
0.798004 0.574341 0.101959
0.832245 0.581635 0.101959
0.862061 0.588989 0.101959
0.887329 0.596313 0.101959
0.908875 0.603577 0.101959
0.927673 0.609344 0.101959
0.945099 0.614532 0.101959
0.101959 0.511078 0.101959
0.106262 0.514679 0.101959
0.111084 0.518219 0.101959
0.116638 0.521759 0.101959
0.123199 0.525360 0.101959
0.131012 0.528870 0.101959
0.140656 0.532440 0.101959
0.152557 0.536011 0.101959
0.167389 0.539581 0.101959
0.185669 0.543121 0.101959
0.207550 0.546692 0.101959
0.232971 0.550262 0.101959
0.261841 0.553833 0.101959
0.293976 0.557373 0.101959
0.329163 0.560913 0.101959
0.367065 0.564484 0.101959
0.407318 0.568054 0.101959
0.449463 0.571564 0.101959
0.493011 0.575134 0.101959
0.537445 0.578674 0.101959
0.582245 0.582245 0.101959
0.630066 0.589294 0.101959
0.676483 0.596344 0.101959
0.720703 0.603394 0.101959
0.762054 0.610413 0.101959
0.799896 0.617432 0.101959
0.833740 0.624390 0.101959
0.863159 0.631317 0.101959
0.888062 0.638245 0.101959
0.909210 0.644653 0.101959
0.927765 0.649384 0.101959
0.945099 0.654114 0.101959
0.101959 0.562836 0.101959
0.106415 0.566254 0.101959
0.111481 0.569641 0.101959
0.117279 0.572998 0.101959
0.124084 0.576416 0.101959
0.132294 0.579773 0.101959
0.142303 0.583130 0.101959
0.154755 0.586548 0.101959
0.170258 0.589905 0.101959
0.189270 0.593292 0.101959
0.211884 0.596649 0.101959
0.238037 0.599976 0.101959
0.267548 0.603363 0.101959
0.300293 0.606720 0.101959
0.335968 0.610046 0.101959
0.374237 0.613403 0.101959
0.414795 0.616730 0.101959
0.457031 0.620087 0.101959
0.500549 0.623413 0.101959
0.544861 0.626709 0.101959
0.589294 0.630066 0.101959
0.633362 0.633362 0.101959
0.679474 0.639984 0.101959
0.723358 0.646545 0.101959
0.764343 0.653076 0.101959
0.801788 0.659607 0.101959
0.835236 0.666107 0.101959
0.864227 0.672577 0.101959
0.888794 0.678955 0.101959
0.909454 0.683746 0.101959
0.927887 0.688019 0.101959
0.945099 0.692261 0.101959
0.101959 0.614594 0.101959
0.106628 0.617767 0.101959
0.111908 0.620911 0.101959
0.117889 0.624023 0.101959
0.125000 0.627167 0.101959
0.133514 0.630280 0.101959
0.144012 0.633423 0.101959
0.157013 0.636505 0.101959
0.173218 0.639648 0.101959
0.192993 0.642761 0.101959
0.216339 0.645844 0.101959
0.243164 0.648956 0.101959
0.273346 0.652008 0.101959
0.306671 0.655090 0.101959
0.342865 0.658142 0.101959
0.381500 0.661224 0.101959
0.422272 0.664307 0.101959
0.464630 0.667358 0.101959
0.508148 0.670380 0.101959
0.552216 0.673431 0.101959
0.596344 0.676483 0.101959
0.639984 0.679474 0.101959
0.682495 0.682495 0.101959
0.726044 0.688477 0.101959
0.766602 0.694427 0.101959
0.803650 0.700409 0.101959
0.836700 0.706268 0.101959
0.865326 0.712128 0.101959
0.889374 0.717438 0.101959
0.909698 0.721130 0.101959
0.928009 0.724854 0.101959
0.945099 0.728546 0.101959
0.101959 0.665405 0.101959
0.106842 0.668243 0.101959
0.112274 0.671051 0.101959
0.118530 0.673889 0.101959
0.125885 0.676727 0.101959
0.134796 0.679535 0.101959
0.145752 0.682312 0.101959
0.159363 0.685120 0.101959
0.176239 0.687866 0.101959
0.196777 0.690674 0.101959
0.220825 0.693420 0.101959
0.248383 0.696167 0.101959
0.279266 0.698944 0.101959
0.313141 0.701691 0.101959
0.349792 0.704437 0.101959
0.388794 0.707153 0.101959
0.429810 0.709869 0.101959
0.472260 0.712585 0.101959
0.515717 0.715302 0.101959
0.559601 0.717987 0.101959
0.603394 0.720703 0.101959
0.646545 0.723358 0.101959
0.688477 0.726044 0.101959
0.728699 0.728699 0.101959
0.768890 0.733948 0.101959
0.805542 0.739197 0.101959
0.838135 0.744415 0.101959
0.866364 0.749603 0.101959
0.889771 0.753296 0.101959
0.909943 0.756470 0.101959
0.928131 0.759644 0.101959
0.945099 0.762787 0.101959
0.101959 0.714325 0.101959
0.107025 0.716766 0.101959
0.112701 0.719238 0.101959
0.119171 0.721649 0.101959
0.126831 0.724121 0.101959
0.136108 0.726532 0.101959
0.147522 0.728973 0.101959
0.161743 0.731384 0.101959
0.179352 0.733795 0.101959
0.200653 0.736206 0.101959
0.225433 0.738586 0.101959
0.253723 0.740967 0.101959
0.285217 0.743317 0.101959
0.319672 0.745728 0.101959
0.356781 0.748077 0.101959
0.396118 0.750427 0.101959
0.437378 0.752747 0.101959
0.479858 0.755096 0.101959
0.523285 0.757416 0.101959
0.566956 0.759735 0.101959
0.610413 0.762054 0.101959
0.653076 0.764343 0.101959
0.694427 0.766602 0.101959
0.733948 0.768890 0.101959
0.771149 0.771149 0.101959
0.807404 0.775665 0.101959
0.839600 0.780121 0.101959
0.867249 0.784119 0.101959
0.890167 0.786774 0.101959
0.910187 0.789398 0.101959
0.928253 0.792053 0.101959
0.945099 0.794647 0.101959
0.101959 0.760284 0.101959
0.107239 0.762360 0.101959
0.113098 0.764404 0.101959
0.119812 0.766449 0.101959
0.127808 0.768463 0.101959
0.137451 0.770508 0.101959
0.149384 0.772522 0.101959
0.164215 0.774536 0.101959
0.182587 0.776520 0.101959
0.204590 0.778534 0.101959
0.230164 0.780518 0.101959
0.259125 0.782471 0.101959
0.291260 0.784454 0.101959
0.326263 0.786407 0.101959
0.363861 0.788361 0.101959
0.403534 0.790314 0.101959
0.444946 0.792236 0.101959
0.487549 0.794159 0.101959
0.530823 0.796082 0.101959
0.574341 0.798004 0.101959
0.617432 0.799896 0.101959
0.659607 0.801788 0.101959
0.700409 0.803650 0.101959
0.739197 0.805542 0.101959
0.775665 0.807404 0.101959
0.809265 0.809265 0.101959
0.841034 0.812927 0.101959
0.867798 0.815460 0.101959
0.890533 0.817566 0.101959
0.910400 0.819672 0.101959
0.928345 0.821808 0.101959
0.945099 0.823853 0.101959
0.101959 0.802582 0.101959
0.107422 0.804199 0.101959
0.113525 0.805817 0.101959
0.120483 0.807434 0.101959
0.128754 0.809021 0.101959
0.138824 0.810638 0.101959
0.151245 0.812225 0.101959
0.166748 0.813812 0.101959
0.185852 0.815399 0.101959
0.208618 0.816956 0.101959
0.234955 0.818542 0.101959
0.264587 0.820068 0.101959
0.297363 0.821625 0.101959
0.332947 0.823151 0.101959
0.370941 0.824677 0.101959
0.410980 0.826233 0.101959
0.452576 0.827759 0.101959
0.495209 0.829254 0.101959
0.538422 0.830750 0.101959
0.581635 0.832245 0.101959
0.624390 0.833740 0.101959
0.666107 0.835236 0.101959
0.706268 0.836700 0.101959
0.744415 0.838135 0.101959
0.780121 0.839600 0.101959
0.812927 0.841034 0.101959
0.842194 0.842194 0.101959
0.868378 0.843842 0.101959
0.890930 0.845428 0.101959
0.910675 0.847046 0.101959
0.928436 0.848633 0.101959
0.945099 0.850220 0.101959
0.101959 0.840271 0.101959
0.107635 0.841492 0.101959
0.113922 0.842682 0.101959
0.121124 0.843842 0.101959
0.129730 0.845032 0.101959
0.140198 0.846222 0.101959
0.153168 0.847382 0.101959
0.169373 0.848541 0.101959
0.189209 0.849701 0.101959
0.212708 0.850861 0.101959
0.239777 0.852020 0.101959
0.270172 0.853149 0.101959
0.303558 0.854309 0.101959
0.339661 0.855408 0.101959
0.378082 0.856537 0.101959
0.418396 0.857635 0.101959
