Drink it in!/Striped Purple - Vanilla Bean.cube
#Created by: Adobe Photoshop Export Color Lookup Plugin
#Copyright: (C) Copyright 2018 Striped Purple - Austin Barrett
TITLE "Vanilla Bean"
#LUT size
LUT_3D_SIZE 8
#data domain
#LUT data points
DOMAIN_MIN 0.000000 0.000000 0.000000
DOMAIN_MAX 0.903226 0.903226 0.903226
0.126556 0.120911 0.098083
0.133484 0.119202 0.097290
0.154999 0.113312 0.094513
0.208344 0.100372 0.087524
0.324371 0.088776 0.075378
0.513824 0.084839 0.070831
0.726044 0.090881 0.074127
0.883606 0.099487 0.080841
0.124847 0.125031 0.096497
0.132629 0.123505 0.095123
0.155060 0.118469 0.091431
0.212158 0.110352 0.083527
0.335724 0.101562 0.072479
0.531097 0.104034 0.070831
0.739349 0.116943 0.076355
0.888641 0.133575 0.083801
0.119110 0.136353 0.091156
0.129089 0.134949 0.088989
0.151794 0.134094 0.085327
0.213959 0.131409 0.077118
0.350311 0.131989 0.070831
0.552765 0.147491 0.072662
0.756500 0.176636 0.081482
0.895905 0.216949 0.090271
0.106903 0.174896 0.078888
0.119385 0.178741 0.076233
0.147888 0.181976 0.073059
0.220001 0.187286 0.070831
0.376373 0.211365 0.071777
0.587006 0.255981 0.080627
0.780762 0.317322 0.092621
0.905334 0.367279 0.100769
0.105804 0.281647 0.070831
0.126801 0.296631 0.070831
0.170258 0.314667 0.071991
0.267334 0.340485 0.075592
0.426727 0.379120 0.083221
0.633087 0.446350 0.095703
0.804657 0.501038 0.108704
0.914062 0.546967 0.124451
0.140991 0.509857 0.082489
0.172577 0.531097 0.084991
0.232666 0.554871 0.088745
0.347015 0.583954 0.094879
0.504150 0.613831 0.101898
0.671417 0.642456 0.118011
0.825653 0.684204 0.137726
0.922424 0.719513 0.152649
0.183746 0.745636 0.101288
0.221313 0.756836 0.103882
0.290680 0.769226 0.109467
0.409637 0.783875 0.119629
0.562439 0.800232 0.133972
0.716614 0.816620 0.149872
0.843781 0.831360 0.163818
0.929535 0.850189 0.176697
0.205841 0.895538 0.125549
0.250305 0.899048 0.128479
0.330841 0.903290 0.134247
0.457947 0.908661 0.144531
0.609161 0.914703 0.157806
0.752228 0.920624 0.170807
0.870361 0.929504 0.192200
0.940704 0.936035 0.207092
0.126343 0.120483 0.103180
0.135864 0.117523 0.105957
0.161072 0.110229 0.105011
0.223206 0.097900 0.098785
0.350098 0.086823 0.087952
0.544098 0.085327 0.087799
0.746613 0.092285 0.095978
0.889984 0.100494 0.107269
0.123962 0.124817 0.103638
0.134186 0.123199 0.104156
0.160553 0.116547 0.102112
0.227356 0.110016 0.094971
0.363586 0.103027 0.086517
0.562286 0.108643 0.089722
0.760071 0.123108 0.100922
0.895172 0.141907 0.113495
0.117737 0.136780 0.100067
0.129517 0.139374 0.098969
0.156799 0.138092 0.095642
0.230682 0.135773 0.088776
0.381378 0.141327 0.087799
0.586182 0.162811 0.095367
0.777893 0.197449 0.110565
0.902679 0.239349 0.125031
0.105286 0.179962 0.088409
0.120361 0.190948 0.086609
0.156708 0.196350 0.085175
0.243683 0.205811 0.086456
0.413727 0.238647 0.093231
0.623047 0.291962 0.109528
0.801758 0.353699 0.127808
0.911591 0.399506 0.142487
0.107727 0.295990 0.083923
0.135834 0.328461 0.087921
0.189453 0.350006 0.091949
0.301697 0.381439 0.099548
0.468445 0.423798 0.111908
0.666321 0.487274 0.130249
0.823059 0.537750 0.153229
0.919312 0.579834 0.176880
0.145294 0.529205 0.102356
0.185913 0.568237 0.110596
0.256622 0.592194 0.117401
0.381165 0.620026 0.126892
0.539307 0.646973 0.141144
0.700317 0.674194 0.162201
0.842194 0.713348 0.188873
0.926025 0.739868 0.213501
0.185822 0.755981 0.127563
0.230682 0.776642 0.137451
0.310669 0.788910 0.146942
0.439484 0.803345 0.161987
0.594299 0.818909 0.181335
0.742035 0.834015 0.201630
0.856781 0.845520 0.220398
0.933624 0.861969 0.250763
0.207001 0.898590 0.158875
0.258087 0.904816 0.167816
0.349548 0.909088 0.177795
0.485901 0.914490 0.193268
0.636475 0.919647 0.212952
0.770569 0.924561 0.234406
0.880219 0.933441 0.266724
0.943634 0.939240 0.290985
0.125488 0.118774 0.119202
0.136047 0.114777 0.126556
0.166870 0.105164 0.131836
0.238678 0.094543 0.127197
0.377960 0.085114 0.120605
0.575256 0.086456 0.129547
0.767334 0.094482 0.150055
0.896667 0.103271 0.173706
0.122589 0.123596 0.122192
0.133972 0.121094 0.125854
0.165985 0.116333 0.129547
0.243805 0.109161 0.124603
0.393799 0.106110 0.124512
0.594604 0.114594 0.137512
0.781006 0.130920 0.161987
0.901947 0.153320 0.188019
0.115692 0.137360 0.120605
0.128784 0.140594 0.122833
0.162048 0.141632 0.122589
0.250671 0.141724 0.120514
0.415649 0.154083 0.129333
0.620911 0.182007 0.151672
0.799377 0.224579 0.182281
0.909058 0.267548 0.213043
0.103577 0.184875 0.110077
0.121429 0.197388 0.112823
0.169342 0.215546 0.120026
0.272156 0.229523 0.124939
0.454742 0.271973 0.146393
0.659454 0.333710 0.179108
0.821686 0.391235 0.211914
0.916260 0.434235 0.247620
0.110504 0.311768 0.112335
0.142181 0.346924 0.123871
0.213531 0.390930 0.140656
0.340302 0.427338 0.157013
0.511261 0.470032 0.178955
0.697540 0.526642 0.212616
0.839020 0.573395 0.253021
0.923187 0.609528 0.292511
0.150665 0.549347 0.144012
0.194733 0.588318 0.161926
0.282990 0.629211 0.184387
0.415344 0.654175 0.201630
0.575012 0.680084 0.227966
0.728912 0.705811 0.256866
0.853760 0.735718 0.298279
0.929474 0.759277 0.335724
0.188599 0.766632 0.183807
0.236847 0.787048 0.204407
0.332825 0.808411 0.230927
0.471069 0.822418 0.254303
0.624847 0.835266 0.282562
0.761536 0.846313 0.311035
0.866150 0.855804 0.336182
0.938812 0.875427 0.385132
0.208923 0.901886 0.226837
0.263672 0.908081 0.247131
0.372131 0.914459 0.275360
0.515259 0.918762 0.301147
0.661011 0.923340 0.328461
0.792877 0.930237 0.363953
0.891266 0.938232 0.399994
0.946960 0.942993 0.431030
0.123444 0.114777 0.157898
0.134735 0.109192 0.175812
0.167267 0.100037 0.191650
0.254517 0.089966 0.198761
0.408600 0.084839 0.205811
0.608246 0.088898 0.230499
0.788757 0.098206 0.269745
0.903076 0.110992 0.309723
0.119812 0.119324 0.166779
0.132111 0.115997 0.177307
0.166443 0.113678 0.191437
0.262115 0.107788 0.199738
0.427368 0.110046 0.215912
0.628967 0.123077 0.248077
0.802460 0.143250 0.292145
0.907501 0.174255 0.335144
0.112396 0.137115 0.170135
0.126648 0.139984 0.179047
0.163879 0.141602 0.185822
0.275604 0.151855 0.205841
0.454590 0.171814 0.231873
0.657654 0.206940 0.276825
0.819153 0.258667 0.327209
0.914124 0.303070 0.371246
0.102051 0.189362 0.163727
0.123718 0.205750 0.177856
0.178741 0.226715 0.196136
0.307343 0.260406 0.223175
0.500244 0.313965 0.268127
0.695770 0.378876 0.322021
0.835815 0.428802 0.368896
0.920715 0.471222 0.412048
0.115295 0.330475 0.181458
0.151428 0.369202 0.206512
0.230804 0.417236 0.239288
0.383636 0.476929 0.284668
0.554016 0.516144 0.317841
0.726013 0.565338 0.367249
0.850861 0.605530 0.414551
0.927277 0.639984 0.456726
0.158142 0.571503 0.236267
0.205719 0.609955 0.268585
0.299225 0.649109 0.305817
0.451324 0.688293 0.350159
0.609375 0.710571 0.382263
0.750885 0.730377 0.414124
0.864349 0.756805 0.458344
0.933075 0.778717 0.496460
0.192780 0.778015 0.295471
0.244690 0.798157 0.328003
0.346924 0.819122 0.366272
0.503601 0.836456 0.410614
0.651917 0.847382 0.440674
0.779785 0.857513 0.468872
0.880615 0.871643 0.503387
0.944244 0.889069 0.548096
0.212250 0.905548 0.349182
0.270935 0.911713 0.380493
0.388367 0.917053 0.417511
0.546051 0.922943 0.459595
0.686462 0.927368 0.487000
0.816498 0.936523 0.527679
0.901917 0.943054 0.561493
0.949158 0.946198 0.589355
0.118713 0.105377 0.246155
0.130707 0.100281 0.274658
0.165802 0.094788 0.299194
0.262146 0.086243 0.316040
0.443390 0.085571 0.353699
0.642975 0.093018 0.396698
0.808044 0.104370 0.447205
0.907898 0.120026 0.488708
0.114594 0.112366 0.260986
0.127991 0.111694 0.277527
0.166016 0.109528 0.300781
0.273773 0.107788 0.325256
0.465424 0.117157 0.371704
0.664703 0.134430 0.422974
0.818817 0.167114 0.474030
0.912689 0.199249 0.517426
0.107422 0.134460 0.268188
0.123810 0.137909 0.283905
0.167419 0.141937 0.299408
0.292480 0.159058 0.339355
0.498169 0.195953 0.402466
0.692444 0.244965 0.461823
0.833923 0.297913 0.513123
0.918732 0.338531 0.552094
0.102386 0.196320 0.272095
0.128357 0.215637 0.298004
0.191895 0.241913 0.327423
0.331512 0.282684 0.372223
0.547546 0.363647 0.454956
0.722717 0.420746 0.508972
0.848389 0.467346 0.550598
0.925079 0.508667 0.587799
0.122894 0.353424 0.309479
0.163849 0.395813 0.347717
0.251678 0.446869 0.394531
0.409607 0.505554 0.451996
0.591522 0.556702 0.504639
0.748108 0.599182 0.548645
0.862274 0.637177 0.588959
0.931183 0.669525 0.623535
0.167389 0.595184 0.386169
0.217987 0.631989 0.427704
0.315552 0.668457 0.471558
0.471588 0.704407 0.517639
0.638916 0.734436 0.560699
0.770844 0.752686 0.587006
0.874481 0.776978 0.622955
0.938568 0.803040 0.659515
0.198090 0.789948 0.453491
0.253723 0.809540 0.490906
0.363556 0.828125 0.530426
0.522064 0.843811 0.569611
0.678680 0.859131 0.608276
0.801178 0.870972 0.634918
0.894562 0.886597 0.663971
0.948822 0.900696 0.699280
0.216431 0.909485 0.508240
0.281097 0.914856 0.541168
0.405579 0.919800 0.574524
0.563507 0.925537 0.610413
0.721802 0.934296 0.653198
0.837738 0.942291 0.682678
0.909363 0.946747 0.709351
0.950714 0.948669 0.729340
0.111633 0.096832 0.391846
0.125275 0.093811 0.424805
0.164673 0.089111 0.453949
0.273895 0.084839 0.484619
0.464783 0.087830 0.532318
0.674988 0.098114 0.594177
0.821777 0.114288 0.633270
0.912415 0.128357 0.665558
0.107971 0.106598 0.408966
0.123444 0.106415 0.429016
0.167572 0.105988 0.459229
0.289001 0.109528 0.499542
0.488770 0.123596 0.554413
0.693329 0.154480 0.616913
0.832916 0.193390 0.657837
0.917328 0.224548 0.690002
0.102936 0.131378 0.420227
0.123199 0.137146 0.442169
0.174927 0.146423 0.469818
0.313019 0.169769 0.518616
0.524567 0.213501 0.588654
0.719818 0.287231 0.652130
0.846619 0.334564 0.688232
0.923035 0.374939 0.714417
0.105499 0.206085 0.440582
0.136200 0.229767 0.470734
0.208862 0.261444 0.509125
0.358398 0.308716 0.559753
0.571472 0.391693 0.635590
0.745575 0.460144 0.684998
0.860046 0.505249 0.714325
0.929169 0.544952 0.739777
0.133057 0.380798 0.492493
0.178833 0.425934 0.534668
0.273834 0.476898 0.582428
0.433929 0.531860 0.634491
0.609406 0.576538 0.670502
0.768860 0.631622 0.713318
0.872772 0.667084 0.740570
0.934906 0.697327 0.763458
0.176788 0.618408 0.572113
0.229279 0.652374 0.610016
0.332306 0.687622 0.647247
0.491364 0.718445 0.679932
0.654907 0.747375 0.710938
0.789612 0.773499 0.738922
0.885742 0.798767 0.764984
0.944519 0.827454 0.791077
0.203735 0.801788 0.628510
0.263153 0.820679 0.660919
0.381226 0.835754 0.688690
0.540375 0.850922 0.716888
0.693024 0.865417 0.743561
0.825470 0.886169 0.775299
0.905884 0.898865 0.793793
0.951477 0.909332 0.816986
0.220917 0.913361 0.672821
0.292786 0.917511 0.695618
0.422943 0.922424 0.719757
0.580658 0.927948 0.744781
0.742432 0.938660 0.777618
0.854553 0.946747 0.806671
0.914520 0.949280 0.822632
0.952240 0.950806 0.835724
0.105072 0.090027 0.590790
0.121338 0.088074 0.619659
0.167389 0.085388 0.646545
0.289154 0.084900 0.678436
0.487213 0.090851 0.717468
0.689484 0.101868 0.757538
0.834137 0.122528 0.788269
0.916351 0.134674 0.806641
0.102997 0.101654 0.606781
0.121521 0.102753 0.625336
0.173920 0.106110 0.656189
0.307007 0.113281 0.689819
0.512543 0.130951 0.734741
0.708282 0.171387 0.773529
0.845459 0.219055 0.805176
0.921265 0.248352 0.822418
0.102081 0.131989 0.622162
0.126526 0.141327 0.644928
0.186188 0.153168 0.667419
0.335724 0.182922 0.709106
0.548340 0.237030 0.758789
0.733734 0.310303 0.797028
0.858002 0.370667 0.821930
0.927002 0.410858 0.836151
0.111328 0.220276 0.646271
0.146759 0.247681 0.673218
0.228210 0.284119 0.704468
0.385132 0.337341 0.743042
0.591370 0.416138 0.788849
0.757324 0.481354 0.815216
0.870697 0.541443 0.837463
0.932892 0.579437 0.850952
0.144318 0.410492 0.695221
0.193878 0.455383 0.726196
0.294800 0.505035 0.759521
0.454865 0.552979 0.788788
0.626312 0.595398 0.808075
0.779541 0.648590 0.832001
0.882385 0.694855 0.852081
0.938263 0.722961 0.863892
0.184235 0.638947 0.751862
0.239441 0.671387 0.774719
0.349579 0.703217 0.795959
0.510193 0.731598 0.813782
0.669891 0.759338 0.831268
0.799255 0.784180 0.846527
0.898712 0.823029 0.868317
0.949310 0.847595 0.881561
0.208923 0.812927 0.785950
0.273712 0.829193 0.803986
0.398438 0.842743 0.818787
0.557648 0.857361 0.834564
0.709229 0.872681 0.850433
0.838196 0.894104 0.868896
0.914368 0.908386 0.884491
0.953003 0.915771 0.895691
0.224701 0.916260 0.810791
0.304260 0.919952 0.822540
0.439728 0.924805 0.836029
0.603058 0.931641 0.851959
0.759766 0.942108 0.870209
0.860443 0.948517 0.886536
0.919434 0.951385 0.899139
0.953735 0.952637 0.906158
0.102051 0.085968 0.807159
0.121429 0.085175 0.818970
0.174042 0.084839 0.830872
0.305786 0.086090 0.842834
0.508545 0.093689 0.860199
0.702332 0.108002 0.875763
0.840393 0.127533 0.888489
0.919678 0.138641 0.897552
0.101959 0.100098 0.814117
0.123688 0.102997 0.822571
0.182892 0.107788 0.834930
0.325745 0.117859 0.848572
0.533112 0.139374 0.867340
0.721527 0.186493 0.884033
0.851624 0.233032 0.897125
0.924774 0.272095 0.905151
0.104095 0.136536 0.822571
0.131927 0.147217 0.830872
0.198975 0.162201 0.840057
0.358002 0.196777 0.858734
0.568817 0.260193 0.879578
0.745453 0.329895 0.895752
0.863708 0.389771 0.904663
0.930603 0.445862 0.912140
0.118134 0.236938 0.834320
0.157776 0.267303 0.845612
0.246887 0.307129 0.859344
0.409424 0.363647 0.876770
0.608215 0.436768 0.893768
0.768005 0.501160 0.903564
0.875885 0.559784 0.912170
0.936249 0.611755 0.919281
0.154083 0.438110 0.859406
0.206818 0.481934 0.871826
0.312378 0.528992 0.885254
0.473907 0.571167 0.894379
0.641724 0.612549 0.902191
0.789307 0.664062 0.911469
0.887146 0.708618 0.919128
0.942902 0.752716 0.926544
0.189728 0.657227 0.883484
0.248322 0.688690 0.891449
0.366364 0.715790 0.898041
0.527679 0.743439 0.905151
0.683685 0.770081 0.912079
0.808044 0.793823 0.918091
0.905182 0.834991 0.927917
0.952759 0.863647 0.935272
0.213013 0.823029 0.897003
0.284332 0.835663 0.901947
0.414673 0.848938 0.907562
0.573792 0.863068 0.913727
0.727600 0.880859 0.921387
0.848389 0.900452 0.929260
0.916992 0.912079 0.935944
0.954498 0.921387 0.942047
0.227356 0.918365 0.905212
0.314972 0.922028 0.909271
0.455536 0.926788 0.914337
0.624878 0.935150 0.921936
0.773865 0.944763 0.929962
0.865387 0.949799 0.937134
0.921814 0.952393 0.942780
0.955231 0.954346 0.947052
