Drink it in!/Striped Purple - Horchata.cube
#Created by: Adobe Photoshop Export Color Lookup Plugin
#Copyright: (C) Copyright 2018 Striped Purple - Austin Barrett
TITLE "Horchata"
#LUT size
LUT_3D_SIZE 8
#data domain
#LUT data points
DOMAIN_MIN 0.000000 0.000000 0.000000
DOMAIN_MAX 0.903226 0.903226 0.903226
0.101959 0.101959 0.101959
0.108917 0.101959 0.101959
0.131592 0.101959 0.101959
0.191681 0.101959 0.101959
0.321838 0.101959 0.101959
0.511078 0.101959 0.101959
0.714325 0.101959 0.101959
0.872711 0.101959 0.101959
0.101959 0.108917 0.101959
0.110352 0.110352 0.101959
0.135162 0.113373 0.101959
0.200470 0.116486 0.101959
0.335480 0.119751 0.101959
0.525360 0.123199 0.101959
0.724121 0.126831 0.101959
0.875885 0.130737 0.101959
0.101959 0.131592 0.101959
0.113373 0.135162 0.101959
0.138977 0.138977 0.101959
0.209656 0.147308 0.101959
0.349396 0.156708 0.101959
0.539581 0.167389 0.101959
0.733795 0.179352 0.101959
0.879028 0.192657 0.101959
0.101959 0.191681 0.101959
0.116486 0.200470 0.101959
0.147308 0.209656 0.101959
0.219299 0.219299 0.101959
0.363586 0.239838 0.101959
0.553833 0.261841 0.101959
0.743317 0.285217 0.101959
0.882080 0.309814 0.101959
0.101959 0.321838 0.101959
0.119751 0.335480 0.101959
0.156708 0.349396 0.101959
0.239838 0.363586 0.101959
0.377960 0.377960 0.101959
0.568054 0.407318 0.101959
0.752747 0.437378 0.101959
0.885101 0.467926 0.101959
0.101959 0.511078 0.101959
0.123199 0.525360 0.101959
0.167389 0.539581 0.101959
0.261841 0.553833 0.101959
0.407318 0.568054 0.101959
0.582245 0.582245 0.101959
0.762054 0.610413 0.101959
0.888062 0.638245 0.101959
0.101959 0.714325 0.101959
0.126831 0.724121 0.101959
0.179352 0.733795 0.101959
0.285217 0.743317 0.101959
0.437378 0.752747 0.101959
0.610413 0.762054 0.101959
0.771149 0.771149 0.101959
0.890167 0.786774 0.101959
0.101959 0.872711 0.101959
0.130737 0.875885 0.101959
0.192657 0.879028 0.101959
0.309814 0.882080 0.101959
0.467926 0.885101 0.101959
0.638245 0.888062 0.101959
0.786774 0.890167 0.101959
0.891724 0.891724 0.101959
0.101959 0.101959 0.107452
0.111877 0.101959 0.111877
0.138977 0.101959 0.114899
0.209656 0.101959 0.118103
0.349396 0.101959 0.121429
0.539581 0.101959 0.125000
0.733795 0.101959 0.128754
0.879028 0.101959 0.132782
0.101959 0.110352 0.110352
0.113373 0.113373 0.113373
0.143005 0.116486 0.116486
0.219330 0.119751 0.119751
0.363586 0.123199 0.123199
0.553833 0.126831 0.126831
0.743347 0.130737 0.130737
0.882080 0.134888 0.134888
0.101959 0.135162 0.113373
0.116486 0.143005 0.116486
0.147308 0.147308 0.118103
0.229401 0.156708 0.121429
0.377960 0.167389 0.125000
0.568054 0.179382 0.128754
0.752777 0.192657 0.132782
0.885101 0.207123 0.137054
0.101959 0.200470 0.116486
0.119751 0.219330 0.119751
0.156708 0.229401 0.121429
0.239838 0.239838 0.123199
0.392578 0.261871 0.126831
0.582245 0.285217 0.130737
0.762054 0.309845 0.134888
0.888062 0.335541 0.139343
0.101959 0.335480 0.119751
0.123199 0.363586 0.123199
0.167389 0.377960 0.125000
0.261871 0.392578 0.126831
0.407349 0.407349 0.128754
0.596344 0.437408 0.132782
0.771179 0.467926 0.137054
0.890167 0.496979 0.143158
0.101959 0.525360 0.123199
0.126831 0.553833 0.126831
0.179382 0.568054 0.128754
0.285217 0.582245 0.130737
0.437408 0.596344 0.132782
0.610413 0.610413 0.134888
0.780121 0.638245 0.139343
0.891724 0.658844 0.148163
0.101959 0.724121 0.126831
0.130737 0.743347 0.130737
0.192657 0.752777 0.132782
0.309845 0.762054 0.134888
0.467926 0.771179 0.137054
0.638245 0.780121 0.139343
0.786774 0.786774 0.143158
0.893280 0.797211 0.153534
0.101959 0.875885 0.130737
0.134888 0.882080 0.134888
0.207123 0.885101 0.137054
0.335541 0.888062 0.139343
0.496979 0.890167 0.143158
0.658844 0.891724 0.148163
0.797211 0.893280 0.153534
0.894836 0.894836 0.159332
0.101959 0.101959 0.125031
0.113373 0.101959 0.135162
0.147308 0.101959 0.147308
0.229370 0.101959 0.156708
0.377960 0.101959 0.167389
0.568054 0.101959 0.179352
0.752747 0.101959 0.192657
0.885101 0.101959 0.207092
0.101959 0.111877 0.131592
0.114899 0.114899 0.138977
0.151855 0.119751 0.151855
0.239838 0.123199 0.161896
0.392578 0.126831 0.173218
0.582245 0.130737 0.185852
0.762054 0.134888 0.199738
0.888062 0.139343 0.214752
0.101959 0.138977 0.138977
0.118103 0.147308 0.147308
0.156708 0.156708 0.156708
0.250671 0.167419 0.167419
0.407349 0.179382 0.179382
0.596405 0.192657 0.192657
0.771179 0.207123 0.207123
0.890167 0.224243 0.224243
0.101959 0.209656 0.147308
0.121429 0.229401 0.156708
0.167419 0.250671 0.167419
0.261871 0.261871 0.173218
0.422302 0.285248 0.185852
0.610443 0.309845 0.199738
0.780121 0.335571 0.214783
0.891724 0.362030 0.235077
0.101959 0.349396 0.156708
0.125000 0.377960 0.167389
0.179382 0.407349 0.179382
0.285248 0.422302 0.185852
0.437408 0.437408 0.192657
0.624420 0.467957 0.207123
0.786774 0.496979 0.224243
0.893280 0.522125 0.246307
0.101959 0.539581 0.167389
0.128754 0.568054 0.179382
0.192657 0.596405 0.192657
0.309845 0.610443 0.199738
0.467957 0.624420 0.207123
0.638275 0.638275 0.214783
0.792053 0.658875 0.235077
0.894836 0.677551 0.257965
0.101959 0.733795 0.179352
0.132782 0.752777 0.192657
0.207123 0.771179 0.207123
0.335571 0.780121 0.214783
0.496979 0.786774 0.224243
0.658875 0.792053 0.235077
0.797241 0.797241 0.246307
0.896362 0.807434 0.269989
0.101959 0.879028 0.192657
0.137054 0.885101 0.207123
0.224243 0.890167 0.224243
0.362030 0.891724 0.235077
0.522125 0.893280 0.246307
0.677551 0.894836 0.257965
0.807434 0.896362 0.269989
0.897858 0.897858 0.282379
0.101959 0.101959 0.168213
0.114899 0.101959 0.191681
0.151855 0.101959 0.219299
0.250671 0.101959 0.250671
0.407318 0.101959 0.273346
0.596344 0.101959 0.297363
0.771149 0.101959 0.322540
0.890167 0.101959 0.348663
0.101959 0.113373 0.183380
0.116486 0.116486 0.200470
0.156708 0.121429 0.229401
0.261841 0.126831 0.261841
0.422272 0.130737 0.285217
0.610413 0.134888 0.309845
0.780121 0.139343 0.335541
0.891724 0.148163 0.362030
0.101959 0.143005 0.200470
0.119751 0.151855 0.219330
0.161896 0.161896 0.239838
0.273376 0.179382 0.273376
0.437408 0.192657 0.297394
0.624420 0.207123 0.322601
0.786774 0.224243 0.348694
0.893280 0.246307 0.375519
0.101959 0.219299 0.219299
0.123199 0.239838 0.239838
0.173218 0.261871 0.261871
0.285248 0.285248 0.285248
0.452637 0.309875 0.309875
0.638275 0.335571 0.335571
0.792053 0.362061 0.362061
0.894836 0.389282 0.389282
0.101959 0.363586 0.239838
0.126831 0.392578 0.261871
0.185852 0.422302 0.285248
0.309875 0.452637 0.309875
0.467957 0.467957 0.322601
0.649445 0.497009 0.348724
0.797241 0.522125 0.375549
0.896362 0.547333 0.403137
0.101959 0.553833 0.261841
0.130737 0.582245 0.285217
0.199738 0.610443 0.309845
0.335571 0.638275 0.335571
0.497009 0.649445 0.348724
0.658875 0.658875 0.362061
0.802368 0.677582 0.389282
0.897858 0.695953 0.417175
0.101959 0.743317 0.285217
0.134888 0.762054 0.309845
0.214783 0.780121 0.335571
0.362061 0.792053 0.362061
0.522125 0.797241 0.375549
0.677582 0.802368 0.389282
0.807434 0.807434 0.403137
0.899353 0.817352 0.431305
0.101959 0.882080 0.309814
0.139343 0.888062 0.335541
0.235077 0.891724 0.362030
0.389282 0.894836 0.389282
0.547333 0.896362 0.403137
0.695953 0.897858 0.417175
0.817352 0.899353 0.431305
0.900879 0.900879 0.445557
0.101959 0.101959 0.270264
0.116486 0.101959 0.308472
0.156708 0.101959 0.349396
0.261841 0.101959 0.392548
0.437378 0.101959 0.437378
0.624390 0.101959 0.467926
0.786774 0.101959 0.496918
0.893280 0.101959 0.522064
0.101959 0.114899 0.295410
0.118103 0.118103 0.321838
0.161896 0.123199 0.363586
0.273376 0.128754 0.407349
0.452606 0.134888 0.452606
0.638245 0.139343 0.483307
0.792053 0.148163 0.509521
0.894836 0.159332 0.534698
0.101959 0.147308 0.321838
0.121429 0.156708 0.349426
0.167419 0.167419 0.377991
0.285248 0.185852 0.422302
0.467957 0.207123 0.467957
0.649445 0.224243 0.496979
0.797241 0.246307 0.522125
0.896362 0.269989 0.547302
0.101959 0.229370 0.349396
0.125000 0.250671 0.377960
0.179382 0.273376 0.407349
0.297424 0.297424 0.437439
0.483337 0.335571 0.483337
0.658875 0.362061 0.509552
0.802368 0.389282 0.534729
0.897858 0.417175 0.559906
0.101959 0.377960 0.377960
0.128754 0.407349 0.407349
0.192657 0.437408 0.437408
0.322601 0.467957 0.467957
0.497009 0.497009 0.497009
0.668274 0.522156 0.522156
0.807465 0.547333 0.547333
0.899353 0.572449 0.572449
0.101959 0.568054 0.407318
0.132782 0.596344 0.437408
0.207123 0.624420 0.467957
0.348724 0.649445 0.497009
0.522156 0.668274 0.522156
0.677582 0.677582 0.534729
0.812408 0.695953 0.559906
0.900879 0.713989 0.584961
0.101959 0.752747 0.437378
0.137054 0.771179 0.467926
0.224243 0.786774 0.496979
0.375549 0.797241 0.522125
0.547333 0.807465 0.547333
0.695953 0.812408 0.559906
0.817352 0.817352 0.572449
0.902344 0.826965 0.597443
0.101959 0.885101 0.467926
0.143158 0.890167 0.496979
0.246307 0.893280 0.522125
0.403137 0.896362 0.547333
0.572449 0.899353 0.572449
0.713989 0.900879 0.584961
0.826965 0.902344 0.597443
0.903839 0.903839 0.609924
0.101959 0.101959 0.440552
0.118103 0.101959 0.482697
0.161896 0.101959 0.525360
0.273346 0.101959 0.568054
0.452576 0.101959 0.610413
0.649384 0.101959 0.649384
0.797211 0.101959 0.668213
0.896332 0.101959 0.686768
0.101959 0.116486 0.468567
0.119751 0.119751 0.496887
0.167389 0.125000 0.539581
0.285217 0.130737 0.582245
0.467926 0.137054 0.624420
0.658844 0.148163 0.658844
0.802338 0.159332 0.677551
0.897858 0.172180 0.695892
0.101959 0.151855 0.496887
0.123199 0.161896 0.525360
0.173218 0.173218 0.553833
0.297394 0.192657 0.596405
0.483337 0.214783 0.638275
0.668243 0.246307 0.668243
0.807434 0.269989 0.686768
0.899353 0.295135 0.705017
0.101959 0.239838 0.525360
0.126831 0.261841 0.553833
0.185852 0.285248 0.582275
0.309875 0.309875 0.610443
0.497009 0.348724 0.649445
0.677582 0.389282 0.677582
0.812408 0.417175 0.695953
0.900879 0.445587 0.713989
0.101959 0.392548 0.553833
0.130737 0.422302 0.582275
0.199738 0.452606 0.610443
0.335571 0.483337 0.638275
0.509552 0.509552 0.658875
0.686798 0.547333 0.686798
0.817352 0.572449 0.705017
0.902344 0.597443 0.722870
0.101959 0.582245 0.582245
0.134888 0.610413 0.610413
0.214783 0.638275 0.638275
0.362061 0.658875 0.658875
0.534729 0.677582 0.677582
0.695984 0.695984 0.695984
0.822235 0.713989 0.713989
0.903839 0.731659 0.731659
0.101959 0.762054 0.610413
0.139343 0.780121 0.638245
0.235077 0.792053 0.658875
0.389282 0.802368 0.677582
0.559906 0.812408 0.695953
0.713989 0.822235 0.713989
0.826965 0.826965 0.722870
0.905304 0.836334 0.740356
0.101959 0.888062 0.638245
0.148163 0.891724 0.658844
0.257965 0.894836 0.677551
0.417175 0.897858 0.695953
0.584961 0.900879 0.713989
0.731659 0.903839 0.731659
0.836334 0.905304 0.740356
0.906769 0.906769 0.748901
0.101959 0.101959 0.653229
0.119751 0.101959 0.684204
0.167389 0.101959 0.714325
0.285217 0.101959 0.743317
0.467926 0.101959 0.771149
0.658844 0.101959 0.792053
0.807434 0.101959 0.807434
0.899353 0.101959 0.817322
0.101959 0.118103 0.673920
0.121429 0.121429 0.694336
0.173218 0.126831 0.724121
0.297394 0.132782 0.752777
0.483307 0.139343 0.780121
0.668213 0.153534 0.797211
0.812408 0.172180 0.812408
0.900879 0.186829 0.822205
0.101959 0.156708 0.694336
0.125000 0.167389 0.714325
0.179382 0.179382 0.733826
0.309845 0.199738 0.762054
0.496979 0.224243 0.786774
0.677551 0.257965 0.802338
0.817322 0.295135 0.817322
0.902344 0.321564 0.826965
0.101959 0.250671 0.714325
0.128754 0.273376 0.733795
0.192657 0.297394 0.752777
0.322601 0.322601 0.771179
0.509552 0.362061 0.792053
0.686798 0.403137 0.807434
0.822205 0.445587 0.822205
0.903839 0.474396 0.831696
0.101959 0.407318 0.733795
0.132782 0.437408 0.752777
0.207123 0.467957 0.771179
0.348724 0.497009 0.786804
0.522156 0.522156 0.797241
0.695953 0.559906 0.812408
0.826965 0.597443 0.826965
0.905304 0.622253 0.836334
0.101959 0.596344 0.752747
0.137054 0.624420 0.771179
0.224243 0.649445 0.786774
0.375549 0.668243 0.797241
0.547333 0.686798 0.807465
0.705048 0.705048 0.817352
0.831696 0.731659 0.831696
0.906769 0.748901 0.840881
0.101959 0.771149 0.771149
0.143158 0.786774 0.786774
0.246307 0.797241 0.797241
0.403137 0.807434 0.807434
0.572449 0.817352 0.817352
0.722870 0.826965 0.826965
0.836334 0.836334 0.836334
0.908203 0.845367 0.845367
0.101959 0.890167 0.786774
0.153534 0.893280 0.797211
0.269989 0.896362 0.807434
0.431305 0.899353 0.817352
0.597443 0.902344 0.826965
0.740356 0.905304 0.836334
0.845367 0.908203 0.845367
0.909637 0.909637 0.849731
0.101959 0.101959 0.848816
0.121429 0.101959 0.859436
0.173218 0.101959 0.869476
0.297363 0.101959 0.878998
0.483307 0.101959 0.888062
0.668213 0.101959 0.893280
0.812378 0.101959 0.897858
0.902344 0.101959 0.902344
0.101959 0.119751 0.855957
0.123199 0.123199 0.862823
0.179382 0.128754 0.872711
0.309845 0.134888 0.882080
0.496979 0.143158 0.890167
0.677551 0.159332 0.894836
0.817322 0.179291 0.899353
0.903839 0.203094 0.903839
0.101959 0.161896 0.862823
0.126831 0.173218 0.869476
0.185852 0.185852 0.875885
0.322571 0.207123 0.885101
0.509521 0.235077 0.891724
0.686768 0.269989 0.896362
0.822205 0.308197 0.900879
0.905304 0.349152 0.905304
0.101959 0.261841 0.869476
0.130737 0.285217 0.875885
0.199738 0.309845 0.882111
0.335571 0.335571 0.888062
0.522156 0.375549 0.893280
0.695953 0.417175 0.897858
0.826965 0.459961 0.902344
0.906769 0.503510 0.906769
0.101959 0.422272 0.875885
0.134888 0.452606 0.882080
0.214783 0.483337 0.888062
0.362061 0.509552 0.891724
0.534729 0.534729 0.894836
0.705017 0.572449 0.899353
0.831696 0.609924 0.903839
0.908203 0.646729 0.908203
0.101959 0.610413 0.882080
0.139343 0.638245 0.888062
0.235077 0.658875 0.891724
0.389282 0.677582 0.894836
0.559906 0.695953 0.897858
0.713989 0.713989 0.900879
0.836334 0.740356 0.905304
0.909637 0.765656 0.909637
0.101959 0.780121 0.888062
0.148163 0.792053 0.891724
0.257965 0.802338 0.894836
0.417175 0.812408 0.897858
0.584961 0.822235 0.900879
0.731659 0.831696 0.903839
0.840881 0.840881 0.906769
0.911072 0.854034 0.911072
0.101959 0.891724 0.891724
0.159332 0.894836 0.894836
0.282379 0.897858 0.897858
0.445557 0.900879 0.900879
0.609924 0.903839 0.903839
0.748901 0.906769 0.906769
0.849731 0.909637 0.909637
0.912476 0.912476 0.912476
