Drink it in!/Striped Purple - Aricha Blend.cube
#Created by: Adobe Photoshop Export Color Lookup Plugin
#Copyright: (C) Copyright 2018 Striped Purple - Austin Barrett
TITLE "Aricha Blend"
#LUT size
LUT_3D_SIZE 8
#data domain
#LUT data points
DOMAIN_MIN 0.000000 0.000000 0.000000
DOMAIN_MAX 0.903226 0.903226 0.903226
0.082367 0.066772 0.049225
0.088776 0.067139 0.049347
0.110504 0.068420 0.049652
0.172607 0.071808 0.050598
0.322876 0.079041 0.052795
0.540924 0.087524 0.056183
0.751862 0.096344 0.060516
0.896759 0.104584 0.064209
0.083557 0.072388 0.049438
0.091766 0.074066 0.049591
0.116699 0.078156 0.050049
0.186798 0.084991 0.051178
0.347137 0.096252 0.053680
0.562073 0.108917 0.057281
0.765594 0.123169 0.061859
0.901398 0.139282 0.065582
0.087738 0.091705 0.050079
0.099670 0.095734 0.050385
0.126709 0.101074 0.050903
0.206848 0.114166 0.052368
0.376526 0.132812 0.055237
0.589172 0.155701 0.059448
0.782806 0.183960 0.064514
0.907288 0.213013 0.068268
0.098541 0.148834 0.052002
0.115845 0.159271 0.052582
0.156128 0.171692 0.053467
0.246185 0.187866 0.055145
0.418854 0.221588 0.058716
0.627747 0.264587 0.064117
0.802460 0.308807 0.069153
0.911285 0.338348 0.071808
0.134033 0.289703 0.056641
0.161041 0.307281 0.057526
0.212921 0.327637 0.058899
0.318390 0.353882 0.061432
0.477234 0.385925 0.065338
0.662964 0.432190 0.070251
0.806732 0.458923 0.072266
0.903839 0.472717 0.071655
0.183350 0.516693 0.065002
0.218384 0.534882 0.066132
0.281006 0.553894 0.067688
0.388855 0.573761 0.069977
0.523773 0.589050 0.072021
0.654114 0.592499 0.072052
0.783813 0.596863 0.071625
0.890381 0.605560 0.071625
0.202667 0.729340 0.071899
0.236053 0.738007 0.072144
0.292938 0.745270 0.072296
0.380463 0.749084 0.071960
0.490417 0.746399 0.071625
0.622223 0.738953 0.071625
0.762878 0.738342 0.071625
0.882111 0.754486 0.072998
0.166382 0.873688 0.071625
0.196472 0.875763 0.071625
0.250397 0.875244 0.071625
0.340332 0.871948 0.071625
0.467163 0.868286 0.071625
0.620239 0.868805 0.071808
0.789307 0.881195 0.081512
0.906097 0.897491 0.095062
0.082520 0.066864 0.052246
0.091919 0.067505 0.054871
0.118378 0.069092 0.057007
0.193207 0.073151 0.060089
0.357880 0.080811 0.064850
0.572968 0.089050 0.071167
0.771515 0.097656 0.078796
0.902527 0.106049 0.085815
0.084167 0.073792 0.054108
0.095673 0.077026 0.056091
0.126099 0.081665 0.058472
0.210114 0.089539 0.061920
0.383331 0.101532 0.067169
0.594757 0.114532 0.073914
0.785156 0.128998 0.082062
0.907196 0.145905 0.089294
0.088776 0.095215 0.056610
0.104919 0.103455 0.058929
0.138214 0.109863 0.060608
0.235474 0.125275 0.064575
0.413269 0.145660 0.070404
0.623383 0.171539 0.078430
0.802246 0.203094 0.087311
0.912842 0.230774 0.094696
0.100555 0.158325 0.060791
0.127441 0.179840 0.063873
0.176544 0.194122 0.066132
0.277771 0.211731 0.069366
0.459930 0.250183 0.076721
0.661194 0.296844 0.086182
0.818970 0.336975 0.094757
0.914825 0.361786 0.100342
0.138519 0.306091 0.068329
0.175140 0.341705 0.072449
0.237183 0.364014 0.075592
0.354980 0.392517 0.080322
0.515198 0.423492 0.086487
0.686676 0.463409 0.094574
0.815521 0.482208 0.098541
0.904510 0.493011 0.102539
0.187286 0.533783 0.080536
0.230255 0.567566 0.085266
0.301086 0.585754 0.088593
0.413025 0.603088 0.092621
0.541687 0.612885 0.095459
0.665283 0.612762 0.096252
0.792450 0.615204 0.099609
0.891663 0.622009 0.106354
0.201294 0.738312 0.090668
0.236542 0.755096 0.093872
0.298309 0.761230 0.095337
0.389618 0.763702 0.096252
0.503662 0.758087 0.097900
0.640167 0.753082 0.099609
0.775024 0.754303 0.102539
0.887634 0.770691 0.116852
0.163483 0.876343 0.093109
0.195740 0.880493 0.096252
0.256470 0.879425 0.097900
0.355103 0.876007 0.099609
0.488373 0.872528 0.102539
0.640320 0.873016 0.107788
0.806702 0.890228 0.130157
0.912598 0.903625 0.155945
0.083099 0.067230 0.062164
0.094238 0.068085 0.068298
0.128296 0.070251 0.076233
0.217834 0.075073 0.083923
0.395355 0.083069 0.094788
0.605957 0.091125 0.108490
0.791321 0.099518 0.125061
0.908508 0.108826 0.141479
0.085144 0.075500 0.066315
0.098419 0.079010 0.071045
0.137695 0.085876 0.079895
0.237427 0.094971 0.088531
0.420380 0.107300 0.100433
0.628418 0.121307 0.115662
0.804749 0.136810 0.133423
0.913086 0.154175 0.150635
0.090363 0.099335 0.071777
0.108612 0.108398 0.077515
0.152618 0.120697 0.084778
0.269348 0.138794 0.094849
0.453186 0.161377 0.108246
0.657990 0.190094 0.125946
0.821075 0.224396 0.145172
0.917480 0.251434 0.164215
0.104279 0.168915 0.080048
0.135590 0.192017 0.087585
0.198517 0.218842 0.096985
0.314026 0.239594 0.104492
0.502838 0.282440 0.121185
0.692780 0.330017 0.140839
0.833008 0.363861 0.159058
0.915253 0.382263 0.176758
0.144104 0.323792 0.093475
0.184265 0.360931 0.103485
0.265076 0.403473 0.116272
0.392975 0.432281 0.126251
0.550323 0.459961 0.137695
0.704651 0.490326 0.153809
0.820129 0.501221 0.166626
0.902985 0.506683 0.184814
0.191742 0.551117 0.113861
0.236938 0.584229 0.125732
0.319519 0.616058 0.139557
0.432739 0.629303 0.147644
0.552826 0.633362 0.153412
0.673828 0.628387 0.158936
0.796753 0.627716 0.175537
0.890564 0.637054 0.194580
0.198639 0.746765 0.131531
0.234039 0.762695 0.142212
0.299347 0.775635 0.153168
0.394897 0.774933 0.158936
0.514801 0.766907 0.166626
0.650757 0.762207 0.175537
0.783997 0.765930 0.186432
0.898438 0.795166 0.227844
0.158539 0.878357 0.141144
0.191132 0.881714 0.152740
0.260468 0.881805 0.166626
0.368469 0.877258 0.175537
0.506073 0.874878 0.184814
0.668213 0.880829 0.206573
0.829224 0.900452 0.250885
0.921051 0.911865 0.300598
0.084534 0.068085 0.088165
0.097839 0.069336 0.103607
0.136414 0.071991 0.123322
0.248474 0.078125 0.149170
0.435089 0.085907 0.172485
0.641083 0.094269 0.200348
0.811615 0.102722 0.231293
0.914154 0.113220 0.261078
0.087189 0.077942 0.098419
0.102692 0.081940 0.110229
0.147034 0.089569 0.131744
0.273407 0.102051 0.159851
0.460876 0.114594 0.184784
0.663818 0.129852 0.215057
0.824341 0.148682 0.247345
0.917480 0.168732 0.278046
0.093170 0.104675 0.111298
0.114075 0.114929 0.125366
0.164703 0.128540 0.142212
0.306335 0.154755 0.173218
0.497437 0.181091 0.201385
0.693085 0.214569 0.234680
0.837006 0.248749 0.267944
0.919891 0.275330 0.297974
0.112244 0.181610 0.129181
0.145966 0.205994 0.146423
0.214539 0.234497 0.166687
0.356323 0.272583 0.192841
0.546967 0.319885 0.225220
0.720703 0.362366 0.258911
0.838715 0.385956 0.287170
0.913666 0.398743 0.311157
0.152222 0.344086 0.155151
0.196472 0.382935 0.176453
0.283478 0.426270 0.201721
0.430573 0.471893 0.231995
0.578949 0.493042 0.250122
0.712830 0.509705 0.274628
0.819336 0.512817 0.297882
0.900909 0.518646 0.323456
0.196991 0.569061 0.190369
0.243683 0.600891 0.213684
0.327026 0.630280 0.239105
0.441101 0.650543 0.263123
0.556274 0.647888 0.273499
0.677032 0.636353 0.285553
0.798828 0.639404 0.310547
0.890747 0.654999 0.337036
0.193146 0.754150 0.219116
0.227478 0.769135 0.240143
0.292389 0.780975 0.261719
0.397858 0.778351 0.285553
0.523987 0.771545 0.297882
0.661621 0.771667 0.310547
0.803162 0.786346 0.341217
0.910583 0.823669 0.406006
0.149719 0.878784 0.238983
0.182281 0.881958 0.261688
0.257507 0.880524 0.285553
0.382141 0.878052 0.310547
0.526978 0.878387 0.325653
0.710938 0.895599 0.374756
0.853699 0.910919 0.438049
0.927826 0.919281 0.486084
0.088043 0.070190 0.158630
0.103882 0.071869 0.188812
0.147766 0.074951 0.224091
0.273254 0.081421 0.266693
0.477600 0.089569 0.316956
0.676941 0.098297 0.357971
0.829376 0.109467 0.397552
0.918121 0.117676 0.429657
0.091278 0.081818 0.178864
0.109375 0.086304 0.200867
0.159576 0.094696 0.238281
0.298523 0.107635 0.283386
0.505188 0.123840 0.336243
0.699005 0.140198 0.379028
0.838379 0.165588 0.416168
0.920959 0.184875 0.448425
0.097961 0.112091 0.202515
0.121887 0.123413 0.227234
0.184326 0.138367 0.255310
0.331177 0.165894 0.303314
0.543762 0.204498 0.361237
0.723602 0.243103 0.403717
0.846375 0.275055 0.438293
0.920593 0.295410 0.466919
0.122528 0.196442 0.232849
0.158203 0.221710 0.260834
0.234833 0.252960 0.292969
0.383728 0.293671 0.331696
0.587433 0.357391 0.392761
0.736115 0.389282 0.427765
0.839539 0.402649 0.453461
0.911041 0.412842 0.478302
0.163086 0.367188 0.273407
0.211060 0.407104 0.305878
0.303253 0.449738 0.342224
0.448334 0.491516 0.382080
0.594025 0.516663 0.415955
0.712799 0.522339 0.439514
0.818481 0.522797 0.465271
0.899567 0.532928 0.491394
0.201874 0.586792 0.322052
0.247955 0.616486 0.354492
0.328918 0.642059 0.387054
0.436798 0.655396 0.414764
0.556458 0.652527 0.439514
0.681061 0.644501 0.452332
0.801788 0.654999 0.478302
0.895813 0.680969 0.516998
0.183838 0.760284 0.357208
0.216583 0.774414 0.385773
0.283722 0.781189 0.414185
0.394287 0.777527 0.439484
0.534485 0.778229 0.465271
0.680389 0.785126 0.486603
0.830841 0.818512 0.536469
0.922607 0.846954 0.603760
0.138336 0.878601 0.385468
0.172791 0.880890 0.414185
0.254364 0.879272 0.439484
0.387848 0.878479 0.465271
0.568726 0.888031 0.511505
0.755341 0.907867 0.573456
0.871674 0.919617 0.625641
0.933411 0.925964 0.660095
0.093842 0.073761 0.303741
0.112152 0.075531 0.345520
0.161865 0.078766 0.391205
0.299377 0.084930 0.442291
0.504150 0.093018 0.498352
0.708435 0.102570 0.554199
0.841339 0.114929 0.583984
0.921509 0.121063 0.609955
0.097382 0.087219 0.332123
0.117950 0.091949 0.361511
0.179413 0.100769 0.408691
0.322845 0.113190 0.461029
0.531982 0.130615 0.519043
0.725586 0.159058 0.570709
0.849335 0.183105 0.600189
0.923370 0.200256 0.625336
0.106903 0.121277 0.363739
0.138153 0.133484 0.395142
0.203796 0.148651 0.428772
0.358612 0.178802 0.484009
0.569916 0.221222 0.544830
0.744324 0.272888 0.591125
0.852600 0.297272 0.616730
0.919769 0.311859 0.637268
0.133301 0.212524 0.401611
0.173401 0.239929 0.435486
0.257721 0.273560 0.472656
0.411163 0.316589 0.514404
0.603729 0.375305 0.571167
0.742615 0.408966 0.606689
0.838837 0.417206 0.625885
0.908691 0.426727 0.646362
0.175262 0.392029 0.449829
0.226135 0.431458 0.485931
0.320984 0.471863 0.523834
0.460480 0.507904 0.562042
0.592560 0.522156 0.585541
0.712769 0.531372 0.615570
0.819733 0.535858 0.636139
0.897552 0.551941 0.656525
0.203705 0.602905 0.500092
0.248810 0.629791 0.532623
0.324280 0.651093 0.563324
0.430878 0.657623 0.584442
0.553284 0.652771 0.605225
0.686554 0.656830 0.625916
0.810699 0.676056 0.651489
0.908478 0.725372 0.696381
0.171509 0.765442 0.531952
0.203247 0.778473 0.561768
0.276428 0.779816 0.584442
0.393280 0.777802 0.605225
0.541107 0.782898 0.625946
0.721924 0.813019 0.672699
0.856537 0.841980 0.719482
0.930389 0.864777 0.759796
0.126312 0.878326 0.561768
0.164886 0.879578 0.584412
0.254944 0.878693 0.605194
0.397614 0.880096 0.626953
0.606110 0.899323 0.679474
0.791962 0.917999 0.743286
0.884247 0.926025 0.772095
0.938293 0.932037 0.795593
0.100830 0.078064 0.530762
0.122894 0.079620 0.568634
0.183167 0.082611 0.607605
0.323242 0.087921 0.648315
0.529785 0.096313 0.691193
0.722168 0.107910 0.725800
0.851685 0.118744 0.750488
0.924347 0.123108 0.765442
0.106628 0.093292 0.556824
0.132782 0.097992 0.582672
0.199493 0.106537 0.621979
0.348022 0.119141 0.663208
0.557190 0.137238 0.706451
0.738342 0.170532 0.736511
0.858093 0.199615 0.760681
0.925110 0.214447 0.774475
0.120392 0.131134 0.584900
0.152435 0.143433 0.610992
0.223816 0.159698 0.638367
0.385742 0.192291 0.681335
0.591400 0.239166 0.722412
0.752319 0.286774 0.749176
0.855774 0.315460 0.768860
0.918549 0.327606 0.779633
0.145569 0.230469 0.617157
0.189636 0.259552 0.644501
0.280457 0.294739 0.673370
0.435486 0.338409 0.704010
0.614441 0.389893 0.737549
0.742096 0.415253 0.756561
0.838806 0.431519 0.773804
0.907257 0.443176 0.785339
0.186401 0.416321 0.656281
0.238739 0.454041 0.683197
0.334442 0.491364 0.710175
0.466339 0.518799 0.732330
0.589691 0.526703 0.743744
0.711487 0.534363 0.761932
0.821625 0.553741 0.779572
0.898438 0.576752 0.791626
0.202393 0.616455 0.691742
0.243958 0.640472 0.713959
0.318726 0.656647 0.731750
0.425964 0.657654 0.743713
0.553650 0.655243 0.755981
0.690247 0.664795 0.767914
0.833862 0.713928 0.800568
0.919769 0.762817 0.831848
0.158539 0.770020 0.712708
0.192810 0.779022 0.731232
0.271820 0.779572 0.743713
0.396515 0.779907 0.755951
0.552460 0.788910 0.770630
0.747955 0.830811 0.809418
0.875946 0.861542 0.845367
0.935303 0.877869 0.864044
0.116547 0.877960 0.731232
0.159729 0.878967 0.743683
0.260376 0.878998 0.755951
0.413391 0.883209 0.773041
0.641907 0.906738 0.814362
0.806305 0.922424 0.849609
0.894867 0.931580 0.871826
0.942291 0.937042 0.884888
0.112244 0.081787 0.781281
0.136871 0.082947 0.796417
0.200104 0.085327 0.811523
0.345612 0.090515 0.827454
0.552338 0.098877 0.844482
0.733765 0.111572 0.856018
0.856628 0.120758 0.864990
0.926788 0.124054 0.872223
0.118286 0.098633 0.792023
0.145874 0.103119 0.802155
0.215790 0.111267 0.817261
0.371338 0.124695 0.833588
0.577637 0.145630 0.849731
0.748993 0.180542 0.860687
0.861877 0.207642 0.869263
0.926208 0.227966 0.875641
0.129395 0.139771 0.803375
0.164520 0.153046 0.813629
0.242615 0.170715 0.824524
0.409943 0.205109 0.841736
0.608398 0.255920 0.856262
0.758881 0.298615 0.865875
0.856232 0.322845 0.871735
0.917542 0.345093 0.876923
0.156525 0.248474 0.817627
0.203979 0.278748 0.828339
0.299988 0.315460 0.839813
0.455322 0.357391 0.852020
0.621643 0.401550 0.862244
0.742065 0.421906 0.867493
0.838562 0.438110 0.873169
0.907104 0.463531 0.878784
0.194275 0.437988 0.834869
0.247528 0.473816 0.844940
0.342834 0.507874 0.854919
0.469238 0.526733 0.860413
0.588593 0.531525 0.863678
0.712830 0.539825 0.869385
0.822998 0.564209 0.875061
0.902954 0.608398 0.884369
0.197327 0.627869 0.848328
0.237244 0.650146 0.855743
0.315857 0.661133 0.859741
0.424835 0.659668 0.863678
0.557373 0.660217 0.867493
0.697357 0.674438 0.871948
0.846558 0.739044 0.891449
0.928589 0.792542 0.911346
0.147705 0.773712 0.855133
0.187042 0.779968 0.859741
0.271851 0.780975 0.863678
0.403809 0.783539 0.867493
0.574829 0.800598 0.876984
0.770233 0.843048 0.899475
0.882660 0.869080 0.914490
0.939362 0.889008 0.925293
0.110138 0.877991 0.859741
0.158844 0.879272 0.863678
0.268799 0.880096 0.867493
0.440552 0.889313 0.878357
0.671661 0.912445 0.902496
0.817383 0.925751 0.917023
0.900269 0.934601 0.927917
0.945526 0.941010 0.935944
