Drink it in!/Striped Purple - Aricha Blend.cube
#Created by: Adobe Photoshop Export Color Lookup Plugin
#Copyright: (C) Copyright 2018 Striped Purple - Austin Barrett
TITLE "Aricha Blend"
#LUT size
LUT_3D_SIZE 32
#data domain
DOMAIN_MIN 0.0 0.0 0.0
DOMAIN_MAX 1.0 1.0 1.0
#LUT data points
0.082367 0.066772 0.049225
0.082733 0.066772 0.049225
0.083984 0.066864 0.049255
0.085938 0.066956 0.049286
0.088776 0.067139 0.049347
0.092438 0.067352 0.049377
0.097076 0.067627 0.049469
0.102905 0.067963 0.049530
0.110504 0.068420 0.049652
0.120270 0.068970 0.049805
0.133209 0.069702 0.050018
0.150238 0.070618 0.050262
0.172607 0.071808 0.050598
0.200714 0.073242 0.050995
0.235199 0.074982 0.051514
0.275970 0.076904 0.052094
0.322876 0.079041 0.052795
0.375153 0.081268 0.053558
0.429962 0.083527 0.054443
0.485168 0.085541 0.055298
0.540924 0.087524 0.056183
0.596802 0.089691 0.057190
0.651398 0.091949 0.058289
0.703369 0.094177 0.059387
0.751862 0.096344 0.060516
0.795868 0.098419 0.061584
0.834961 0.100250 0.062561
0.868622 0.101837 0.063446
0.896759 0.104584 0.064209
0.919800 0.106873 0.064850
0.939301 0.108826 0.065399
0.956818 0.110565 0.065887
0.082428 0.067139 0.049255
0.082947 0.067230 0.049255
0.084290 0.067474 0.049286
0.086426 0.067749 0.049316
0.089294 0.068054 0.049377
0.093140 0.068481 0.049438
0.097900 0.068909 0.049500
0.104065 0.069427 0.049622
0.111816 0.070038 0.049744
0.121979 0.070801 0.049896
0.135223 0.071686 0.050079
0.152771 0.072845 0.050354
0.175720 0.074249 0.050690
0.204468 0.075897 0.051117
0.239655 0.077850 0.051666
0.280823 0.079987 0.052246
0.328461 0.082367 0.052979
0.380859 0.084839 0.053772
0.435547 0.087372 0.054657
0.490295 0.089508 0.055481
0.545990 0.091797 0.056427
0.601562 0.094208 0.057434
0.655731 0.096771 0.058533
0.707214 0.099274 0.059662
0.755096 0.101746 0.060791
0.798584 0.104095 0.061859
0.837067 0.106171 0.062866
0.870209 0.108490 0.063751
0.897858 0.111633 0.064514
0.920502 0.114166 0.065125
0.939758 0.116425 0.065674
0.956970 0.118317 0.066162
0.082672 0.068176 0.049286
0.083344 0.068359 0.049286
0.084656 0.068573 0.049316
0.086945 0.069031 0.049377
0.089996 0.069519 0.049438
0.093964 0.070099 0.049500
0.098907 0.070679 0.049591
0.105225 0.071381 0.049683
0.113281 0.072174 0.049835
0.123749 0.073120 0.049988
0.137451 0.074188 0.050201
0.155609 0.075562 0.050476
0.179199 0.077209 0.050842
0.208588 0.079102 0.051300
0.244232 0.081238 0.051819
0.286194 0.083679 0.052460
0.334381 0.086243 0.053162
0.386810 0.088989 0.053986
0.441162 0.091705 0.054901
0.495544 0.094055 0.055725
0.551117 0.096619 0.056671
0.606384 0.099365 0.057709
0.660156 0.102234 0.058838
0.711182 0.105072 0.059998
0.758514 0.107849 0.061096
0.801361 0.110443 0.062195
0.839203 0.112823 0.063171
0.871857 0.116089 0.064087
0.898987 0.119446 0.064819
0.921265 0.122253 0.065430
0.940216 0.124756 0.065979
0.957184 0.126923 0.066467
0.083038 0.069916 0.049347
0.083984 0.070251 0.049377
0.085541 0.070557 0.049408
0.087646 0.070892 0.049438
0.090790 0.071503 0.049500
0.094940 0.072235 0.049591
0.100067 0.073029 0.049683
0.106567 0.073883 0.049774
0.114929 0.074860 0.049927
0.125702 0.075958 0.050110
0.139862 0.077271 0.050323
0.158600 0.078857 0.050629
0.182831 0.080750 0.050995
0.212891 0.082855 0.051453
0.249176 0.085297 0.052002
0.291565 0.087952 0.052643
0.340637 0.090820 0.053406
0.392853 0.093811 0.054230
0.446625 0.096619 0.055115
0.501038 0.099304 0.055969
0.556458 0.102234 0.056946
0.611389 0.105347 0.058014
0.664795 0.108551 0.059174
0.715210 0.111725 0.060303
0.761963 0.114838 0.061462
0.804169 0.117767 0.062531
0.841431 0.120514 0.063538
0.873505 0.124817 0.064423
0.900177 0.128510 0.065186
0.922058 0.131561 0.065796
0.940674 0.134338 0.066345
0.957397 0.136902 0.066833
0.083557 0.072388 0.049438
0.084747 0.072754 0.049469
0.086456 0.073181 0.049500
0.088806 0.073608 0.049530
0.091766 0.074066 0.049591
0.095978 0.074982 0.049683
0.101379 0.075958 0.049774
0.108093 0.076965 0.049896
0.116699 0.078156 0.050049
0.127838 0.079468 0.050232
0.142548 0.080994 0.050476
0.161865 0.082825 0.050781
0.186798 0.084991 0.051178
0.217529 0.087402 0.051666
0.254486 0.090118 0.052246
0.297852 0.093048 0.052917
0.347137 0.096252 0.053680
0.399139 0.099487 0.054535
0.452332 0.102478 0.055359
0.506805 0.105560 0.056274
0.562073 0.108917 0.057281
0.616760 0.112457 0.058380
0.669617 0.116089 0.059570
0.719543 0.119659 0.060730
0.765594 0.123169 0.061859
0.807129 0.126556 0.062958
0.843781 0.130554 0.063965
0.875244 0.135254 0.064850
0.901398 0.139282 0.065582
0.922882 0.142731 0.066193
0.941223 0.145935 0.066772
0.957642 0.148804 0.067261
0.084320 0.075623 0.049530
0.085602 0.076019 0.049561
0.087555 0.076569 0.049622
0.090088 0.077118 0.049652
0.093292 0.077698 0.049713
0.097321 0.078400 0.049805
0.102783 0.079468 0.049896
0.109741 0.080750 0.050049
0.118683 0.082153 0.050201
0.130310 0.083710 0.050415
0.145477 0.085541 0.050659
0.165436 0.087646 0.050995
0.191010 0.090088 0.051422
0.222473 0.092804 0.051910
0.260071 0.095886 0.052490
0.304535 0.099182 0.053192
0.353912 0.102753 0.053986
0.405792 0.106293 0.054871
0.458466 0.109589 0.055695
0.512970 0.113190 0.056610
0.567932 0.116974 0.057678
0.622345 0.121063 0.058807
0.674683 0.125183 0.059998
0.724060 0.129364 0.061218
0.769440 0.133423 0.062378
0.810333 0.137299 0.063446
0.846313 0.142883 0.064484
0.877136 0.147980 0.065338
0.902740 0.152435 0.066071
0.923767 0.156403 0.066711
0.941772 0.160034 0.067261
0.957886 0.163361 0.067749
0.085236 0.079742 0.049683
0.086792 0.080292 0.049713
0.088898 0.080933 0.049774
0.091675 0.081604 0.049835
0.095123 0.082306 0.049896
0.099304 0.083099 0.049988
0.104523 0.083954 0.050079
0.111725 0.085449 0.050201
0.120972 0.087128 0.050385
0.133057 0.088989 0.050598
0.148804 0.091125 0.050873
0.169434 0.093536 0.051239
0.195709 0.096375 0.051666
0.227997 0.099548 0.052185
0.266602 0.102997 0.052826
0.311890 0.106750 0.053528
0.361206 0.110718 0.054352
0.412201 0.114502 0.055176
0.464966 0.118317 0.056030
0.519501 0.122528 0.057037
0.574402 0.127045 0.058136
0.628326 0.131714 0.059326
0.680206 0.136566 0.060547
0.728912 0.141418 0.061768
0.773560 0.146088 0.062958
0.813690 0.151703 0.064056
0.848938 0.157959 0.065063
0.879120 0.163635 0.065948
0.904175 0.168732 0.066681
0.924805 0.173279 0.067322
0.942383 0.177429 0.067871
0.958221 0.181366 0.068359
0.086273 0.084930 0.049866
0.088074 0.085663 0.049896
0.090485 0.086456 0.049957
0.093475 0.087280 0.050018
0.097137 0.088135 0.050110
0.101715 0.089111 0.050201
0.107178 0.090149 0.050293
0.113983 0.091278 0.050446
0.123627 0.093292 0.050629
0.136169 0.095490 0.050873
0.152496 0.098022 0.051147
0.173950 0.100952 0.051514
0.200928 0.104218 0.051971
0.233917 0.107880 0.052551
0.274261 0.111847 0.053192
0.319794 0.116150 0.053925
0.368896 0.120605 0.054779
0.419342 0.124817 0.055603
0.472260 0.129364 0.056519
0.526733 0.134338 0.057556
0.581390 0.139679 0.058716
0.635010 0.145233 0.059967
0.686127 0.150848 0.061218
0.734161 0.156555 0.062469
0.778046 0.162384 0.063660
0.817352 0.169922 0.064789
0.851807 0.176849 0.065796
0.881256 0.183167 0.066681
0.905701 0.188843 0.067413
0.925842 0.194000 0.068054
0.943085 0.198822 0.068573
0.958527 0.203369 0.069061
0.087738 0.091705 0.050079
0.089783 0.092651 0.050140
0.092407 0.093628 0.050201
0.095642 0.094635 0.050293
0.099670 0.095734 0.050385
0.104462 0.096893 0.050476
0.110352 0.098145 0.050598
0.117615 0.099518 0.050751
0.126709 0.101074 0.050903
0.139709 0.103729 0.051178
0.156769 0.106842 0.051483
0.178955 0.110260 0.051880
0.206848 0.114166 0.052368
0.241516 0.118408 0.052979
0.282776 0.123047 0.053650
0.328430 0.127991 0.054443
0.376526 0.132812 0.055237
0.427307 0.137909 0.056122
0.480438 0.143433 0.057129
0.534821 0.149384 0.058228
0.589172 0.155701 0.059448
0.642212 0.162262 0.060730
0.692780 0.169006 0.062042
0.739807 0.175598 0.063293
0.782806 0.183960 0.064514
0.821198 0.192230 0.065643
0.854828 0.199829 0.066650
0.883453 0.206726 0.067535
0.907288 0.213013 0.068268
0.926880 0.218689 0.068848
0.943695 0.224060 0.069397
0.958832 0.229156 0.069855
0.089539 0.100555 0.050385
0.091797 0.101746 0.050446
0.094727 0.102936 0.050537
0.098267 0.104279 0.050629
0.102600 0.105621 0.050720
0.107788 0.107147 0.050842
0.114075 0.108704 0.050995
0.121857 0.110413 0.051147
0.131561 0.112274 0.051331
0.143799 0.114288 0.051544
0.161682 0.118042 0.051910
0.184723 0.122192 0.052338
0.214050 0.126770 0.052856
0.250793 0.131866 0.053497
0.292206 0.137268 0.054230
0.337311 0.142853 0.055023
0.385162 0.148438 0.055847
0.436249 0.154572 0.056793
0.489594 0.161285 0.057861
0.543884 0.168396 0.059052
0.597839 0.175934 0.060364
0.650177 0.183624 0.061676
0.699860 0.191437 0.063019
0.745941 0.200470 0.064331
0.787872 0.209900 0.065552
0.825256 0.218719 0.066650
0.857880 0.226746 0.067657
0.885681 0.234009 0.068481
0.908752 0.240692 0.069183
0.927826 0.246796 0.069763
0.944244 0.252472 0.070251
0.959015 0.257874 0.070679
0.091888 0.112335 0.050781
0.094452 0.113831 0.050873
0.097656 0.115387 0.050964
0.101562 0.117065 0.051056
0.106201 0.118866 0.051178
0.111847 0.120728 0.051331
0.118591 0.122681 0.051483
0.126953 0.124817 0.051666
0.137360 0.127075 0.051849
0.150543 0.129639 0.052124
0.167328 0.132477 0.052429
0.192383 0.137573 0.052917
0.224091 0.143005 0.053497
0.261078 0.148956 0.054169
0.302338 0.155182 0.054932
0.346527 0.161316 0.055695
0.395050 0.168182 0.056580
0.446472 0.175568 0.057648
0.499908 0.183533 0.058807
0.553955 0.191925 0.060089
0.607239 0.200653 0.061432
0.658783 0.209534 0.062805
0.707367 0.219360 0.064178
0.752319 0.229889 0.065491
0.793030 0.239716 0.066681
0.829224 0.248840 0.067749
0.860809 0.257172 0.068726
0.887695 0.264557 0.069489
0.910034 0.271362 0.070129
0.928558 0.277618 0.070648
0.944489 0.283447 0.071075
0.959015 0.288971 0.071472
0.094879 0.128082 0.051331
0.097778 0.130005 0.051422
0.101288 0.132019 0.051514
0.105530 0.134155 0.051666
0.110596 0.136353 0.051788
0.116608 0.138702 0.051941
0.123962 0.141235 0.052124
0.132965 0.143860 0.052338
0.144226 0.146729 0.052582
0.159302 0.149841 0.052856
0.178986 0.153259 0.053223
0.202972 0.156952 0.053650
0.235168 0.163422 0.054260
0.271942 0.170166 0.054962
0.312317 0.176910 0.055695
0.357300 0.184265 0.056519
0.406311 0.192444 0.057556
0.458008 0.201172 0.058685
0.511230 0.210449 0.059937
0.564789 0.220123 0.061310
0.617340 0.230042 0.062683
0.667694 0.240692 0.064087
0.715118 0.252167 0.065460
0.758636 0.262970 0.066742
0.798035 0.272980 0.067902
0.832916 0.282074 0.068909
0.863373 0.290222 0.069794
0.889343 0.297638 0.070496
0.910828 0.304260 0.071045
0.928894 0.310364 0.071472
0.944611 0.316071 0.071808
0.958771 0.321320 0.072021
0.098541 0.148834 0.052002
0.101837 0.151306 0.052155
0.105713 0.153839 0.052277
0.110321 0.156433 0.052399
0.115845 0.159271 0.052582
0.122650 0.162109 0.052765
0.131683 0.165100 0.052979
0.142548 0.168213 0.053192
0.156128 0.171692 0.053467
0.172668 0.175323 0.053772
0.193298 0.179321 0.054169
0.218048 0.183594 0.054657
0.246185 0.187866 0.055145
0.282440 0.195251 0.055817
0.323822 0.203339 0.056641
0.369537 0.212128 0.057587
0.418854 0.221588 0.058716
0.470581 0.231659 0.059937
0.523468 0.242218 0.061279
0.576355 0.253052 0.062683
0.627747 0.264587 0.064117
0.676819 0.276794 0.065521
0.722626 0.288330 0.066864
0.764648 0.299072 0.068085
0.802460 0.308807 0.069153
0.836029 0.317535 0.070068
0.865173 0.325287 0.070801
0.890259 0.332184 0.071381
0.911285 0.338348 0.071808
0.928802 0.343933 0.072052
0.944061 0.348999 0.072174
0.958099 0.353851 0.072266
0.104004 0.175354 0.052917
0.108429 0.178314 0.053040
0.113464 0.181335 0.053192
0.119446 0.184509 0.053375
0.126251 0.187775 0.053558
0.134216 0.191101 0.053772
0.143951 0.194702 0.053986
0.155548 0.198334 0.054260
0.169525 0.202240 0.054565
0.186798 0.206329 0.054901
0.207428 0.210510 0.055267
0.232330 0.215057 0.055725
0.261383 0.220001 0.056244
0.294769 0.225433 0.056885
0.336884 0.234863 0.057831
0.383270 0.245056 0.058899
0.432617 0.255737 0.060089
0.484161 0.267059 0.061401
0.536407 0.278717 0.062805
0.588043 0.290985 0.064209
0.638123 0.303741 0.065643
0.685547 0.315826 0.067017
0.729584 0.327057 0.068268
0.769836 0.337280 0.069397
0.806061 0.346344 0.070343
0.837982 0.354309 0.071106
0.866333 0.361267 0.071686
0.890472 0.367218 0.072021
0.910706 0.372437 0.072205
0.927887 0.377289 0.072266
0.943024 0.381836 0.072266
0.956970 0.386169 0.072235
0.114410 0.207916 0.054016
0.119019 0.211304 0.054169
0.124542 0.214844 0.054352
0.130737 0.218414 0.054535
0.138092 0.222168 0.054749
0.146240 0.225830 0.054962
0.155884 0.229584 0.055176
0.167786 0.233582 0.055420
0.182281 0.237793 0.055725
0.200226 0.242340 0.056091
0.222229 0.247284 0.056519
0.248383 0.252686 0.057068
0.278717 0.258514 0.057678
0.313110 0.264832 0.058411
0.351471 0.271667 0.059235
0.397980 0.282990 0.060394
0.447418 0.294922 0.061707
0.498260 0.307190 0.063049
0.549438 0.320129 0.064484
0.599701 0.333130 0.065887
0.647949 0.345459 0.067261
0.693359 0.356903 0.068512
0.735382 0.367371 0.069641
0.773712 0.376648 0.070618
0.808105 0.384613 0.071381
0.839050 0.391388 0.071899
0.865997 0.396881 0.072144
0.889374 0.401642 0.072266
0.909210 0.406036 0.072266
0.926208 0.410248 0.072205
0.941406 0.414429 0.072113
0.955505 0.418610 0.071960
0.124207 0.245941 0.055237
0.129089 0.249664 0.055420
0.134644 0.253448 0.055573
0.141083 0.257355 0.055756
0.148621 0.261444 0.055969
0.157410 0.265564 0.056213
0.168091 0.269989 0.056488
0.180878 0.274597 0.056793
0.196594 0.279541 0.057159
0.215881 0.284821 0.057587
0.239105 0.290466 0.058105
0.266510 0.296661 0.058716
0.297974 0.303345 0.059418
0.333282 0.310455 0.060242
0.372040 0.317963 0.061157
0.413666 0.325867 0.062134
0.462494 0.338562 0.063446
0.512268 0.351746 0.064819
0.561920 0.364716 0.066193
0.610321 0.377106 0.067566
0.656494 0.388641 0.068817
0.699677 0.399017 0.069946
0.739258 0.408203 0.070892
0.775848 0.416046 0.071625
0.808716 0.422394 0.072052
0.838043 0.427490 0.072235
0.864166 0.431732 0.072266
0.887085 0.435516 0.072205
0.906860 0.439331 0.072083
0.923950 0.443207 0.071899
0.939301 0.447144 0.071716
0.953674 0.451172 0.071625
0.134033 0.289703 0.056641
0.139557 0.293976 0.056854
0.145752 0.298279 0.057068
0.152832 0.302734 0.057281
0.161041 0.307281 0.057526
0.170624 0.311981 0.057800
0.182220 0.316986 0.058136
0.196014 0.322113 0.058472
0.212921 0.327637 0.058899
0.233398 0.333466 0.059387
0.257935 0.339874 0.059998
0.286407 0.346741 0.060669
0.318390 0.353882 0.061432
0.354126 0.361450 0.062286
0.393066 0.369446 0.063232
0.434296 0.377655 0.064270
0.477234 0.385925 0.065338
0.525482 0.398590 0.066650
0.573242 0.410736 0.067963
0.619263 0.421997 0.069183
0.662964 0.432190 0.070251
0.703308 0.441101 0.071167
0.741302 0.448547 0.071838
0.775513 0.454376 0.072174
0.806732 0.458923 0.072266
0.835175 0.462616 0.072235
0.860962 0.465942 0.072083
0.883911 0.469208 0.071869
0.903839 0.472717 0.071655
0.921234 0.476440 0.071625
0.936920 0.479980 0.071625
0.951721 0.483185 0.071625
0.145569 0.339966 0.058380
0.151581 0.344635 0.058594
0.158386 0.349396 0.058838
0.166168 0.354248 0.059113
0.175110 0.359253 0.059418
0.185486 0.364410 0.059723
0.197845 0.369690 0.060059
0.212646 0.375275 0.060455
0.230621 0.381256 0.060944
0.252258 0.387573 0.061493
0.277679 0.394287 0.062103
0.306610 0.401398 0.062836
0.339172 0.408813 0.063629
0.374939 0.416321 0.064514
0.413391 0.423981 0.065460
0.453705 0.431580 0.066437
0.495117 0.438995 0.067444
0.536926 0.446106 0.068420
0.582184 0.456879 0.069580
0.625580 0.466644 0.070587
0.666290 0.475067 0.071442
0.704742 0.481964 0.071991
0.739838 0.487183 0.072235
0.772369 0.491180 0.072266
0.802734 0.494385 0.072144
0.830841 0.497223 0.071930
0.856720 0.500000 0.071655
0.880005 0.503052 0.071625
0.900360 0.505707 0.071625
0.918243 0.508667 0.071625
0.934387 0.511902 0.071625
0.949707 0.514526 0.071625
0.158203 0.395966 0.060394
0.164856 0.400909 0.060669
0.172150 0.405884 0.060944
0.180420 0.410919 0.061218
0.189911 0.416107 0.061523
0.201050 0.421478 0.061859
0.214233 0.427032 0.062256
0.229889 0.432800 0.062683
0.248779 0.438904 0.063171
0.271118 0.445190 0.063721
0.297089 0.451599 0.064362
0.326447 0.458313 0.065094
0.358887 0.465118 0.065887
0.394135 0.471954 0.066742
0.431549 0.478790 0.067627
0.470306 0.485291 0.068512
0.509796 0.491547 0.069397
0.549225 0.497223 0.070221
0.587524 0.502197 0.070953
0.628510 0.509979 0.071716
0.666443 0.516113 0.072113
0.701874 0.520721 0.072266
0.735260 0.524261 0.072235
0.766998 0.527069 0.072021
0.797119 0.529480 0.071747
0.825531 0.531860 0.071625
0.851929 0.533569 0.071625
0.875854 0.535492 0.071625
0.896759 0.537933 0.071625
0.915192 0.541077 0.071625
0.931885 0.544220 0.071625
0.947754 0.546600 0.071625
0.171234 0.456085 0.062683
0.178162 0.460999 0.062927
0.186035 0.465973 0.063202
0.194763 0.471100 0.063507
0.204834 0.476074 0.063812
0.216492 0.481140 0.064178
0.230194 0.486298 0.064545
0.246552 0.491608 0.064972
0.265991 0.497101 0.065460
0.288910 0.502838 0.066040
0.315063 0.508698 0.066650
0.344086 0.514618 0.067322
0.375916 0.520569 0.068054
0.410187 0.526398 0.068817
0.446075 0.532074 0.069580
0.482819 0.537262 0.070312
0.519318 0.541931 0.071014
0.556366 0.545959 0.071594
0.592224 0.549011 0.071991
0.626770 0.550995 0.072235
0.661987 0.554993 0.072266
0.695709 0.558075 0.072144
0.728363 0.560455 0.071899
0.759979 0.562561 0.071625
0.790558 0.563995 0.071625
0.819733 0.564789 0.071625
0.846985 0.566162 0.071625
0.871643 0.568176 0.071625
0.893372 0.571075 0.071625
0.912445 0.574554 0.071625
0.929657 0.577393 0.071625
0.946045 0.580078 0.071625
0.183350 0.516693 0.065002
0.190796 0.521240 0.065247
0.198944 0.525726 0.065552
0.207977 0.530243 0.065796
0.218384 0.534882 0.066132
0.230347 0.539429 0.066437
0.244568 0.544189 0.066803
0.261261 0.548981 0.067200
0.281006 0.553894 0.067688
0.303955 0.558868 0.068176
0.329712 0.563904 0.068726
0.358032 0.568909 0.069336
0.388855 0.573761 0.069977
0.421478 0.578339 0.070587
0.454773 0.582489 0.071167
0.489624 0.586182 0.071686
0.523773 0.589050 0.072021
0.557220 0.591003 0.072235
0.590027 0.592194 0.072296
0.622284 0.592621 0.072205
0.654114 0.592499 0.072052
0.687317 0.594604 0.071747
0.720062 0.596497 0.071625
0.752289 0.596558 0.071625
0.783813 0.596863 0.071625
0.814087 0.597870 0.071625
0.842377 0.599640 0.071625
0.867981 0.602173 0.071625
0.890381 0.605560 0.071625
0.910004 0.609283 0.071625
0.927734 0.612061 0.071625
0.944214 0.615143 0.071625
0.193665 0.575317 0.067261
0.201202 0.579376 0.067474
0.209595 0.583435 0.067749
0.218811 0.587402 0.067993
0.229279 0.591431 0.068237
0.241547 0.595520 0.068542
0.255737 0.599548 0.068848
0.272552 0.603729 0.069214
0.292206 0.607849 0.069611
0.314758 0.611969 0.070038
0.339783 0.615997 0.070496
0.366425 0.619843 0.070953
0.395782 0.623444 0.071442
0.426880 0.626617 0.071808
0.458099 0.629181 0.072083
0.489441 0.631073 0.072235
0.520752 0.632263 0.072296
0.551880 0.632874 0.072205
0.582916 0.632874 0.072052
0.614258 0.632507 0.071808
0.645691 0.631866 0.071625
0.677551 0.630066 0.071625
0.711090 0.629761 0.071625
0.744659 0.629852 0.071625
0.777557 0.630554 0.071625
0.809052 0.632050 0.071625
0.838470 0.634460 0.071625
0.864960 0.637817 0.071625
0.887543 0.641876 0.071625
0.906982 0.645172 0.071625
0.924957 0.648376 0.071625
0.942261 0.651917 0.071625
0.200897 0.630920 0.069275
0.208466 0.634369 0.069458
0.216827 0.637817 0.069641
0.225983 0.641205 0.069855
0.236481 0.644623 0.070068
0.248535 0.648010 0.070312
0.262634 0.651428 0.070587
0.278809 0.654724 0.070831
0.297913 0.658020 0.071136
0.319885 0.661194 0.071472
0.344025 0.664124 0.071747
0.369598 0.666779 0.071991
0.396729 0.668915 0.072174
0.424927 0.670624 0.072266
0.453705 0.671814 0.072266
0.482880 0.672516 0.072205
0.512573 0.672791 0.072052
0.542542 0.672607 0.071808
0.573303 0.672180 0.071625
0.604553 0.670593 0.071625
0.636566 0.668030 0.071625
0.669495 0.665619 0.071625
0.702698 0.663422 0.071625
0.737762 0.663971 0.071625
0.772186 0.665375 0.071625
0.805084 0.667725 0.071625
0.834839 0.670898 0.071625
0.861115 0.674988 0.071625
0.884186 0.679230 0.071625
0.904510 0.682404 0.071625
0.923248 0.686249 0.071625
0.941101 0.690247 0.071716
0.203705 0.682404 0.070862
0.211151 0.685272 0.071014
0.219208 0.688049 0.071167
0.228271 0.690857 0.071289
0.238586 0.693634 0.071472
0.250641 0.696350 0.071625
0.264435 0.698975 0.071777
0.280426 0.701477 0.071899
0.298798 0.703796 0.072052
0.319305 0.705963 0.072174
0.341461 0.707794 0.072235
0.365234 0.709290 0.072296
0.390717 0.710480 0.072266
0.417084 0.711212 0.072174
0.444519 0.711670 0.072021
0.472595 0.711700 0.071808
0.501678 0.711487 0.071625
0.531799 0.710266 0.071625
0.562897 0.707947 0.071625
0.595062 0.705536 0.071625
0.628418 0.703400 0.071625
0.662628 0.701477 0.071625
0.697418 0.700073 0.071625
0.732330 0.699310 0.071625
0.767975 0.701477 0.071625
0.800415 0.704559 0.071625
0.830902 0.708527 0.071625
0.858582 0.713257 0.071625
0.882355 0.717316 0.071625
0.903381 0.720795 0.072052
0.922638 0.724304 0.072510
0.940918 0.728607 0.073547
0.202667 0.729340 0.071899
0.209900 0.731567 0.071991
0.217743 0.733765 0.072052
0.226349 0.735901 0.072083
0.236053 0.738007 0.072144
0.247314 0.740021 0.072205
0.260345 0.741943 0.072235
0.275574 0.743713 0.072266
0.292938 0.745270 0.072296
0.312347 0.746643 0.072266
0.333344 0.747742 0.072205
0.356201 0.748596 0.072113
0.380463 0.749084 0.071960
0.406097 0.749390 0.071747
0.433014 0.749390 0.071625
0.461060 0.748474 0.071625
0.490417 0.746399 0.071625
0.521301 0.744415 0.071625
0.553619 0.742340 0.071625
0.587219 0.740448 0.071625
0.622223 0.738953 0.071625
0.658173 0.737915 0.071625
0.694580 0.737427 0.071625
0.728943 0.737579 0.071625
0.762878 0.738342 0.071625
0.797302 0.742065 0.071625
0.829376 0.746918 0.071655
0.857880 0.751343 0.072266
0.882111 0.754486 0.072998
0.904205 0.759735 0.074768
0.924774 0.766083 0.076660
0.943848 0.773010 0.078644
0.196533 0.771454 0.072266
0.203491 0.773193 0.072266
0.210907 0.774872 0.072296
0.219116 0.776520 0.072296
0.228455 0.778076 0.072266
0.239197 0.779572 0.072266
0.251801 0.780945 0.072235
0.266296 0.782166 0.072174
0.283173 0.783203 0.072113
0.301849 0.784058 0.072021
0.322327 0.784698 0.071869
0.344666 0.785095 0.071686
0.368591 0.785278 0.071625
0.394287 0.784576 0.071625
0.421417 0.783020 0.071625
0.450012 0.781281 0.071625
0.480560 0.779541 0.071625
0.512726 0.777832 0.071625
0.546570 0.776337 0.071625
0.582123 0.775177 0.071625
0.618896 0.774414 0.071625
0.655121 0.774200 0.071625
0.691223 0.774506 0.071625
0.727325 0.775482 0.071625
0.762848 0.777283 0.071625
0.796844 0.779388 0.072113
0.830078 0.783813 0.073151
0.860168 0.789673 0.075470
0.886871 0.796051 0.077728
0.910339 0.802948 0.080017
0.929718 0.810059 0.082306
0.947296 0.817139 0.084564
0.187225 0.809570 0.072205
0.193970 0.810852 0.072174
0.201080 0.812103 0.072144
0.209076 0.813324 0.072113
0.218109 0.814453 0.072083
0.228485 0.815521 0.072021
0.240723 0.816467 0.071960
0.255066 0.817291 0.071869
0.271637 0.817993 0.071747
0.290070 0.818451 0.071625
0.310455 0.818787 0.071625
0.332855 0.818085 0.071625
0.357147 0.816986 0.071625
0.383362 0.815704 0.071625
0.411194 0.814240 0.071625
0.441071 0.812805 0.071625
0.472931 0.811401 0.071625
0.506805 0.810181 0.071625
0.542633 0.809296 0.071625
0.579376 0.808746 0.071625
0.616119 0.808685 0.071625
0.653656 0.809113 0.071625
0.691620 0.810242 0.071625
0.729309 0.811859 0.071960
0.765991 0.813538 0.072723
0.802246 0.817596 0.075104
0.837219 0.822998 0.077728
0.868866 0.829865 0.080536
0.893982 0.836853 0.083282
0.915314 0.843658 0.085876
0.933899 0.849579 0.088501
0.950592 0.853912 0.091064
0.176666 0.843719 0.071930
0.183197 0.844666 0.071869
0.190308 0.845551 0.071838
0.198029 0.846344 0.071777
0.206818 0.847137 0.071716
0.217285 0.847900 0.071655
0.229431 0.848511 0.071625
0.243713 0.848999 0.071625
0.260284 0.849091 0.071625
0.278809 0.848602 0.071625
0.299500 0.847870 0.071625
0.322449 0.846954 0.071625
0.347351 0.845886 0.071625
0.374390 0.844666 0.071625
0.403564 0.843475 0.071625
