Drink it in!/Striped Purple - Vanilla Bean.cube
#Created by: Adobe Photoshop Export Color Lookup Plugin
#Copyright: (C) Copyright 2018 Striped Purple - Austin Barrett
TITLE "Vanilla Bean"
#LUT size
LUT_3D_SIZE 32
#data domain
DOMAIN_MIN 0.0 0.0 0.0
DOMAIN_MAX 1.0 1.0 1.0
#LUT data points
0.126556 0.120911 0.098083
0.127075 0.120911 0.098083
0.128326 0.120483 0.097900
0.130554 0.120056 0.097687
0.133484 0.119202 0.097290
0.137207 0.118134 0.096802
0.141907 0.116882 0.096191
0.147797 0.115417 0.095520
0.154999 0.113312 0.094513
0.164062 0.110840 0.093353
0.175507 0.107574 0.091827
0.190094 0.103577 0.089935
0.208344 0.100372 0.087524
0.230682 0.097717 0.084808
0.257172 0.094696 0.081665
0.288361 0.091644 0.078461
0.324371 0.088776 0.075378
0.365295 0.086395 0.072754
0.411285 0.084900 0.070923
0.461182 0.084839 0.070831
0.513824 0.084839 0.070831
0.567993 0.085632 0.070831
0.622345 0.087006 0.071350
0.675415 0.088806 0.072601
0.726044 0.090881 0.074127
0.772949 0.093140 0.075867
0.815338 0.095398 0.077637
0.852325 0.097534 0.079315
0.883606 0.099487 0.080841
0.909363 0.101105 0.082153
0.931335 0.103271 0.083344
0.951080 0.106232 0.084473
0.126465 0.121185 0.097992
0.126953 0.121063 0.097900
0.128326 0.120850 0.097687
0.130554 0.120453 0.097382
0.133545 0.119812 0.096985
0.137238 0.118744 0.096405
0.142090 0.117706 0.095795
0.147888 0.115967 0.094910
0.155182 0.114105 0.093933
0.164429 0.111603 0.092682
0.176117 0.108551 0.091156
0.190948 0.104553 0.089172
0.209473 0.102264 0.086731
0.232117 0.099670 0.083954
0.259003 0.096741 0.080811
0.290649 0.093903 0.077698
0.327148 0.091248 0.074707
0.368591 0.089142 0.072235
0.415009 0.088165 0.070831
0.465210 0.088318 0.070831
0.518005 0.088593 0.070831
0.572113 0.089752 0.070831
0.626251 0.091492 0.071625
0.679016 0.093628 0.072937
0.729187 0.096069 0.074554
0.775665 0.098694 0.076355
0.817474 0.101288 0.078156
0.854004 0.103760 0.079865
0.884766 0.106018 0.081451
0.910156 0.107910 0.082764
0.931824 0.111389 0.084015
0.951263 0.114532 0.085083
0.126129 0.121979 0.097687
0.126831 0.121979 0.097595
0.128204 0.121765 0.097382
0.130402 0.121338 0.096985
0.133392 0.120667 0.096497
0.137238 0.119781 0.095917
0.142029 0.118683 0.095215
0.147949 0.117188 0.094330
0.155365 0.115265 0.093262
0.164612 0.112762 0.091919
0.176483 0.109619 0.090302
0.191620 0.106628 0.088257
0.210449 0.104462 0.085754
0.233459 0.101990 0.082947
0.260803 0.099243 0.079895
0.292877 0.096497 0.076782
0.329895 0.094086 0.074005
0.372040 0.092316 0.071716
0.418884 0.091949 0.070831
0.469299 0.092285 0.070831
0.522217 0.092926 0.070831
0.576294 0.094452 0.070831
0.630219 0.096588 0.071930
0.682678 0.099121 0.073395
0.732483 0.101959 0.075073
0.778412 0.104950 0.076935
0.819672 0.107880 0.078735
0.855713 0.110748 0.080536
0.885986 0.113312 0.082123
0.910980 0.116486 0.083466
0.932343 0.120422 0.084717
0.951508 0.124023 0.085846
0.125580 0.123291 0.097198
0.126434 0.123169 0.096985
0.127899 0.122803 0.096710
0.130035 0.122437 0.096405
0.133118 0.121948 0.095917
0.136932 0.121063 0.095215
0.141724 0.119934 0.094421
0.147797 0.118622 0.093567
0.155243 0.116638 0.092407
0.164795 0.114288 0.091064
0.176849 0.111145 0.089355
0.192230 0.109283 0.087250
0.211365 0.107147 0.084717
0.234741 0.104767 0.081909
0.262543 0.102142 0.078888
0.295166 0.099670 0.075928
0.332764 0.097473 0.073212
0.375580 0.096130 0.071259
0.422821 0.096313 0.070831
0.473572 0.096832 0.070831
0.526550 0.097992 0.070831
0.580566 0.099976 0.071106
0.634369 0.102509 0.072327
0.686462 0.105469 0.073853
0.735809 0.108795 0.075684
0.781250 0.112152 0.077545
0.821991 0.115601 0.079468
0.857483 0.118866 0.081299
0.887268 0.121948 0.082886
0.911865 0.126556 0.084259
0.932892 0.130890 0.085510
0.951782 0.135040 0.086700
0.124847 0.125031 0.096497
0.125763 0.124725 0.096191
0.127441 0.124451 0.095917
0.129669 0.123993 0.095520
0.132629 0.123505 0.095123
0.136536 0.122772 0.094421
0.141357 0.121643 0.093567
0.147400 0.120209 0.092590
0.155060 0.118469 0.091431
0.164673 0.116058 0.090027
0.177002 0.113922 0.088257
0.192627 0.112366 0.086121
0.212158 0.110352 0.083527
0.235962 0.108063 0.080719
0.264252 0.105621 0.077759
0.297455 0.103333 0.074951
0.335724 0.101562 0.072479
0.379181 0.100769 0.070831
0.426941 0.101471 0.070831
0.477966 0.102234 0.070831
0.531097 0.104034 0.070831
0.585114 0.106537 0.071442
0.638672 0.109619 0.072815
0.690521 0.113129 0.074493
0.739349 0.116943 0.076355
0.784241 0.120941 0.078339
0.824432 0.124878 0.080292
0.859375 0.128662 0.082153
0.888641 0.133575 0.083801
0.912842 0.138824 0.085205
0.933533 0.143768 0.086517
0.952087 0.148346 0.087708
0.123779 0.126984 0.095520
0.125061 0.126984 0.095306
0.126801 0.126617 0.094910
0.129211 0.126221 0.094513
0.132263 0.125610 0.094055
0.135834 0.124573 0.093353
0.140869 0.123749 0.092590
0.146942 0.122375 0.091522
0.154633 0.120575 0.090302
0.164490 0.118561 0.088806
0.176971 0.117554 0.087006
0.192932 0.116089 0.084808
0.212860 0.114166 0.082214
0.237091 0.112030 0.079468
0.265930 0.109833 0.076599
0.299805 0.107880 0.073944
0.338959 0.106567 0.071747
0.383057 0.106689 0.070831
0.431305 0.107697 0.070831
0.482605 0.109039 0.070831
0.535828 0.111359 0.070831
0.589844 0.114563 0.071899
0.643188 0.118286 0.073395
0.694733 0.122528 0.075226
0.743103 0.127075 0.077240
0.787445 0.131714 0.079315
0.827087 0.136414 0.081360
0.861420 0.141449 0.083252
0.890167 0.148010 0.084930
0.913910 0.153992 0.086395
0.934265 0.159637 0.087738
0.952484 0.164825 0.088928
0.122498 0.129456 0.094330
0.123901 0.129395 0.094055
0.125793 0.129089 0.093658
0.128326 0.128571 0.093170
0.131592 0.128082 0.092682
0.135315 0.127106 0.092010
0.139954 0.125977 0.091248
0.146210 0.124786 0.090210
0.153992 0.123291 0.088898
0.163940 0.122742 0.087341
0.176697 0.121826 0.085480
0.193024 0.120483 0.083282
0.213348 0.118774 0.080719
0.238098 0.116821 0.077972
0.267639 0.114929 0.075287
0.302277 0.113495 0.072876
0.342438 0.112885 0.071075
0.387146 0.113953 0.070831
0.435852 0.115265 0.070831
0.487518 0.117462 0.070831
0.540955 0.120667 0.071198
0.594910 0.124603 0.072510
0.648102 0.129211 0.074188
0.699249 0.134338 0.076202
0.747101 0.139709 0.078308
0.790894 0.145325 0.080505
0.829895 0.150818 0.082611
0.863647 0.158630 0.084595
0.891846 0.166199 0.086365
0.915161 0.173035 0.087860
0.935059 0.179413 0.089233
0.952972 0.185547 0.090485
0.121033 0.132690 0.092987
0.122498 0.132538 0.092590
0.124573 0.132141 0.092102
0.127258 0.131775 0.091614
0.130524 0.131134 0.091064
0.134430 0.130096 0.090302
0.139313 0.129120 0.089569
0.145172 0.128296 0.088623
0.153015 0.128174 0.087250
0.163177 0.127777 0.085663
0.176208 0.127075 0.083771
0.192871 0.125854 0.081512
0.213684 0.124390 0.079010
0.239044 0.122803 0.076416
0.269470 0.121460 0.073944
0.305084 0.120667 0.071838
0.346130 0.121246 0.070831
0.391663 0.122986 0.070831
0.440887 0.124939 0.070831
0.492920 0.128204 0.070831
0.546570 0.132385 0.071808
0.600555 0.137451 0.073364
0.653412 0.143097 0.075226
0.704193 0.149384 0.077423
0.751587 0.155975 0.079712
0.794769 0.162720 0.082031
0.833069 0.171265 0.084259
0.866150 0.180511 0.086304
0.893768 0.189026 0.088104
0.916565 0.196808 0.089691
0.936066 0.204224 0.091095
0.953552 0.211243 0.092377
0.119110 0.136353 0.091156
0.120697 0.136078 0.090668
0.122894 0.135864 0.090210
0.125702 0.135406 0.089630
0.129089 0.134949 0.088989
0.133179 0.134949 0.088257
0.138184 0.134857 0.087433
0.144257 0.134552 0.086456
0.151794 0.134094 0.085327
0.162109 0.133911 0.083710
0.175385 0.133392 0.081757
0.192566 0.132507 0.079529
0.213959 0.131409 0.077118
0.240173 0.130371 0.074707
0.271484 0.129700 0.072540
0.308380 0.129944 0.070923
0.350311 0.131989 0.070831
0.396637 0.134216 0.070831
0.446472 0.137573 0.070831
0.498932 0.142059 0.071289
0.552765 0.147491 0.072662
0.606750 0.153870 0.074493
0.659485 0.161041 0.076660
0.709686 0.168640 0.079010
0.756500 0.176636 0.081482
0.798950 0.186096 0.083923
0.836578 0.197052 0.086273
0.868927 0.207306 0.088379
0.895905 0.216949 0.090271
0.918121 0.225586 0.091827
0.937164 0.233917 0.093292
0.954254 0.241852 0.094604
0.116760 0.141144 0.088898
0.118530 0.141663 0.088440
0.120880 0.142059 0.087891
0.123749 0.142365 0.087250
0.127228 0.142548 0.086548
0.131439 0.142670 0.085754
0.136658 0.142670 0.084900
0.142944 0.142487 0.083862
0.150818 0.142090 0.082703
0.160767 0.141571 0.081421
0.174408 0.141327 0.079468
0.192139 0.140869 0.077301
0.214325 0.140381 0.075104
0.241486 0.140076 0.072968
0.274231 0.140533 0.071259
0.312225 0.142731 0.070831
0.355164 0.145508 0.070831
0.402313 0.148926 0.070831
0.452881 0.153839 0.070953
0.505829 0.159790 0.072205
0.559875 0.166901 0.073914
0.613739 0.174866 0.076019
0.666168 0.183655 0.078461
0.715881 0.192902 0.081055
0.761963 0.203369 0.083679
0.803650 0.215912 0.086273
0.840424 0.227875 0.088684
0.871948 0.238983 0.090820
0.898163 0.249359 0.092682
0.919830 0.258942 0.094330
0.938385 0.267792 0.095703
0.954987 0.276367 0.097015
0.113892 0.149994 0.086121
0.115814 0.150635 0.085571
0.118195 0.151154 0.084961
0.121216 0.151611 0.084290
0.124817 0.151978 0.083527
0.129272 0.152252 0.082703
0.134644 0.152435 0.081818
0.141296 0.152435 0.080811
0.149628 0.152283 0.079681
0.160095 0.151917 0.078400
0.173370 0.151337 0.076904
0.191742 0.151459 0.074890
0.215027 0.151886 0.072998
0.243713 0.152832 0.071381
0.277679 0.155426 0.070831
0.316895 0.158752 0.070831
0.360962 0.162567 0.070831
0.408997 0.167908 0.070831
0.460327 0.174500 0.071899
0.513702 0.182281 0.073547
0.567871 0.191132 0.075592
0.621613 0.200928 0.078064
0.673553 0.211456 0.080719
0.722656 0.223145 0.083557
0.767883 0.236969 0.086304
0.808655 0.250488 0.088959
0.844543 0.263336 0.091431
0.875153 0.275024 0.093536
0.900574 0.285919 0.095367
0.921600 0.295959 0.096954
0.939606 0.305267 0.098267
0.955750 0.314270 0.099487
0.110504 0.161041 0.082703
0.112579 0.161896 0.082153
0.115143 0.162628 0.081512
0.118286 0.163300 0.080811
0.122101 0.163879 0.080048
0.126740 0.164429 0.079224
0.132385 0.164795 0.078308
0.139465 0.165131 0.077362
0.148315 0.165253 0.076294
0.159576 0.165314 0.075104
0.173920 0.165161 0.073853
0.192017 0.165131 0.072571
0.216858 0.166931 0.071228
0.246918 0.170258 0.070831
0.282349 0.174164 0.070831
0.322784 0.178436 0.070831
0.367950 0.184418 0.070831
0.416992 0.191620 0.071747
0.468903 0.200134 0.073334
0.522705 0.209869 0.075378
0.576935 0.220734 0.077850
0.630310 0.232422 0.080566
0.681732 0.245361 0.083527
0.729950 0.260498 0.086487
0.774261 0.275299 0.089355
0.813934 0.289368 0.092010
0.848724 0.302490 0.094360
0.878418 0.314636 0.096436
0.903015 0.325653 0.098145
0.923340 0.335754 0.099548
0.940796 0.345123 0.100739
0.956421 0.354126 0.101807
0.106903 0.174896 0.078888
0.109131 0.175873 0.078247
0.111938 0.176941 0.077637
0.115326 0.177887 0.076996
0.119385 0.178741 0.076233
0.124359 0.179657 0.075500
0.130493 0.180450 0.074707
0.138184 0.181274 0.073944
0.147888 0.181976 0.073059
0.160217 0.182770 0.072205
0.176208 0.183655 0.071350
0.196014 0.185089 0.070831
0.220001 0.187286 0.070831
0.251526 0.191772 0.070831
0.288330 0.196808 0.070831
0.330078 0.203430 0.070831
0.376373 0.211365 0.071777
0.426300 0.220642 0.073334
0.478882 0.231262 0.075348
0.532928 0.243134 0.077850
0.587006 0.255981 0.080627
0.639923 0.270142 0.083649
0.690460 0.286255 0.086731
0.737671 0.302124 0.089752
0.780762 0.317322 0.092621
0.819305 0.331573 0.095184
0.852966 0.344635 0.097412
0.881622 0.356567 0.099274
0.905334 0.367279 0.100769
0.924988 0.377197 0.102051
0.941895 0.386871 0.104614
0.957123 0.396362 0.107025
0.103668 0.192047 0.074951
0.106201 0.193420 0.074402
0.109344 0.194885 0.073883
0.113098 0.196259 0.073303
0.117645 0.197754 0.072784
0.123199 0.199280 0.072266
0.130127 0.200775 0.071716
0.138794 0.202362 0.071228
0.149536 0.204285 0.070831
0.163330 0.206726 0.070831
0.180725 0.209229 0.070831
0.202209 0.211731 0.070831
0.227844 0.214264 0.070831
0.257812 0.217804 0.070831
0.295990 0.225220 0.070923
0.339142 0.233978 0.071991
0.386444 0.243988 0.073547
0.437225 0.255493 0.075592
0.490234 0.268311 0.078064
0.544159 0.282166 0.080841
0.597931 0.297546 0.083923
0.650085 0.314362 0.087097
0.699585 0.330963 0.090271
0.745544 0.347015 0.093262
0.787354 0.362061 0.095978
0.824554 0.375885 0.098358
0.856964 0.388336 0.100281
0.884521 0.399536 0.101868
0.907471 0.410278 0.104858
0.926605 0.420624 0.107727
0.943085 0.430725 0.110474
0.957855 0.440613 0.113068
0.101959 0.214142 0.071686
0.105042 0.216248 0.071381
0.108704 0.218353 0.071075
0.113007 0.220642 0.070831
0.118256 0.223328 0.070831
0.124512 0.226013 0.070831
0.132202 0.228729 0.070831
0.141785 0.231476 0.070831
0.153748 0.234253 0.070831
0.168854 0.237000 0.070831
0.187805 0.240204 0.070831
0.210876 0.244080 0.070831
0.238190 0.248535 0.070831
0.269775 0.253662 0.071472
0.305664 0.259674 0.072418
0.349945 0.270538 0.074005
0.398346 0.282898 0.076050
0.449646 0.296539 0.078522
0.502869 0.311371 0.081360
0.556580 0.327728 0.084473
0.609558 0.344971 0.087708
0.660583 0.361908 0.090881
0.708771 0.378448 0.093964
0.753326 0.393982 0.096802
0.793610 0.408142 0.099213
0.829346 0.420837 0.101196
0.860596 0.432709 0.104126
0.887390 0.444092 0.107666
0.909668 0.455078 0.110992
0.928223 0.465668 0.114014
0.944275 0.475861 0.116821
0.958618 0.485901 0.119507
0.102722 0.244690 0.070831
0.106293 0.247528 0.070831
0.110474 0.250488 0.070831
0.115417 0.253418 0.070831
0.121246 0.256409 0.070831
0.128235 0.259369 0.070831
0.136841 0.262695 0.070831
0.147369 0.266327 0.070831
0.160553 0.270203 0.070831
0.177124 0.274475 0.070831
0.197601 0.279114 0.071167
0.222351 0.284485 0.071777
0.251404 0.290527 0.072632
0.284607 0.297363 0.073761
0.321869 0.305023 0.075134
0.362793 0.313629 0.076813
0.411865 0.328064 0.079315
0.463379 0.343597 0.082123
0.516388 0.360474 0.085205
0.569489 0.377838 0.088470
0.621460 0.395081 0.091705
0.671143 0.411591 0.094788
0.717712 0.427155 0.097626
0.760559 0.441406 0.100067
0.799225 0.454132 0.102203
0.833862 0.466522 0.106384
0.864258 0.478485 0.110382
0.890259 0.489899 0.114136
0.911865 0.500916 0.117554
0.929871 0.511444 0.120636
0.945435 0.521667 0.123566
0.959381 0.531708 0.126343
0.105804 0.281647 0.070831
0.109955 0.285217 0.070831
0.114716 0.288879 0.070831
0.120239 0.292725 0.070831
0.126801 0.296631 0.070831
0.134583 0.300751 0.070892
0.144104 0.305115 0.071198
0.155731 0.309692 0.071533
0.170258 0.314667 0.071991
0.188324 0.320068 0.072601
0.210480 0.326202 0.073395
0.236877 0.333008 0.074402
0.267334 0.340485 0.075592
0.301910 0.348816 0.077118
0.340424 0.358154 0.078888
0.382172 0.368256 0.080933
0.426727 0.379120 0.083221
0.478149 0.395966 0.086273
0.530609 0.413116 0.089478
0.582550 0.430023 0.092651
0.633087 0.446350 0.095703
0.681091 0.461731 0.098511
0.725861 0.475555 0.100861
0.767029 0.488464 0.104187
0.804657 0.501038 0.108704
0.838379 0.513245 0.113068
0.867950 0.524994 0.117218
0.893097 0.536163 0.121002
0.914062 0.546967 0.124451
0.931549 0.557220 0.127594
0.946625 0.567261 0.130554
0.960144 0.576660 0.133301
0.111328 0.327393 0.071442
0.116028 0.331696 0.071655
0.121460 0.336121 0.071930
0.127716 0.340668 0.072266
0.135040 0.345428 0.072632
0.143646 0.350372 0.073029
0.154144 0.355530 0.073517
0.166962 0.361084 0.074066
0.182831 0.367157 0.074799
0.202454 0.373749 0.075714
0.226166 0.381042 0.076782
0.253906 0.389008 0.078094
0.285767 0.397827 0.079651
0.321472 0.407410 0.081451
0.360809 0.417755 0.083527
0.403015 0.428314 0.085754
0.447418 0.439240 0.088165
0.493286 0.450409 0.090668
0.544617 0.466766 0.093781
0.595245 0.482574 0.096771
0.643921 0.497253 0.099426
0.689911 0.510529 0.101685
0.733246 0.523407 0.106201
0.773407 0.535980 0.110992
0.810059 0.548096 0.115601
0.842834 0.559967 0.120117
0.871521 0.571320 0.124329
0.895966 0.582153 0.128143
0.916229 0.592468 0.131561
0.933167 0.602386 0.134735
0.947784 0.612000 0.137665
0.960876 0.619995 0.140198
0.119324 0.381500 0.074005
0.124695 0.386475 0.074402
0.130707 0.391510 0.074799
0.137634 0.396667 0.075256
0.145660 0.402008 0.075775
0.155243 0.407684 0.076355
0.166718 0.413635 0.077026
0.180725 0.419922 0.077789
0.197968 0.426819 0.078735
0.218933 0.434235 0.079834
0.243988 0.442413 0.081146
0.273071 0.451355 0.082733
0.305969 0.460358 0.084503
0.342438 0.469757 0.086487
0.382080 0.479706 0.088623
0.424103 0.489716 0.090881
0.468018 0.500061 0.093262
0.512909 0.510223 0.095642
0.557953 0.519958 0.097900
0.606659 0.533722 0.100403
0.653351 0.546387 0.103363
0.698212 0.558960 0.108307
0.740509 0.571320 0.113281
0.779694 0.583282 0.118134
0.815399 0.594879 0.122894
0.847229 0.606079 0.127380
0.875061 0.616821 0.131561
0.898712 0.627045 0.135345
0.918335 0.636780 0.138763
0.934753 0.646118 0.141815
0.948883 0.654694 0.144592
0.961609 0.661530 0.146942
0.129456 0.443115 0.077789
0.135345 0.448395 0.078278
0.142090 0.453857 0.078827
0.149628 0.459473 0.079376
0.158508 0.465332 0.080017
0.168884 0.471344 0.080719
0.181305 0.477692 0.081512
0.196472 0.484497 0.082458
0.214874 0.491394 0.083527
0.237183 0.498688 0.084808
0.263367 0.506378 0.086273
0.293243 0.514496 0.087921
0.326721 0.523010 0.089722
0.363556 0.531921 0.091705
0.403168 0.541077 0.093811
0.444641 0.550140 0.095947
0.487427 0.559021 0.098053
0.530731 0.567444 0.100006
0.573792 0.575226 0.101776
0.616608 0.582916 0.105499
0.662476 0.594971 0.110504
0.706329 0.606842 0.115601
0.747650 0.618347 0.120636
0.785889 0.629639 0.125610
0.820587 0.640472 0.130341
0.851532 0.650940 0.134796
0.878479 0.660797 0.138824
0.901398 0.670349 0.142578
0.920410 0.679291 0.145813
0.936310 0.687897 0.148743
0.949921 0.694733 0.151184
0.962311 0.700867 0.153442
0.140991 0.509857 0.082489
0.147552 0.515228 0.083069
0.154877 0.520447 0.083679
0.163025 0.525635 0.084290
0.172577 0.531097 0.084991
0.183655 0.536591 0.085754
0.197113 0.542419 0.086639
0.213165 0.548462 0.087616
0.232666 0.554871 0.088745
0.255920 0.561676 0.090057
0.282837 0.568787 0.091522
0.313232 0.576263 0.093140
0.347015 0.583954 0.094879
0.383667 0.591705 0.096680
0.422546 0.599426 0.098511
0.462952 0.606842 0.100250
0.504150 0.613831 0.101898
0.546173 0.620941 0.105621
0.588409 0.628113 0.109619
0.630310 0.635284 0.113739
0.671417 0.642456 0.118011
0.714264 0.653320 0.123077
0.754608 0.663940 0.128143
0.791870 0.674286 0.133087
0.825653 0.684204 0.137726
0.855682 0.693695 0.142029
0.881805 0.702728 0.145935
0.904022 0.711304 0.149475
0.922424 0.719513 0.152649
0.937714 0.726807 0.155304
0.950867 0.732330 0.157471
0.962982 0.737732 0.159576
0.153198 0.574921 0.087708
0.160217 0.579742 0.088287
0.168091 0.584595 0.088928
0.176849 0.589355 0.089539
0.186859 0.594299 0.090210
0.198792 0.599426 0.091003
0.212769 0.604584 0.091827
0.229736 0.610138 0.092804
0.250031 0.615845 0.093903
0.273895 0.621826 0.095123
0.301270 0.628052 0.096466
0.331757 0.634369 0.097900
0.365387 0.640808 0.099396
0.401276 0.646942 0.100830
0.439178 0.653046 0.102692
0.478760 0.659332 0.106140
0.519653 0.665710 0.109863
0.561035 0.672180 0.113800
0.602539 0.678680 0.117950
0.643524 0.685120 0.122131
0.683502 0.691559 0.126434
0.721954 0.697845 0.130676
0.761353 0.707458 0.135681
0.797607 0.716644 0.140381
0.830475 0.725525 0.144867
0.859650 0.734009 0.149017
0.885040 0.742096 0.152771
0.906494 0.749725 0.156067
0.924316 0.756958 0.158997
0.938965 0.762421 0.161316
0.951813 0.767242 0.163330
0.963623 0.771912 0.165222
0.165131 0.637146 0.092926
0.172516 0.641296 0.093445
0.180725 0.645508 0.094025
0.189880 0.649719 0.094604
0.200409 0.653992 0.095215
0.212708 0.658356 0.095917
0.227448 0.662903 0.096680
0.244904 0.667480 0.097504
0.265839 0.672363 0.098480
0.290070 0.677277 0.099487
0.317383 0.682251 0.100586
0.347534 0.687256 0.101715
0.380920 0.692444 0.104248
0.416779 0.697784 0.107300
0.454712 0.703247 0.110657
0.494141 0.708893 0.114258
0.534546 0.714569 0.118073
0.575409 0.720306 0.122131
0.616089 0.725983 0.126221
0.656128 0.731720 0.130463
0.695099 0.737366 0.134735
0.732422 0.742828 0.138824
0.767792 0.748199 0.142914
0.803162 0.756287 0.147491
0.835114 0.764038 0.151733
0.863464 0.771484 0.155640
0.888092 0.778473 0.159119
0.908936 0.785126 0.162170
0.926025 0.790985 0.164795
0.940216 0.795166 0.166809
0.952728 0.799225 0.168640
0.964264 0.803192 0.170349
0.175537 0.694397 0.097595
0.183289 0.697906 0.098053
0.191772 0.701385 0.098511
0.201233 0.704865 0.098969
0.212097 0.708405 0.099487
0.224823 0.712006 0.100067
0.239777 0.715515 0.100616
0.257660 0.719269 0.101288
0.278839 0.723053 0.102203
0.303436 0.727142 0.104187
0.331055 0.731354 0.106445
0.361847 0.735748 0.109100
0.395569 0.740295 0.111969
0.431702 0.744995 0.115204
0.469574 0.749786 0.118622
0.508820 0.754639 0.122345
0.548859 0.759583 0.126221
0.589050 0.764496 0.130188
0.629028 0.769440 0.134308
0.668243 0.774353 0.138489
0.706116 0.779144 0.142578
0.742401 0.783844 0.146606
0.776611 0.788422 0.150452
0.808441 0.792786 0.154083
0.839569 0.799377 0.158051
0.867126 0.805695 0.161682
0.890991 0.811676 0.164917
0.911163 0.817322 0.167694
0.927521 0.821442 0.169891
0.941345 0.824921 0.171692
0.953674 0.828674 0.173920
0.965302 0.833710 0.178131
0.183746 0.745636 0.101288
0.191681 0.748383 0.101624
0.200409 0.751190 0.102051
0.210083 0.753937 0.102875
0.221313 0.756836 0.103882
0.234436 0.759735 0.104919
0.250061 0.762787 0.106201
0.268646 0.765900 0.107666
0.290680 0.769226 0.109467
0.316010 0.772705 0.111572
0.344177 0.776276 0.113953
0.375488 0.779999 0.116608
0.409637 0.783875 0.119629
0.445862 0.787903 0.122894
0.483734 0.791962 0.126343
0.522736 0.796051 0.130066
0.562439 0.800232 0.133972
0.602020 0.804352 0.137878
0.641327 0.808502 0.141876
0.679657 0.812622 0.145935
0.716614 0.816620 0.149872
0.751801 0.820526 0.153687
0.784912 0.824249 0.157288
0.815643 0.827881 0.160706
0.843781 0.831360 0.163818
0.870605 0.836609 0.167175
0.893768 0.841522 0.170074
0.913208 0.845856 0.172516
0.929535 0.850189 0.176697
0.943604 0.854736 0.180969
0.955872 0.859039 0.184692
0.966919 0.863098 0.187988
0.190399 0.791290 0.107483
0.198730 0.793549 0.108185
0.207794 0.795807 0.108948
0.217957 0.798096 0.109802
0.229706 0.800415 0.110779
0.243439 0.802826 0.111908
0.259705 0.805298 0.113159
0.279114 0.807892 0.114746
0.301880 0.810577 0.116547
0.327850 0.813477 0.118683
0.356628 0.816437 0.121124
0.388428 0.819489 0.123840
0.422913 0.822723 0.126923
0.459290 0.825989 0.130127
0.497192 0.829346 0.133636
0.536041 0.832733 0.137329
0.575226 0.836121 0.141083
0.614349 0.839508 0.144928
0.652893 0.842896 0.148804
0.690399 0.846222 0.152649
0.726471 0.849457 0.156403
0.760651 0.852600 0.159943
0.792786 0.855621 0.163330
0.822418 0.858551 0.166473
0.849487 0.861328 0.169312
0.873840 0.863953 0.171906
0.897339 0.869263 0.177124
0.916901 0.874023 0.182404
0.932861 0.877960 0.186554
0.946289 0.881592 0.190125
0.957916 0.884949 0.193207
0.968384 0.888062 0.195984
0.196320 0.831787 0.114136
0.205017 0.833496 0.114807
0.214569 0.835266 0.115601
0.225128 0.837036 0.116394
0.237335 0.838837 0.117340
0.251740 0.840729 0.118500
0.268646 0.842682 0.119781
0.288818 0.844727 0.121307
0.312347 0.846863 0.123169
0.338928 0.849121 0.125336
0.368347 0.851501 0.127808
0.400665 0.853943 0.130554
0.435425 0.856506 0.133575
0.471985 0.859100 0.136780
0.509827 0.861755 0.140259
0.548492 0.864471 0.143860
0.587372 0.867188 0.147552
0.625946 0.869873 0.151276
0.663788 0.872498 0.154907
0.700500 0.875092 0.158569
0.735687 0.877655 0.162048
0.768982 0.880127 0.165375
0.800049 0.882507 0.168518
0.828705 0.884735 0.171356
0.855713 0.887665 0.175690
0.880829 0.891479 0.181641
0.902313 0.894836 0.186554
0.920715 0.898254 0.190826
0.935913 0.901276 0.194427
0.948669 0.904053 0.197540
0.959717 0.906555 0.200409
0.969666 0.908936 0.203094
0.201508 0.866577 0.120239
0.210632 0.867889 0.120911
0.220490 0.869141 0.121582
0.231506 0.870422 0.122406
0.244263 0.871765 0.123352
0.259125 0.873138 0.124390
0.276794 0.874603 0.125671
0.297760 0.876129 0.127258
0.321991 0.877747 0.129089
0.349213 0.879486 0.131287
0.379150 0.881287 0.133759
0.412079 0.883179 0.136505
0.447174 0.885132 0.139526
0.483856 0.887115 0.142700
0.521698 0.889160 0.146088
