Scenic Moods/Striped Purple - Philly Fog.cube
#Created by: Adobe Photoshop Export Color Lookup Plugin
#Copyright: (C) Copyright 2019 © 2019 Austin Barrett - Striped Purple
TITLE "Striped Purple - Philly Fog"
#LUT size
LUT_3D_SIZE 16
#data domain
DOMAIN_MIN 0.0 0.0 0.0
DOMAIN_MAX 1.0 1.0 1.0
#LUT data points
0.097809 0.114349 0.129425
0.107330 0.116058 0.129364
0.122742 0.118195 0.128540
0.152191 0.122131 0.126678
0.204132 0.130066 0.124634
0.270264 0.142365 0.124939
0.347534 0.158661 0.128174
0.429047 0.178009 0.134430
0.504944 0.197479 0.142151
0.561981 0.212952 0.148895
0.632202 0.231659 0.157990
0.692963 0.248413 0.166504
0.745056 0.262970 0.174164
0.785034 0.274200 0.180206
0.785126 0.275146 0.179932
0.785065 0.275116 0.179718
0.102966 0.124817 0.135468
0.112061 0.123901 0.132751
0.131775 0.128540 0.130951
0.163696 0.133057 0.128754
0.217712 0.140869 0.126648
0.288696 0.153351 0.126923
0.370209 0.170074 0.130615
0.455505 0.189819 0.137390
0.531067 0.209320 0.145569
0.587738 0.225189 0.152618
0.655365 0.243347 0.161652
0.712311 0.258942 0.169769
0.760254 0.272308 0.176880
0.785645 0.279846 0.180634
0.785675 0.280518 0.180389
0.785614 0.280212 0.180206
0.109314 0.141968 0.144806
0.117676 0.145721 0.142853
0.129608 0.140350 0.141479
0.176605 0.150635 0.134186
0.233368 0.160706 0.130890
0.304504 0.172394 0.131134
0.386505 0.187653 0.134491
0.479004 0.206909 0.141205
0.556244 0.225922 0.149506
0.613647 0.242828 0.157013
0.675751 0.259033 0.165405
0.727478 0.273193 0.172882
0.770325 0.284973 0.179291
0.786774 0.290375 0.181641
0.786804 0.291107 0.181458
0.786743 0.290802 0.181274
0.121246 0.174438 0.159973
0.133362 0.181244 0.157715
0.143677 0.182892 0.156006
0.183411 0.169312 0.143402
0.249359 0.189117 0.140778
0.326965 0.206726 0.138489
0.413605 0.222229 0.140961
0.509369 0.240051 0.147614
0.587341 0.257660 0.155762
0.647247 0.273376 0.163666
0.703491 0.287628 0.171448
0.750458 0.300110 0.178284
0.787476 0.309875 0.183807
0.789093 0.311584 0.183838
0.789124 0.312042 0.183685
0.789032 0.311127 0.183472
0.143158 0.226807 0.180908
0.158081 0.235992 0.178467
0.170685 0.245453 0.174988
0.188232 0.216888 0.167877
0.254517 0.215088 0.154785
0.340363 0.243378 0.154633
0.433807 0.267944 0.155182
0.532288 0.289276 0.156860
0.617828 0.306091 0.164948
0.682404 0.320007 0.172729
0.733276 0.331207 0.179688
0.774139 0.341522 0.185638
0.793457 0.346649 0.188354
0.793549 0.347717 0.188202
0.793549 0.348083 0.188049
0.793365 0.346558 0.187897
0.171112 0.291992 0.207977
0.188873 0.301910 0.204285
0.205109 0.315796 0.200104
0.220734 0.314484 0.198547
0.257996 0.270172 0.186096
0.345337 0.274384 0.172180
0.443787 0.309753 0.175812
0.545135 0.339905 0.179688
0.634064 0.362366 0.182373
0.710480 0.380585 0.185974
0.763306 0.391144 0.190704
0.797913 0.398651 0.195557
0.800964 0.400146 0.195770
0.800964 0.400330 0.195557
0.800903 0.400208 0.195435
0.801331 0.402283 0.196564
0.216644 0.375732 0.245453
0.224884 0.386139 0.241730
0.248474 0.409943 0.234161
0.261688 0.413818 0.233215
0.291992 0.365021 0.216827
0.345306 0.332092 0.208954
0.452209 0.346375 0.195709
0.552277 0.384186 0.202393
0.645630 0.416351 0.208557
0.717194 0.436859 0.212585
0.766235 0.449799 0.215851
0.798462 0.458710 0.218475
0.798462 0.458923 0.218384
0.798401 0.458527 0.218231
0.799103 0.457031 0.216888
0.798645 0.459808 0.219208
0.277954 0.469421 0.288055
0.283325 0.477570 0.284454
0.296661 0.498047 0.274963
0.310791 0.510071 0.262878
0.325012 0.520844 0.271210
0.365112 0.415863 0.242096
0.440033 0.398499 0.236206
0.550507 0.421051 0.225586
0.638123 0.457367 0.234009
0.719727 0.490570 0.244049
0.766785 0.507385 0.250000
0.795807 0.517029 0.252777
0.795197 0.518311 0.254089
0.795197 0.518311 0.254089
0.795898 0.517242 0.252899
0.795593 0.515900 0.252380
0.336853 0.559326 0.332336
0.342957 0.568665 0.328400
0.352386 0.583038 0.318329
0.368286 0.606659 0.302551
0.375153 0.617889 0.312073
0.403442 0.553223 0.285431
0.453369 0.482971 0.269501
0.533875 0.465820 0.265442
0.635101 0.493805 0.259583
0.709839 0.528809 0.272156
0.766205 0.556396 0.282471
0.796143 0.571411 0.288483
0.796204 0.574799 0.290771
0.795624 0.575623 0.292023
0.795624 0.575623 0.292023
0.795532 0.569244 0.287598
0.391418 0.642731 0.377747
0.397247 0.651611 0.373810
0.405609 0.664307 0.361572
0.416321 0.680847 0.348419
0.420929 0.684235 0.330872
0.430481 0.700256 0.343872
0.480835 0.585297 0.306580
0.540863 0.547546 0.296967
0.617676 0.532745 0.295990
0.705231 0.563263 0.298676
0.757324 0.591095 0.310211
0.793823 0.613129 0.319885
0.798492 0.622559 0.326141
0.799774 0.626282 0.327850
0.799408 0.627441 0.329285
0.798279 0.617310 0.321930
0.437988 0.713867 0.421082
0.443054 0.721558 0.416901
0.450958 0.733643 0.401398
0.458130 0.744629 0.388397
0.467651 0.755188 0.364227
0.473511 0.766510 0.377777
0.493652 0.735229 0.361389
0.548218 0.620117 0.329865
0.620300 0.606415 0.322968
0.689240 0.596710 0.329407
0.753754 0.622070 0.335907
0.787933 0.643280 0.344482
0.802856 0.657349 0.352631
0.804535 0.665466 0.358429
0.804535 0.669128 0.362152
0.803223 0.658173 0.353027
0.478088 0.775177 0.463287
0.482117 0.781250 0.458649
0.488953 0.791748 0.440552
0.494385 0.800018 0.426758
0.502258 0.812042 0.407166
0.506104 0.810364 0.376343
0.513031 0.820465 0.399536
0.573761 0.721130 0.364258
0.622498 0.668671 0.351044
0.689667 0.659454 0.350830
0.746063 0.654480 0.358215
0.784210 0.668335 0.366730
0.806183 0.684174 0.374268
0.808990 0.691864 0.380157
0.811829 0.700714 0.384766
0.807800 0.688965 0.378723
0.510742 0.824921 0.503326
0.513702 0.829529 0.498566
0.519135 0.837830 0.478241
0.523285 0.844208 0.461945
0.528503 0.852081 0.443054
0.532043 0.854065 0.414276
0.537415 0.853851 0.415344
0.555054 0.852081 0.419098
0.628143 0.726807 0.377625
0.685455 0.707733 0.368744
0.745087 0.702515 0.374481
0.783875 0.701202 0.380249
0.809357 0.710052 0.387451
0.819489 0.719971 0.392487
0.822296 0.726868 0.395264
0.819519 0.720093 0.392517
0.533051 0.859039 0.540283
0.535065 0.862091 0.535553
0.538879 0.868011 0.513214
0.542023 0.872681 0.494781
0.545227 0.877563 0.474304
0.549164 0.883545 0.448730
0.554779 0.875854 0.421906
0.562256 0.882416 0.436005
0.633209 0.794739 0.404114
0.677948 0.741241 0.388550
0.736786 0.735718 0.384827
0.782257 0.733917 0.391205
0.809418 0.733612 0.395447
0.824341 0.738342 0.399475
0.829132 0.743622 0.402069
0.827789 0.740387 0.400726
0.544800 0.877014 0.572327
0.546112 0.878967 0.566193
0.548828 0.883087 0.543243
0.551056 0.886566 0.522675
0.553406 0.890076 0.500793
0.555847 0.893799 0.476105
0.560883 0.894501 0.442169
0.575317 0.888367 0.443939
0.591675 0.881958 0.450714
0.670441 0.768799 0.405640
0.723267 0.754059 0.395081
0.775299 0.750977 0.396057
0.805756 0.750580 0.400665
0.823883 0.750153 0.403412
0.831299 0.752441 0.405426
0.830994 0.751740 0.405121
0.550659 0.885956 0.612549
0.551392 0.887085 0.607513
0.552948 0.889435 0.588806
0.554840 0.892303 0.563446
0.556793 0.895325 0.538147
0.558258 0.897491 0.517944
0.559601 0.899536 0.498871
0.572632 0.902924 0.471008
0.600098 0.890320 0.470001
0.650574 0.831879 0.438904
0.688477 0.766968 0.410217
0.747559 0.760956 0.397644
0.793365 0.759644 0.401855
0.816467 0.759308 0.405365
0.828430 0.758942 0.407166
0.833649 0.758942 0.408051
0.099640 0.116455 0.136017
0.108734 0.115082 0.138184
0.127625 0.114136 0.134308
0.159912 0.114166 0.130554
0.211548 0.122437 0.131104
0.280060 0.139160 0.135559
0.359406 0.159576 0.142883
0.443756 0.179779 0.148285
0.528748 0.201263 0.155060
0.607300 0.222046 0.163361
0.674896 0.240326 0.172119
0.731415 0.256042 0.180054
0.775513 0.268555 0.186279
0.785675 0.272095 0.187195
0.785675 0.272705 0.186401
0.785522 0.273193 0.184937
0.103027 0.122681 0.136932
0.108978 0.125153 0.139923
0.126038 0.127441 0.139099
0.157104 0.131653 0.137207
0.210846 0.139526 0.134766
0.283997 0.152191 0.133881
0.369965 0.169556 0.136322
0.468628 0.191742 0.142487
0.568756 0.216217 0.151611
0.637299 0.234619 0.159485
0.702911 0.252197 0.168304
0.754364 0.266418 0.175690
0.785156 0.275360 0.180298
0.785248 0.275970 0.180023
0.785156 0.276093 0.179810
0.785797 0.279053 0.182800
0.109680 0.137695 0.145508
0.115997 0.142578 0.150574
0.130890 0.141754 0.147064
0.171143 0.150146 0.141541
0.226379 0.157959 0.138214
0.298615 0.169189 0.137115
0.381195 0.184631 0.139404
0.478851 0.205017 0.145050
0.575958 0.227600 0.153687
0.650787 0.247040 0.162048
0.713654 0.263214 0.170563
0.761963 0.276306 0.177521
0.785980 0.283386 0.181061
0.786072 0.284210 0.180786
0.786072 0.284363 0.180634
0.786530 0.287262 0.182220
0.119293 0.166077 0.160889
0.126129 0.175262 0.169495
0.143036 0.184021 0.167358
0.179749 0.171173 0.152252
0.244324 0.189117 0.148224
0.321075 0.204224 0.144196
0.407806 0.218475 0.145752
0.505188 0.236267 0.150848
0.596497 0.255920 0.158783
0.667175 0.272369 0.166992
0.725922 0.286011 0.174683
0.772430 0.296936 0.181030
0.787842 0.300537 0.182770
0.787811 0.300751 0.182495
0.787781 0.300629 0.182343
0.788574 0.306213 0.184448
0.135529 0.216187 0.186920
0.146667 0.228455 0.194427
0.168396 0.241272 0.191437
0.189423 0.229218 0.179749
0.250580 0.217224 0.164062
0.336853 0.244354 0.161926
0.428741 0.265930 0.159576
0.527283 0.285675 0.160339
0.614624 0.302429 0.167297
0.687622 0.316986 0.174988
0.742798 0.327972 0.181915
0.785095 0.336823 0.187439
0.792297 0.337219 0.187653
0.791962 0.335449 0.186829
0.791718 0.333466 0.186218
0.793243 0.343750 0.189728
0.156433 0.281311 0.223419
0.174591 0.293213 0.224213
0.200104 0.308777 0.219849
0.220184 0.323761 0.214935
0.255310 0.274719 0.196930
0.341583 0.276459 0.180695
0.441040 0.311188 0.182312
0.541321 0.338226 0.182617
0.631165 0.359894 0.184082
0.709167 0.377594 0.186890
0.761536 0.386963 0.192139
0.799286 0.394196 0.196960
0.800201 0.394043 0.196320
0.799835 0.391998 0.195435
0.799286 0.388611 0.194366
0.801239 0.399811 0.198639
0.209320 0.364563 0.268921
0.216888 0.376099 0.264435
0.237518 0.398376 0.259521
0.258484 0.407928 0.253052
0.291473 0.379395 0.230286
0.342773 0.336304 0.218506
0.448853 0.348328 0.203033
0.550354 0.385559 0.207336
0.641754 0.415405 0.211487
0.714081 0.434662 0.214264
0.764648 0.447205 0.216492
0.800232 0.455933 0.218262
0.800171 0.455750 0.217560
0.799866 0.454681 0.216705
0.799316 0.452057 0.215515
0.799927 0.458618 0.220642
0.271088 0.458893 0.315674
0.279022 0.471039 0.308990
0.288818 0.485992 0.305939
0.305969 0.505096 0.282776
0.321167 0.519897 0.298248
0.366394 0.427155 0.253906
0.437469 0.402527 0.244507
0.547607 0.422913 0.232056
0.636932 0.459106 0.238434
0.717285 0.489532 0.243561
0.763855 0.505035 0.248901
0.796173 0.514587 0.251038
0.796326 0.515472 0.251343
0.796326 0.514984 0.251190
0.795929 0.513611 0.250641
0.796234 0.514771 0.251099
0.331818 0.551636 0.362061
0.338654 0.562164 0.354614
0.345245 0.572174 0.353302
0.363312 0.599731 0.329437
0.370972 0.611359 0.338013
0.398041 0.572479 0.303894
0.449921 0.487640 0.280426
0.531403 0.469513 0.272766
0.632141 0.495270 0.264038
0.707794 0.529236 0.272217
0.764221 0.556427 0.283234
0.795898 0.570496 0.288086
0.796570 0.572784 0.289062
0.795776 0.573456 0.290222
0.795715 0.572937 0.290009
0.795410 0.568817 0.287415
0.387146 0.636169 0.409454
0.392181 0.643890 0.400970
0.399567 0.655212 0.399750
0.410797 0.672333 0.381226
0.419281 0.685272 0.353516
0.428223 0.698944 0.367004
0.480377 0.600433 0.321564
0.537292 0.551727 0.306946
0.615143 0.535828 0.301270
0.701202 0.563049 0.299286
0.755676 0.591736 0.310364
0.792664 0.613342 0.319916
0.799194 0.622223 0.325073
0.799316 0.624695 0.327148
0.799652 0.625732 0.327576
0.798340 0.617523 0.322021
0.434265 0.708130 0.454437
0.438843 0.715179 0.445587
0.445831 0.725800 0.442627
0.453278 0.737122 0.425415
0.466553 0.757385 0.392059
0.469940 0.762573 0.401886
0.487793 0.755554 0.383057
0.549042 0.632751 0.343628
0.616943 0.610260 0.332489
0.685272 0.598175 0.329193
0.750549 0.621735 0.335602
0.784882 0.642944 0.345154
0.803009 0.657623 0.352783
0.804688 0.665680 0.358582
0.804321 0.668549 0.361816
0.803375 0.658630 0.353271
0.475159 0.770630 0.497833
0.478943 0.776367 0.488647
0.484589 0.784973 0.484955
0.490356 0.793854 0.466858
0.498718 0.806488 0.441895
0.507751 0.816559 0.394379
0.509705 0.822998 0.428223
0.571259 0.738953 0.383057
0.617920 0.673096 0.364105
0.685120 0.661682 0.354889
0.741608 0.654694 0.357574
0.780914 0.667999 0.367432
0.803284 0.683716 0.374969
0.808441 0.692139 0.381256
0.812012 0.701202 0.384949
0.808228 0.690033 0.379242
0.508209 0.821106 0.538879
0.511169 0.825592 0.529419
0.515411 0.832092 0.525269
0.520020 0.839050 0.505127
0.525360 0.847229 0.481964
0.531586 0.856781 0.444244
0.535187 0.858459 0.443298
0.552155 0.864410 0.444061
0.629028 0.742157 0.394684
0.681122 0.711853 0.381561
0.739868 0.703094 0.373840
0.780487 0.701935 0.379944
0.806885 0.710449 0.387177
0.819000 0.720398 0.392548
0.822479 0.727264 0.395447
0.819916 0.721008 0.392914
0.530884 0.855682 0.576630
0.532959 0.858887 0.566772
0.535645 0.863007 0.562775
0.538940 0.868042 0.540924
0.542297 0.873108 0.516876
0.546417 0.879486 0.485931
0.553192 0.884308 0.449646
0.560028 0.887573 0.467255
0.630157 0.813477 0.426178
0.673004 0.745911 0.405090
0.732330 0.738342 0.393494
0.777618 0.734100 0.390533
0.805878 0.733704 0.394897
0.821991 0.738556 0.399200
0.827942 0.743866 0.401947
0.826324 0.740814 0.400665
0.542755 0.873871 0.608337
0.544128 0.875916 0.598877
0.545715 0.878357 0.594635
0.548157 0.882080 0.570923
0.550476 0.885712 0.546265
0.553101 0.889679 0.517456
0.556305 0.894592 0.474640
0.574615 0.896881 0.472290
0.588776 0.895294 0.476532
0.671997 0.785187 0.426239
0.719391 0.758484 0.411469
0.770721 0.752106 0.399994
0.801544 0.750458 0.399963
0.820892 0.750183 0.402954
0.828796 0.752472 0.404999
0.827637 0.751678 0.404572
0.548492 0.882599 0.651123
0.549683 0.884430 0.639252
0.550446 0.885620 0.634155
0.552032 0.888031 0.614258
0.554047 0.891144 0.586334
0.555573 0.893463 0.562378
0.557037 0.895599 0.539825
0.570984 0.899384 0.506561
0.599152 0.901550 0.497620
0.648804 0.851562 0.468109
0.689636 0.778473 0.432678
0.744446 0.765015 0.413086
0.788452 0.759552 0.401947
0.812836 0.759155 0.404755
0.825531 0.758942 0.406708
0.831116 0.758911 0.407593
0.101135 0.118317 0.145172
0.108856 0.115906 0.148895
0.127686 0.116486 0.153564
0.162109 0.115692 0.149963
0.212769 0.115601 0.137177
0.282471 0.125977 0.135162
0.361786 0.145203 0.142487
0.447021 0.170746 0.152527
0.532837 0.198578 0.164246
0.611969 0.222290 0.173920
0.679810 0.240845 0.181732
0.735321 0.256348 0.189362
0.777679 0.268188 0.195282
0.786621 0.271362 0.195984
0.786652 0.272003 0.195374
0.786377 0.272461 0.192963
0.104462 0.128235 0.147736
0.111511 0.129242 0.151245
0.123688 0.127014 0.154785
0.155029 0.125580 0.148254
0.206818 0.128967 0.140686
0.279907 0.146698 0.144073
0.367218 0.168121 0.148865
0.472046 0.191803 0.151398
0.569855 0.216034 0.157745
0.639404 0.235016 0.163788
0.702301 0.251953 0.171814
0.753662 0.266022 0.178711
0.785461 0.274994 0.182953
0.785400 0.275482 0.182312
0.785370 0.275391 0.181854
0.786194 0.278870 0.186127
0.109497 0.135315 0.147736
0.117218 0.139374 0.152618
0.128204 0.143951 0.158417
0.160095 0.147736 0.156799
0.213837 0.154938 0.153351
0.290375 0.166504 0.150391
0.379517 0.182983 0.150116
0.482178 0.204590 0.153015
0.579529 0.227417 0.159454
0.659851 0.247925 0.166901
0.721436 0.264099 0.174866
0.770538 0.276917 0.181549
0.786072 0.281342 0.183350
0.786072 0.281403 0.182922
0.785950 0.280792 0.182587
0.787537 0.288849 0.190155
0.121185 0.158539 0.159271
0.129486 0.166229 0.167572
0.139313 0.175018 0.178009
0.160095 0.177490 0.177155
0.234955 0.188019 0.160919
0.311951 0.199219 0.155426
0.402130 0.213043 0.153870
0.503265 0.231628 0.156128
0.597534 0.252686 0.162079
0.668701 0.268768 0.169952
0.727081 0.282501 0.177216
0.773224 0.293976 0.183411
0.787811 0.297760 0.184967
0.787750 0.297546 0.184357
0.787598 0.296478 0.183807
0.789307 0.308105 0.188965
0.136292 0.201904 0.181885
0.144775 0.213470 0.194824
0.154663 0.229492 0.211517
0.184998 0.244904 0.206055
0.243835 0.220062 0.179169
0.329651 0.244446 0.173676
0.423309 0.263611 0.167389
0.523071 0.280670 0.166138
0.616058 0.299957 0.170532
0.687378 0.311737 0.177704
0.742279 0.322937 0.184174
0.784180 0.331360 0.189392
0.791931 0.332123 0.189575
0.791565 0.330109 0.188660
0.791138 0.326996 0.187592
0.793396 0.341522 0.193115
0.155884 0.260162 0.214996
0.164429 0.274414 0.232483
0.182373 0.295471 0.245422
0.210327 0.316345 0.252167
0.250732 0.282532 0.214569
0.334808 0.279236 0.195404
0.437164 0.312683 0.192291
0.537109 0.336487 0.188232
0.632202 0.359619 0.187164
0.707245 0.372589 0.188965
0.758636 0.381470 0.194550
0.796967 0.388367 0.199005
0.799652 0.388092 0.198364
0.799194 0.385651 0.197205
0.798584 0.381927 0.195923
0.801300 0.397064 0.202362
0.195068 0.342804 0.261383
0.206329 0.359955 0.283173
0.217346 0.376801 0.287933
0.253937 0.399963 0.278809
0.285919 0.407990 0.254150
0.337189 0.342773 0.234161
0.442871 0.350739 0.214905
0.547913 0.387451 0.215485
0.638977 0.414703 0.215637
0.712463 0.431854 0.215912
0.762543 0.444183 0.218353
0.802063 0.452698 0.219208
0.801849 0.452087 0.218079
0.801514 0.450348 0.216858
0.800903 0.447479 0.215363
0.802155 0.457336 0.223114
0.258423 0.439545 0.318634
0.270538 0.458038 0.343140
0.277924 0.469360 0.333771
0.298248 0.500336 0.323578
0.315613 0.512390 0.328979
0.367249 0.449036 0.272949
0.433136 0.407837 0.257782
0.542206 0.425018 0.242310
0.633759 0.460419 0.245575
0.714111 0.488831 0.247406
0.761475 0.502686 0.249817
0.796722 0.512085 0.250793
0.795715 0.512177 0.250671
0.796265 0.511108 0.248871
0.795837 0.509338 0.248169
0.797668 0.514404 0.253876
0.321503 0.535919 0.380463
0.331543 0.551270 0.392120
0.339447 0.563354 0.379822
0.350952 0.580872 0.376740
0.365204 0.602631 0.354126
0.392487 0.601105 0.332336
0.443542 0.494720 0.297821
0.527100 0.474609 0.284668
0.627655 0.497253 0.273438
0.704163 0.529968 0.277252
0.761475 0.555481 0.282715
0.793610 0.568298 0.287079
0.795868 0.570343 0.288025
0.795959 0.570679 0.288147
0.795715 0.569763 0.287781
0.796234 0.568512 0.286743
0.380951 0.626648 0.443512
0.387634 0.636902 0.439911
0.394104 0.646790 0.427032
0.402008 0.658875 0.428284
0.414154 0.677429 0.386505
0.424133 0.692596 0.399628
0.476196 0.626556 0.345581
0.531616 0.557861 0.322632
0.611328 0.540680 0.312408
0.695892 0.563995 0.305206
0.750183 0.590851 0.311523
0.791077 0.613892 0.320068
0.798767 0.621124 0.324615
0.798584 0.622772 0.326294
0.798798 0.623199 0.326477
0.798340 0.617523 0.322021
0.429413 0.700714 0.493713
0.434845 0.709045 0.486145
0.440887 0.718231 0.472107
0.446869 0.727386 0.473389
0.459106 0.746124 0.440338
0.465027 0.755096 0.421478
0.478668 0.764893 0.432373
0.550140 0.653137 0.363953
0.611572 0.616119 0.347504
0.681793 0.602417 0.338837
0.744232 0.620819 0.336700
0.781006 0.642883 0.345856
0.803223 0.658173 0.353027
0.804443 0.665283 0.358368
0.804657 0.667480 0.360382
0.803528 0.659058 0.353455
0.471191 0.764526 0.538086
0.475708 0.771484 0.530243
0.480591 0.778900 0.515472
0.485748 0.786804 0.515350
0.493530 0.798615 0.490265
0.507721 0.820374 0.419250
0.506378 0.818298 0.464264
0.563812 0.766724 0.410614
0.611786 0.679596 0.383179
0.680878 0.666870 0.369354
0.737579 0.656891 0.361572
0.775970 0.667786 0.367737
0.799133 0.682892 0.375397
0.808563 0.692505 0.381439
0.812042 0.701233 0.384979
0.808716 0.691162 0.379791
0.505005 0.816193 0.579773
0.508423 0.821381 0.571716
0.512177 0.827179 0.556366
0.516357 0.833557 0.555206
0.521271 0.841003 0.531403
0.529114 0.852966 0.487213
0.532654 0.854492 0.474060
0.548920 0.862518 0.481384
0.629028 0.763336 0.418365
0.675995 0.717743 0.400360
0.736511 0.707581 0.386993
0.775818 0.702911 0.381958
0.803406 0.710968 0.386780
0.816040 0.720734 0.392151
0.822632 0.727692 0.395599
0.819763 0.721954 0.393188
0.528168 0.851593 0.617645
0.530457 0.855103 0.609650
0.533173 0.859253 0.593567
0.535797 0.863220 0.592163
0.538879 0.867950 0.568329
0.542938 0.874176 0.535675
0.548462 0.880554 0.483856
0.556458 0.883728 0.505280
0.622864 0.839478 0.456177
0.672241 0.758972 0.427979
0.728485 0.743835 0.412048
0.774689 0.737335 0.400665
0.802002 0.734528 0.396301
0.818481 0.738708 0.398651
0.825012 0.743958 0.401489
0.823578 0.742065 0.403900
0.540192 0.869934 0.651550
0.541565 0.872040 0.643585
0.543762 0.875336 0.624390
0.545044 0.877350 0.624603
0.547363 0.880890 0.599609
0.550110 0.885071 0.566803
0.553772 0.890717 0.516693
0.575470 0.893311 0.506042
0.588043 0.893951 0.523773
0.673187 0.806244 0.453522
0.715088 0.764709 0.434296
0.768402 0.757263 0.418365
0.799347 0.753387 0.410095
0.817413 0.750763 0.404816
0.825409 0.752441 0.404449
0.826660 0.754852 0.415131
0.545990 0.878754 0.696472
0.546967 0.880280 0.686584
0.548798 0.883087 0.665680
0.549561 0.884216 0.661469
0.551147 0.886688 0.639099
0.552765 0.889130 0.611755
0.554230 0.891388 0.588013
0.571747 0.895782 0.546967
0.601898 0.898224 0.535583
0.650116 0.868652 0.500183
0.694824 0.798340 0.462677
0.741364 0.770813 0.434723
0.787323 0.764160 0.418823
0.810516 0.761108 0.411743
0.822418 0.759460 0.408356
0.827789 0.758789 0.407013
0.102966 0.120483 0.160004
0.109375 0.118286 0.166656
0.126678 0.116699 0.178314
0.159088 0.118896 0.185364
0.213654 0.119965 0.179962
0.278625 0.120087 0.162415
0.356781 0.126312 0.150757
0.446381 0.144867 0.151459
0.532104 0.175018 0.163208
0.611572 0.202942 0.175171
0.679688 0.225250 0.186005
0.735443 0.242279 0.195160
0.777527 0.256317 0.202332
0.787506 0.261444 0.204681
0.787628 0.262085 0.205200
0.787689 0.265991 0.205627
0.105652 0.133331 0.165680
0.114410 0.134308 0.170471
0.122437 0.131042 0.173889
0.150299 0.129456 0.182800
0.205170 0.128723 0.175323
0.271881 0.128174 0.154266
0.359619 0.142700 0.149353
0.471893 0.180359 0.160706
0.573578 0.215393 0.172668
0.658386 0.238007 0.177277
0.719574 0.254974 0.182098
0.765411 0.268005 0.186615
0.785950 0.274567 0.187775
0.785889 0.274963 0.186920
0.785828 0.274902 0.186188
0.787048 0.279053 0.193939
0.111115 0.146729 0.166779
0.119598 0.150116 0.173492
0.132629 0.152069 0.180725
0.154938 0.147064 0.187988
0.209778 0.144531 0.177795
0.280151 0.144714 0.160645
0.372772 0.167694 0.163544
0.483215 0.202789 0.172852
0.579773 0.225830 0.173798
0.664124 0.247437 0.177338
0.724121 0.263794 0.181641
0.769043 0.276398 0.186249
0.786652 0.281464 0.188202
0.786621 0.281738 0.187500
0.786469 0.281281 0.186829
0.788452 0.289642 0.197540
0.118408 0.157349 0.166229
0.128693 0.164001 0.174133
0.143066 0.171478 0.183105
0.163177 0.178833 0.193054
0.214508 0.182648 0.189484
0.292633 0.192688 0.182556
0.393280 0.207214 0.174042
0.497345 0.226654 0.170715
0.591614 0.246948 0.172943
0.677795 0.267151 0.176849
0.733612 0.281128 0.183472
0.776855 0.292084 0.189087
0.788116 0.294891 0.190094
0.787994 0.294250 0.189514
0.787781 0.292633 0.189056
0.791138 0.308502 0.204834
0.136078 0.192352 0.182373
0.148956 0.202209 0.192657
0.163971 0.213715 0.206268
0.180847 0.225891 0.222046
0.231018 0.224274 0.205688
0.315918 0.243103 0.194611
0.412964 0.257172 0.183014
0.516602 0.272430 0.177368
0.612762 0.291473 0.177216
0.688873 0.305145 0.182404
0.740845 0.316284 0.188202
0.782623 0.324951 0.192963
0.791687 0.326385 0.193207
0.791504 0.325348 0.192322
0.791168 0.323334 0.191345
0.794586 0.343475 0.202087
0.158142 0.244537 0.210205
0.170105 0.258972 0.226929
0.184967 0.272644 0.245300
0.199768 0.295380 0.267181
0.244965 0.318634 0.252594
0.325226 0.283630 0.219299
0.427277 0.312836 0.209961
0.532349 0.333618 0.198212
0.630615 0.355499 0.192078
0.704254 0.365875 0.194366
0.755341 0.374634 0.199158
0.794525 0.381104 0.203003
0.799133 0.380432 0.202118
0.798615 0.378021 0.200562
0.797852 0.373749 0.198792
0.801605 0.393188 0.209473
0.181488 0.316772 0.251068
0.193207 0.332916 0.270813
0.206940 0.354462 0.294830
0.226440 0.377136 0.316467
0.267639 0.413239 0.319794
0.328278 0.352295 0.259094
0.434540 0.354401 0.234558
0.543335 0.389252 0.228210
0.637787 0.414703 0.221954
0.710388 0.428711 0.220459
0.761139 0.440399 0.222076
0.801636 0.448364 0.222137
0.803864 0.447693 0.220795
0.804230 0.445160 0.218048
0.803528 0.441742 0.215973
