Scenic Moods/Striped Purple - Spring Water.cube
#Created by: Adobe Photoshop Export Color Lookup Plugin
#Copyright: (C) Copyright 2019 © 2019 Austin Barrett - Striped Purple
TITLE "Striped Purple - Spring Water"
#LUT size
LUT_3D_SIZE 16
#data domain
DOMAIN_MIN 0.0 0.0 0.0
DOMAIN_MAX 1.0 1.0 1.0
#LUT data points
0.000000 0.000000 0.000000
0.035278 0.016052 0.015808
0.074463 0.031189 0.030426
0.121094 0.044342 0.042572
0.176025 0.055267 0.051941
0.236694 0.064789 0.059387
0.300232 0.073456 0.065674
0.363251 0.082306 0.071838
0.415558 0.093964 0.081573
0.465485 0.106201 0.091888
0.514526 0.118591 0.102386
0.563171 0.131104 0.112976
0.611542 0.143799 0.123657
0.659760 0.156372 0.134430
0.704773 0.169830 0.146393
0.734955 0.187225 0.163666
0.024811 0.047577 0.034698
0.067261 0.058807 0.038940
0.105438 0.071014 0.055084
0.150818 0.084656 0.068878
0.204987 0.095886 0.078705
0.264404 0.105652 0.086609
0.327393 0.114532 0.093140
0.391144 0.123260 0.099243
0.453217 0.132263 0.105621
0.512115 0.142120 0.112885
0.566772 0.153107 0.121460
0.616302 0.165375 0.131775
0.660156 0.179138 0.143982
0.698059 0.194580 0.158478
0.730865 0.211365 0.174835
0.761139 0.228668 0.192139
0.047028 0.096741 0.067993
0.082825 0.111023 0.075623
0.138184 0.115662 0.073761
0.184753 0.123688 0.086548
0.238037 0.134918 0.099854
0.297852 0.144775 0.108368
0.359619 0.153961 0.115601
0.421326 0.163147 0.122589
0.481384 0.172729 0.129913
0.538513 0.183167 0.138092
0.591858 0.194427 0.147217
0.640900 0.206909 0.157837
0.684570 0.220673 0.170197
0.722351 0.236084 0.184753
0.755219 0.252899 0.201233
0.785583 0.270203 0.218719
0.064209 0.148956 0.098724
0.099243 0.163788 0.105713
0.146332 0.174255 0.102539
0.215973 0.169952 0.100006
0.271210 0.174255 0.108002
0.329224 0.182983 0.119507
0.389282 0.193329 0.130951
0.450775 0.202637 0.138733
0.509796 0.212616 0.146973
0.565643 0.223358 0.155945
0.617371 0.235077 0.166107
0.664490 0.248108 0.177765
0.706604 0.262451 0.191223
0.743347 0.278076 0.206512
0.775909 0.294952 0.223480
0.806152 0.312378 0.241058
0.076508 0.204193 0.126709
0.114410 0.218689 0.127106
0.151642 0.231598 0.137909
0.217346 0.235168 0.121765
0.300293 0.221863 0.117218
0.360291 0.224426 0.121552
0.419861 0.231323 0.130829
0.478027 0.240875 0.142853
0.533722 0.252502 0.155945
0.587250 0.264221 0.167358
0.637573 0.276428 0.178741
0.683197 0.289825 0.191528
0.723969 0.304535 0.206024
0.759705 0.320557 0.222290
0.791809 0.337555 0.239868
0.819427 0.355560 0.256622
0.085785 0.260864 0.154907
0.125214 0.275238 0.152069
0.163177 0.289459 0.153870
0.211456 0.298187 0.157349
0.296326 0.294434 0.127838
0.388336 0.273834 0.125305
0.448578 0.275543 0.128326
0.507324 0.281219 0.135834
0.562225 0.290314 0.147400
0.612915 0.301880 0.161774
0.659637 0.315063 0.177124
0.699615 0.330475 0.194611
0.735565 0.347015 0.212372
0.768005 0.364136 0.230225
0.798828 0.381470 0.247375
0.824127 0.399841 0.263519
0.093811 0.317719 0.185364
0.134064 0.332581 0.177765
0.171234 0.348022 0.175323
0.210175 0.360687 0.183136
0.275726 0.365967 0.157745
0.380829 0.352997 0.122437
0.473907 0.328613 0.124268
0.532013 0.330261 0.125916
0.587677 0.335571 0.131165
0.637573 0.344604 0.142120
0.681519 0.356140 0.157867
0.723145 0.369385 0.173035
0.758362 0.384979 0.191284
0.790741 0.401428 0.209198
0.818695 0.419373 0.229492
0.843903 0.437836 0.246704
0.096069 0.378082 0.213257
0.137207 0.393402 0.200806
0.175751 0.408783 0.194824
0.212280 0.423279 0.199310
0.263458 0.430725 0.201660
0.356934 0.425659 0.155518
0.465851 0.411652 0.115601
0.556244 0.387177 0.118469
0.609802 0.389526 0.119690
0.660126 0.395844 0.124207
0.704285 0.405487 0.134247
0.743561 0.417419 0.148804
0.778442 0.431641 0.165344
0.809784 0.447327 0.183105
0.838501 0.464020 0.202545
0.862457 0.482300 0.226135
0.096313 0.439301 0.241608
0.139160 0.454407 0.225739
0.179474 0.469604 0.216034
0.214050 0.485474 0.218414
0.255188 0.494995 0.237122
0.332245 0.496796 0.198853
0.439850 0.485596 0.147308
0.547363 0.471710 0.110352
0.632843 0.450531 0.110626
0.681549 0.454803 0.111389
0.724762 0.462769 0.117126
0.762695 0.473907 0.126740
0.796173 0.487335 0.141052
0.827087 0.502319 0.157288
0.855682 0.518127 0.175262
0.883209 0.534058 0.202209
0.096680 0.500488 0.270203
0.140991 0.515045 0.253052
0.183075 0.529999 0.239990
0.216766 0.546082 0.243774
0.253906 0.557770 0.261261
0.313904 0.564392 0.243958
0.405426 0.563965 0.178314
0.522308 0.545868 0.138885
0.623291 0.534302 0.107056
0.703522 0.519592 0.102783
0.746368 0.526367 0.104095
0.783569 0.536926 0.111450
0.816650 0.550049 0.119354
0.845703 0.565247 0.133484
0.873718 0.580566 0.149902
0.901245 0.593140 0.182983
0.098083 0.561157 0.298309
0.143280 0.574951 0.283020
0.187103 0.589508 0.267181
0.219025 0.605713 0.274994
0.254669 0.618774 0.289429
0.300110 0.629669 0.289062
0.394714 0.625702 0.234100
0.501556 0.616577 0.173798
0.601532 0.607086 0.133545
0.692657 0.599548 0.107758
0.769104 0.594421 0.096619
0.805664 0.603851 0.100403
0.838257 0.616425 0.107849
0.868011 0.632507 0.116150
0.895844 0.648926 0.128448
0.923065 0.658142 0.165253
0.100983 0.620911 0.327576
0.146606 0.633789 0.316223
0.189880 0.648315 0.302032
0.221161 0.664337 0.312469
0.258362 0.677185 0.323914
0.299896 0.689667 0.325409
0.381378 0.690094 0.282959
0.462616 0.696320 0.209656
0.585693 0.674713 0.171722
0.676422 0.669525 0.133636
0.756134 0.666595 0.113922
0.821899 0.669006 0.103729
0.859131 0.683746 0.104553
0.891022 0.700409 0.110321
0.918640 0.717010 0.120667
0.946991 0.725555 0.154144
0.105896 0.679413 0.358063
0.151093 0.691315 0.352875
0.190399 0.706268 0.347198
0.224335 0.721252 0.355957
0.264282 0.733063 0.365326
0.305145 0.747009 0.361450
0.373871 0.751373 0.332214
0.468475 0.748230 0.272980
0.564240 0.745483 0.208282
0.666138 0.733978 0.173828
0.747314 0.732788 0.140533
0.815460 0.734619 0.126953
0.869629 0.742065 0.121002
0.902283 0.758301 0.126221
0.931885 0.775574 0.134521
0.964783 0.788483 0.157898
0.100281 0.738312 0.415253
0.154846 0.747894 0.396790
0.191132 0.762848 0.399231
0.229218 0.776215 0.405487
0.270905 0.787415 0.413269
0.313263 0.802399 0.399475
0.380432 0.807159 0.372681
0.465240 0.806458 0.327148
0.538879 0.817200 0.250580
0.661804 0.795105 0.215485
0.744873 0.792847 0.182465
0.816284 0.795624 0.155029
0.873871 0.801392 0.148071
0.918549 0.812866 0.146942
0.949310 0.829559 0.155640
0.980286 0.844177 0.174591
0.096375 0.794281 0.483154
0.147980 0.805481 0.463898
0.192810 0.817932 0.456696
0.234924 0.829712 0.460571
0.281494 0.839142 0.464752
0.326935 0.854401 0.440765
0.391663 0.860504 0.413513
0.464752 0.863159 0.381500
0.545013 0.868500 0.315704
0.648804 0.860535 0.257446
0.749237 0.849030 0.226807
0.822296 0.851166 0.197906
0.884064 0.857361 0.178528
0.932495 0.866821 0.176880
0.970184 0.881042 0.179932
0.996857 0.895538 0.210876
0.100861 0.845764 0.552429
0.149292 0.858643 0.532898
0.195892 0.871765 0.517151
0.240906 0.882416 0.519073
0.291962 0.891296 0.514069
0.342255 0.905182 0.484497
0.404022 0.913055 0.455475
0.475586 0.916077 0.425934
0.560150 0.915833 0.378418
0.635620 0.925262 0.303802
0.751678 0.906158 0.271484
0.831604 0.904816 0.242706
0.896240 0.910248 0.219208
0.948730 0.919281 0.208801
0.979279 0.928833 0.256866
0.996490 0.938873 0.337189
0.003876 0.005066 0.029083
0.044067 0.017395 0.035828
0.080170 0.035645 0.048553
0.125702 0.050140 0.061554
0.180847 0.061523 0.071594
0.241821 0.071533 0.079803
0.305878 0.080780 0.086975
0.370544 0.089935 0.093842
0.433655 0.099487 0.100952
0.492157 0.109833 0.108704
0.540741 0.122467 0.119171
0.589203 0.135040 0.129761
0.637512 0.147614 0.140442
0.680023 0.161743 0.153259
0.712769 0.178558 0.169525
0.742950 0.195923 0.186676
0.030914 0.053528 0.053040
0.066681 0.066681 0.066681
0.107361 0.081390 0.080780
0.156860 0.093781 0.092041
0.215637 0.103760 0.100189
0.280182 0.112183 0.106293
0.347229 0.119995 0.111420
0.413879 0.127930 0.116455
0.477722 0.136444 0.122131
0.537140 0.146210 0.129059
0.590912 0.157379 0.137787
0.638336 0.170227 0.148712
0.678680 0.184967 0.162140
0.712799 0.201324 0.177948
0.743561 0.218597 0.195038
0.768097 0.237427 0.214722
0.053253 0.102478 0.086884
0.088470 0.115967 0.100616
0.137390 0.123901 0.101349
0.183350 0.134460 0.115204
0.241241 0.144836 0.124542
0.306030 0.153290 0.131042
0.373138 0.161072 0.136597
0.439606 0.169037 0.142090
0.503204 0.177795 0.148163
0.562469 0.187500 0.155518
0.616180 0.198792 0.164612
0.663605 0.211700 0.175873
0.704071 0.226379 0.189575
0.738312 0.242706 0.205627
0.769257 0.259979 0.222900
0.792236 0.279022 0.240936
0.067749 0.155609 0.119965
0.104980 0.168335 0.132172
0.143982 0.181610 0.136444
0.214905 0.178375 0.127563
0.269653 0.184509 0.136780
0.327850 0.194641 0.149017
0.393921 0.202850 0.155609
0.460266 0.210938 0.161835
0.523987 0.219727 0.168823
0.583496 0.229523 0.177032
0.637634 0.240692 0.187012
0.685394 0.253510 0.199005
0.726166 0.268188 0.213348
0.760803 0.284607 0.229919
0.792053 0.301788 0.247559
0.812805 0.321228 0.263123
0.074921 0.212585 0.152466
0.115845 0.223846 0.162048
0.155670 0.237732 0.161041
0.213165 0.244080 0.151855
0.299408 0.230560 0.144287
0.359497 0.233917 0.149475
0.418945 0.241943 0.160126
0.477844 0.252380 0.172455
0.538696 0.262299 0.181671
0.597412 0.272339 0.190582
0.651031 0.283752 0.201294
0.698822 0.296661 0.214203
0.740295 0.311310 0.229492
0.775818 0.327484 0.246918
0.808228 0.344513 0.265533
0.827820 0.364014 0.279724
0.080811 0.270477 0.183411
0.123474 0.281097 0.192169
0.165924 0.294800 0.184723
0.208496 0.305939 0.190430
0.292847 0.302887 0.158539
0.386871 0.282623 0.152283
0.448212 0.284607 0.154938
0.506622 0.291168 0.164185
0.562134 0.300751 0.176758
0.614960 0.312134 0.190033
0.661499 0.326202 0.206604
0.705566 0.340637 0.222137
0.746033 0.355469 0.237213
0.781128 0.371765 0.254364
0.813171 0.388824 0.272552
0.832733 0.408386 0.287201
0.086182 0.328522 0.215210
0.129150 0.339020 0.223114
0.172089 0.353363 0.210907
0.212677 0.367584 0.206024
0.274170 0.371796 0.197327
0.377136 0.361481 0.153900
0.473083 0.337280 0.151215
0.531860 0.338867 0.152893
0.588409 0.344330 0.158600
0.637268 0.353851 0.172546
0.683624 0.365417 0.186920
0.724884 0.379181 0.203522
0.762482 0.394226 0.220306
0.794556 0.411133 0.239594
0.823700 0.429047 0.260254
0.845490 0.448395 0.277588
0.086243 0.389984 0.242859
0.129425 0.400604 0.250183
0.173767 0.414581 0.235840
0.215210 0.429169 0.226440
0.258850 0.438385 0.239594
0.347656 0.436768 0.187927
0.462830 0.420105 0.145264
0.555389 0.395355 0.145996
0.610657 0.397675 0.146118
0.661133 0.403656 0.151672
0.704834 0.413422 0.164215
0.745636 0.425293 0.178619
0.781586 0.439362 0.195068
0.812042 0.455444 0.214386
0.841309 0.472229 0.233917
0.866364 0.490601 0.254883
0.085266 0.452118 0.269958
0.128876 0.462463 0.277100
0.174438 0.475983 0.262268
0.217499 0.490356 0.249481
0.254578 0.502838 0.263123
0.324005 0.505737 0.239899
0.435028 0.494171 0.181213
0.544647 0.479889 0.140381
0.632111 0.458191 0.138733
0.681213 0.462036 0.139740
0.725677 0.469818 0.144745
0.766083 0.480835 0.154022
0.799652 0.493744 0.169983
0.831299 0.508698 0.186066
0.860413 0.524475 0.203949
0.884338 0.541382 0.233704
0.084412 0.514099 0.297150
0.128754 0.524139 0.304230
0.175110 0.536987 0.290680
0.218292 0.551300 0.278046
0.252350 0.565948 0.288483
0.303314 0.573883 0.288696
0.396210 0.572906 0.222443
0.517639 0.554169 0.173431
0.621002 0.542267 0.137482
0.704163 0.526947 0.130310
0.747192 0.533203 0.132080
0.786377 0.543243 0.137177
0.819763 0.556366 0.146698
0.848480 0.570648 0.162964
0.877289 0.585846 0.179169
0.902832 0.599426 0.214325
0.084778 0.575378 0.324921
0.129822 0.585083 0.332123
0.176605 0.597198 0.321503
0.218079 0.611694 0.312347
0.253967 0.625641 0.321289
0.298615 0.635956 0.326111
0.383087 0.635345 0.280640
0.488037 0.629028 0.210205
0.597321 0.615082 0.168793
0.691132 0.606964 0.138580
0.768677 0.600647 0.126038
0.807861 0.610321 0.127319
0.841492 0.622833 0.134033
0.870544 0.638092 0.143707
0.897552 0.653473 0.158600
0.923370 0.663513 0.198303
0.082184 0.636414 0.362549
0.132141 0.644928 0.362244
0.179352 0.656158 0.355133
0.217957 0.670898 0.352631
0.256317 0.683960 0.359772
0.298279 0.695770 0.363770
0.366241 0.700623 0.334229
0.460236 0.699707 0.264740
0.579041 0.683350 0.210144
0.672821 0.677155 0.169617
0.755188 0.673737 0.145355
0.823242 0.675293 0.132294
0.861389 0.689972 0.132263
0.892578 0.705322 0.139191
0.920502 0.722046 0.148560
0.945709 0.730103 0.188995
0.073334 0.697205 0.418030
0.126099 0.704865 0.414917
0.181946 0.714020 0.395233
0.218231 0.728790 0.398834
0.259796 0.740601 0.404175
0.303467 0.752594 0.402374
0.366760 0.759399 0.375000
0.456146 0.757080 0.325653
0.546265 0.759125 0.250458
0.660583 0.741882 0.213287
0.744537 0.739838 0.177124
0.815277 0.741089 0.158997
0.871460 0.748169 0.150024
0.904816 0.764282 0.154266
0.934937 0.781372 0.162201
0.966461 0.793976 0.190063
0.071045 0.753601 0.479492
0.122406 0.762024 0.476105
0.176544 0.772217 0.455475
0.219879 0.784912 0.451355
0.264862 0.795319 0.454468
0.312347 0.806732 0.445343
0.372833 0.815277 0.416351
0.448578 0.816986 0.382599
0.531555 0.822113 0.310425
0.648254 0.806610 0.257385
0.740326 0.800079 0.222870
0.814453 0.802002 0.192230
0.874359 0.807495 0.180908
0.920746 0.818634 0.176544
0.951965 0.835236 0.184448
0.982147 0.849640 0.206818
0.079437 0.804230 0.542511
0.126801 0.814362 0.540924
0.177460 0.826233 0.520844
0.225342 0.838226 0.507690
0.272949 0.847595 0.509338
0.323090 0.859283 0.491821
0.382385 0.869110 0.459045
0.456635 0.871063 0.428070
0.544220 0.869781 0.377899
0.629730 0.873901 0.304352
0.742645 0.856537 0.271271
0.818878 0.857666 0.239349
0.883270 0.863220 0.215515
0.933502 0.872467 0.210785
0.972565 0.886597 0.210388
0.997284 0.900574 0.249969
0.088837 0.854797 0.603271
0.135040 0.864838 0.605408
0.184601 0.876953 0.586884
0.231842 0.889954 0.570221
0.285706 0.897278 0.566101
0.334991 0.910919 0.540131
0.398071 0.919495 0.503601
0.468170 0.923645 0.472290
0.545441 0.924591 0.438202
0.614594 0.938293 0.358032
0.736816 0.917450 0.318329
0.826569 0.911316 0.288116
0.893890 0.915924 0.261688
0.948669 0.924683 0.246948
0.979767 0.933533 0.296326
0.996948 0.943451 0.378113
0.007019 0.009644 0.062469
0.046173 0.021942 0.071564
0.091461 0.032898 0.073059
0.133789 0.050598 0.081055
0.184021 0.066711 0.092407
0.244843 0.076721 0.100739
0.308685 0.085999 0.108032
0.373199 0.095154 0.115051
0.436218 0.104675 0.122253
0.496246 0.115051 0.130402
0.551880 0.126404 0.139587
0.602356 0.139038 0.150360
0.646973 0.153107 0.162994
0.685272 0.168640 0.177582
0.718140 0.185455 0.193909
0.748383 0.202942 0.211212
0.032349 0.059723 0.082550
0.069183 0.071655 0.099792
0.115234 0.081482 0.104614
0.160461 0.098846 0.114105
0.219177 0.109680 0.122833
0.284271 0.118774 0.129608
0.351959 0.127167 0.135345
0.419464 0.135681 0.141083
0.484314 0.144897 0.147461
0.544647 0.155212 0.154724
0.598633 0.166229 0.163025
0.646118 0.179016 0.173584
0.686523 0.193665 0.186707
0.720642 0.210052 0.202209
0.751312 0.227356 0.219025
0.775909 0.246460 0.241364
0.059174 0.108154 0.106995
0.095032 0.121277 0.120728
0.133331 0.133331 0.133331
0.182770 0.145721 0.144623
0.241638 0.155701 0.152863
0.306641 0.164093 0.158997
0.374176 0.171692 0.164001
0.441528 0.179474 0.168945
0.506165 0.187866 0.174500
0.566406 0.197327 0.181244
0.621033 0.208313 0.189789
0.669250 0.220978 0.200500
0.710388 0.235504 0.213684
0.745087 0.251709 0.229309
0.776184 0.268890 0.246246
0.798462 0.288391 0.266846
0.079559 0.158722 0.137970
0.111481 0.173462 0.153656
0.149353 0.185791 0.165985
0.210419 0.188141 0.159760
0.265167 0.196503 0.170288
0.328918 0.205475 0.177979
0.396759 0.213196 0.183685
0.464172 0.220886 0.189362
0.528534 0.229492 0.195679
0.588562 0.239044 0.203186
0.643036 0.250061 0.212433
0.691284 0.262787 0.223755
0.732635 0.277374 0.237488
0.767609 0.293518 0.253601
0.799103 0.310669 0.270966
0.818695 0.330505 0.288696
0.088959 0.214783 0.168976
0.116699 0.231140 0.187500
0.159332 0.241638 0.196716
0.205414 0.252655 0.193817
0.294891 0.240479 0.176361
0.355194 0.245056 0.182678
0.415527 0.254181 0.193909
0.479492 0.263397 0.202454
0.543518 0.271973 0.209412
0.603546 0.281738 0.217773
0.658325 0.292786 0.227966
0.707092 0.305481 0.240295
0.749084 0.319977 0.254944
0.784637 0.336060 0.271820
0.816620 0.353180 0.289764
0.833984 0.373291 0.305115
0.091095 0.274261 0.201721
0.117249 0.291351 0.220764
0.165649 0.299377 0.227325
0.211182 0.312012 0.217224
0.283905 0.312561 0.197968
0.381805 0.292633 0.184662
0.444489 0.294922 0.187195
0.503906 0.302124 0.197205
0.560181 0.312469 0.210297
0.613098 0.324768 0.224609
0.665680 0.336670 0.236237
0.713562 0.349518 0.248749
0.755157 0.364166 0.263458
0.790802 0.380249 0.280304
0.823303 0.397217 0.298401
0.841187 0.417267 0.314362
0.088562 0.335571 0.237396
0.119141 0.351166 0.252045
0.169189 0.358643 0.257294
0.215485 0.371552 0.243744
0.263275 0.380859 0.245270
0.367493 0.371246 0.194611
0.468536 0.346863 0.184052
0.529510 0.348206 0.184448
0.584839 0.354523 0.193573
0.637207 0.363708 0.205505
0.684052 0.375671 0.220673
0.726532 0.389587 0.236969
0.765167 0.404694 0.253540
0.797974 0.421661 0.272614
0.827606 0.439697 0.293335
0.848907 0.458954 0.310760
0.079712 0.400665 0.269958
0.117920 0.413422 0.279449
0.168701 0.420532 0.284546
0.216003 0.433014 0.270203
0.257141 0.446198 0.269196
0.333954 0.446716 0.238739
0.453857 0.429596 0.185425
0.551117 0.404388 0.179657
0.607880 0.406311 0.179230
0.659027 0.412384 0.185852
0.704742 0.421936 0.198486
0.745789 0.433960 0.213593
0.783020 0.447876 0.229706
0.814392 0.463989 0.248688
0.845703 0.480499 0.266571
0.866974 0.500153 0.291321
0.068817 0.466125 0.306183
0.116119 0.475922 0.306213
0.167664 0.482666 0.311401
0.215729 0.494720 0.297668
0.255280 0.509033 0.294556
0.309479 0.515717 0.292938
0.421021 0.505493 0.225342
0.536865 0.489136 0.178894
0.629120 0.466766 0.172394
0.679718 0.470062 0.172485
0.725067 0.477234 0.178101
0.765533 0.487976 0.189636
0.800964 0.500549 0.204773
0.832184 0.515350 0.221771
0.861969 0.531250 0.239441
0.885132 0.549164 0.270508
0.060455 0.529938 0.344269
0.112885 0.538635 0.336792
0.167236 0.544556 0.338379
0.215515 0.556061 0.326935
0.254578 0.570404 0.324982
0.300842 0.579590 0.331329
0.389282 0.577637 0.282593
0.506775 0.563690 0.218781
0.614075 0.550934 0.176514
0.701538 0.534882 0.164856
0.745758 0.540253 0.166046
0.785522 0.549591 0.171143
0.818848 0.561798 0.183472
0.850677 0.576050 0.197449
0.880219 0.591278 0.213104
0.903473 0.605927 0.251740
0.052307 0.592804 0.386688
0.105530 0.601227 0.378296
0.166016 0.605804 0.370453
0.216248 0.616455 0.358307
0.253326 0.631042 0.360840
0.297058 0.641693 0.366058
0.364532 0.646332 0.339203
0.462250 0.645477 0.259003
0.587402 0.623993 0.214661
0.685211 0.615021 0.178162
0.766602 0.607666 0.161591
0.806519 0.616333 0.162689
0.840332 0.628052 0.169464
0.870514 0.642944 0.179047
0.898560 0.657867 0.194397
0.922424 0.668854 0.238190
0.047577 0.653076 0.433990
0.098480 0.662506 0.426483
0.159363 0.667084 0.418060
0.215607 0.676086 0.397949
0.253418 0.690063 0.401581
0.298615 0.700195 0.405884
0.357849 0.708496 0.381470
0.452667 0.704132 0.328094
0.560822 0.696167 0.257599
0.664215 0.685303 0.215851
0.750519 0.680878 0.185608
0.821960 0.681763 0.168671
0.861603 0.695770 0.167084
0.893738 0.711060 0.172821
0.921143 0.726685 0.183014
0.944122 0.735168 0.230865
0.052185 0.708008 0.484344
0.096832 0.720062 0.479797
0.155914 0.725494 0.471436
0.211365 0.735199 0.449890
0.255310 0.747162 0.447815
0.304443 0.755615 0.450165
0.357544 0.767578 0.422913
0.436340 0.768036 0.387665
0.522339 0.773163 0.307037
0.650146 0.750397 0.262756
0.737488 0.747070 0.223816
0.811829 0.747620 0.200104
0.870972 0.753937 0.187042
0.905457 0.769745 0.189972
0.936218 0.786652 0.197266
0.966003 0.798981 0.231110
0.058777 0.761230 0.538635
0.099548 0.774567 0.537750
0.159271 0.779694 0.529327
0.210968 0.791107 0.508972
0.259247 0.802185 0.499695
0.313782 0.808502 0.498566
0.365112 0.822388 0.465912
0.439392 0.824707 0.432678
0.530090 0.822266 0.380188
0.626312 0.820618 0.308777
0.731537 0.807648 0.272949
0.809052 0.808350 0.239471
0.872101 0.813293 0.222992
0.920837 0.823914 0.214508
0.952759 0.840393 0.221100
0.981995 0.854401 0.248047
0.067139 0.813416 0.593323
0.106537 0.826416 0.598297
0.167816 0.830688 0.590027
0.218079 0.842499 0.571136
0.265869 0.854950 0.555939
0.324341 0.860626 0.547699
0.379059 0.873322 0.512146
0.448059 0.878571 0.477814
0.527161 0.878784 0.442749
0.604095 0.888733 0.361176
0.728729 0.866455 0.322998
0.811951 0.864105 0.289948
0.879486 0.868805 0.262787
0.932190 0.877533 0.253967
0.972931 0.891510 0.249512
0.997711 0.905273 0.289886
0.076691 0.865936 0.643585
0.112396 0.880402 0.650146
0.177246 0.882080 0.646149
0.228577 0.892059 0.634674
0.279846 0.903046 0.617615
0.336243 0.911804 0.598297
0.394867 0.923065 0.560059
0.458588 0.931488 0.523010
0.536682 0.931671 0.490845
0.610748 0.938507 0.433807
0.716431 0.930023 0.373108
0.818329 0.917877 0.341888
0.888672 0.921356 0.313110
0.946228 0.929504 0.294312
0.980194 0.938507 0.335754
0.997375 0.947998 0.419586
0.008789 0.013397 0.104340
0.047089 0.025909 0.114380
0.092163 0.035797 0.120148
0.145599 0.044617 0.113129
0.195007 0.061462 0.116028
0.249146 0.078064 0.124817
0.309540 0.090668 0.133728
0.373901 0.099823 0.140900
0.436768 0.109344 0.148285
0.496674 0.119690 0.156586
0.552246 0.131042 0.166016
0.602661 0.143738 0.176910
0.647186 0.157776 0.189545
0.685394 0.173370 0.204254
0.718140 0.190155 0.220459
0.748260 0.207703 0.237671
0.032074 0.064697 0.123108
0.069977 0.075958 0.141449
0.113495 0.086121 0.149963
0.171356 0.092041 0.145752
0.225067 0.108521 0.148529
0.284698 0.123169 0.156647
0.352478 0.131683 0.162140
0.420044 0.140228 0.167542
0.485016 0.149506 0.173584
0.545624 0.159851 0.180756
0.600616 0.171600 0.189728
0.648987 0.184845 0.200592
0.690094 0.199921 0.213684
0.724548 0.216492 0.229034
0.755493 0.233917 0.245514
0.777832 0.252045 0.269745
0.056458 0.116516 0.136353
0.092102 0.128754 0.155212
0.133240 0.138245 0.173920
0.189728 0.143616 0.174866
0.243286 0.160065 0.180817
0.308014 0.169708 0.187683
0.376312 0.178070 0.193268
0.444550 0.186432 0.198669
0.510193 0.195435 0.204742
0.571655 0.205566 0.211914
0.627411 0.217010 0.220703
0.676514 0.230133 0.231323
0.718109 0.244873 0.244171
0.752716 0.260956 0.259033
0.783783 0.278076 0.275360
0.805389 0.297455 0.300049
0.082581 0.165039 0.162445
0.118561 0.178040 0.176361
0.157501 0.189819 0.189056
0.200012 0.200012 0.200012
0.259491 0.209778 0.208160
0.325439 0.217987 0.214203
0.394165 0.225342 0.219055
0.462738 0.232697 0.223724
0.528778 0.240753 0.229034
0.590393 0.249908 0.235535
0.646332 0.260559 0.243744
0.695801 0.272919 0.254150
0.738037 0.287079 0.266968
0.773590 0.303131 0.282257
0.805267 0.320129 0.298981
0.823456 0.340759 0.321381
0.101440 0.217072 0.189270
0.133453 0.231720 0.205322
0.165955 0.245941 0.222107
0.209167 0.256073 0.231934
0.283966 0.252472 0.217133
0.344971 0.259003 0.224976
0.411774 0.267242 0.231842
0.480499 0.274689 0.237000
0.546417 0.282715 0.243011
0.607574 0.292145 0.250488
0.663116 0.302979 0.259644
0.712341 0.315369 0.270844
0.754761 0.329712 0.284485
0.790680 0.345673 0.300446
0.822876 0.362549 0.317780
0.838379 0.383606 0.337250
0.106445 0.275635 0.219391
0.134399 0.291748 0.238403
0.162628 0.307526 0.258545
0.214630 0.314301 0.262329
0.265900 0.323608 0.254395
0.371674 0.304474 0.225037
0.434845 0.307465 0.229126
0.495880 0.315674 0.239655
0.555054 0.326355 0.251495
0.615967 0.335815 0.259277
0.671509 0.346710 0.268860
0.720978 0.359131 0.280518
0.763794 0.373291 0.294464
0.800049 0.389221 0.310608
0.832397 0.406189 0.328003
0.847595 0.427185 0.347168
0.106476 0.336304 0.251129
0.130310 0.354156 0.272461
0.156189 0.370911 0.293945
0.216553 0.374451 0.291809
0.263824 0.386627 0.279449
0.350433 0.382507 0.247101
0.458405 0.358063 0.225952
0.520721 0.359344 0.226807
0.577545 0.366119 0.237000
0.632385 0.375580 0.248230
0.681213 0.387970 0.262695
0.726532 0.401520 0.277100
0.765106 0.417419 0.294617
0.798706 0.434540 0.313293
0.831726 0.451294 0.330688
