Scenic Moods/Striped Purple - Teal Supreme.cube
#Created by: Adobe Photoshop Export Color Lookup Plugin
#Copyright: (C) Copyright 2018 Striped Purple - Austin Barrett
TITLE "Striped Purple - Teal Supreme"
#LUT size
LUT_3D_SIZE 8
#data domain
#LUT data points
DOMAIN_MIN 0.000000 0.000000 0.000000
DOMAIN_MAX 0.903226 0.903226 0.903226
0.000000 0.000000 0.000000
0.129028 0.000000 0.000000
0.258057 0.000000 0.000000
0.387085 0.000000 0.000000
0.516144 0.000000 0.000000
0.645172 0.000000 0.000000
0.774200 0.000000 0.000000
0.903229 0.000000 0.000000
0.022064 0.052795 0.022064
0.085938 0.085938 0.043091
0.215210 0.129028 0.042847
0.365906 0.136047 0.021149
0.516144 0.129028 0.000000
0.645172 0.128998 0.000000
0.774200 0.129089 0.000000
0.903229 0.128998 0.000000
0.044159 0.105560 0.044159
0.102356 0.140350 0.064362
0.171875 0.171875 0.086182
0.279724 0.222290 0.107361
0.430450 0.258087 0.085693
0.580902 0.270874 0.064270
0.731842 0.272095 0.042328
0.882050 0.267059 0.021149
0.066223 0.158325 0.066223
0.109619 0.176788 0.076050
0.201385 0.242767 0.118561
0.257782 0.257782 0.129272
0.344757 0.301422 0.171356
0.495209 0.357056 0.149933
0.645660 0.387085 0.128510
0.795624 0.402405 0.107605
0.088318 0.211121 0.088318
0.119690 0.212311 0.088806
0.204742 0.280731 0.128754
0.300903 0.343750 0.172363
0.343750 0.343750 0.172363
0.429688 0.386871 0.215485
0.559479 0.444580 0.214722
0.710938 0.488708 0.192291
0.110382 0.263885 0.110382
0.141083 0.263885 0.110382
0.211090 0.317291 0.140320
0.302856 0.382477 0.183502
0.386871 0.429688 0.215485
0.429688 0.429688 0.215485
0.515625 0.472748 0.258575
0.624481 0.525726 0.278717
0.132446 0.316650 0.132446
0.163147 0.316650 0.132446
0.219238 0.353607 0.152100
0.307129 0.421082 0.193146
0.402710 0.485504 0.237091
0.472748 0.515625 0.258575
0.515625 0.515625 0.258575
0.601562 0.558716 0.301666
0.154541 0.369446 0.154541
0.185242 0.369446 0.154541
0.228729 0.389496 0.164459
0.313232 0.456665 0.205688
0.405243 0.523926 0.246918
0.503632 0.588989 0.290192
0.558716 0.601562 0.301666
0.601562 0.601562 0.301666
0.000000 0.000000 0.129028
0.129028 0.000000 0.129028
0.258057 0.000000 0.129028
0.387085 0.000000 0.128998
0.516144 0.000000 0.129028
0.645172 0.000000 0.128998
0.774200 0.000000 0.129089
0.903229 0.000000 0.128998
0.095123 0.124176 0.124176
0.129028 0.129028 0.129028
0.258057 0.129028 0.129028
0.387085 0.129028 0.129028
0.516144 0.129028 0.129028
0.645172 0.129028 0.129028
0.774200 0.129028 0.129028
0.903229 0.129028 0.129028
0.079803 0.209839 0.144836
0.151093 0.181824 0.151093
0.214966 0.214966 0.172119
0.344238 0.258057 0.171875
0.494965 0.265076 0.150177
0.645172 0.258057 0.129028
0.774200 0.258026 0.129028
0.903229 0.258118 0.129028
0.078156 0.211823 0.122711
0.173187 0.234589 0.173187
0.231384 0.269379 0.193390
0.300903 0.300903 0.215210
0.408783 0.351288 0.236389
0.559479 0.387115 0.214722
0.709930 0.399902 0.193298
0.860870 0.401123 0.171356
0.088318 0.211121 0.119019
0.195251 0.287354 0.195251
0.238647 0.305847 0.205078
0.330322 0.371735 0.247559
0.386841 0.386841 0.258301
0.473785 0.430450 0.300385
0.624237 0.486176 0.278961
0.774689 0.516113 0.257538
0.110382 0.263885 0.141083
0.217346 0.340149 0.217346
0.248718 0.341339 0.217834
0.333771 0.409760 0.257782
0.429932 0.472778 0.301392
0.472778 0.472778 0.301392
0.558716 0.515900 0.344513
0.688507 0.573608 0.343750
0.132446 0.316650 0.163147
0.239410 0.392914 0.239410
0.270111 0.392914 0.239410
0.340118 0.446320 0.269348
0.432007 0.511597 0.312561
0.515900 0.558716 0.344513
0.558716 0.558716 0.344513
0.644653 0.601776 0.387604
0.154541 0.369446 0.185242
0.261475 0.445679 0.261475
0.292175 0.445679 0.261475
0.348267 0.482635 0.281128
0.436157 0.550110 0.322174
0.531738 0.614532 0.366119
0.601776 0.644653 0.387604
0.644653 0.644653 0.387604
0.000000 0.000000 0.258057
0.129028 0.000000 0.258057
0.258057 0.000000 0.258057
0.387085 0.000000 0.258087
0.516144 0.000000 0.258087
0.645172 0.000000 0.257996
0.774200 0.000000 0.257996
0.903229 0.000000 0.257996
0.104401 0.175934 0.247467
0.129028 0.129028 0.258057
0.258057 0.129028 0.258057
0.387085 0.129028 0.258057
0.516144 0.129028 0.258026
0.645172 0.129028 0.258057
0.774200 0.129028 0.258026
0.903229 0.129028 0.258118
0.190308 0.248383 0.248383
0.224152 0.253204 0.253204
0.258057 0.258057 0.258057
0.387085 0.258057 0.258057
0.516144 0.258057 0.258057
0.645172 0.258057 0.258057
0.774200 0.258057 0.258057
0.903229 0.258057 0.258057
0.222473 0.356598 0.311890
0.208832 0.338867 0.273865
0.280121 0.310852 0.280121
0.343994 0.343994 0.301147
0.473297 0.387115 0.300903
0.623993 0.394104 0.279205
0.774200 0.387085 0.258057
0.903229 0.387054 0.258057
0.159607 0.419708 0.289673
0.207184 0.340881 0.251740
0.302216 0.363647 0.302216
0.360443 0.398438 0.322449
0.429932 0.429932 0.344238
0.537811 0.480347 0.365417
0.688507 0.516144 0.343750
0.838959 0.529053 0.322327
0.143768 0.435822 0.260559
0.217346 0.340149 0.248047
0.324280 0.416382 0.324280
0.367676 0.434875 0.334106
0.459442 0.500824 0.376617
0.515869 0.515869 0.387329
0.602814 0.559479 0.429413
0.753265 0.615204 0.407990
0.156311 0.423676 0.245422
0.239410 0.392914 0.270111
0.346375 0.469177 0.346375
0.377747 0.470367 0.346863
0.462799 0.538788 0.386810
0.558960 0.601807 0.430420
0.601807 0.601807 0.430420
0.687744 0.644928 0.473541
0.166595 0.413696 0.237183
0.261475 0.445679 0.292175
0.368439 0.521942 0.368439
0.399139 0.521942 0.368439
0.469238 0.575439 0.398407
0.561035 0.640625 0.441589
0.644928 0.687744 0.473541
0.687744 0.687744 0.473541
0.000000 0.000000 0.387085
0.128998 0.000000 0.387085
0.258087 0.000000 0.387085
0.387085 0.000000 0.387085
0.516144 0.000000 0.387115
0.645172 0.000000 0.387024
0.774200 0.000000 0.387115
0.903229 0.000000 0.386993
0.058960 0.165680 0.379211
0.129028 0.129028 0.387085
0.258057 0.129028 0.387085
0.387085 0.129028 0.387085
0.516144 0.129028 0.387054
0.645172 0.129028 0.387115
0.774200 0.129028 0.387024
0.903229 0.129028 0.387024
0.247162 0.329224 0.370239
0.233429 0.304962 0.376495
0.258057 0.258057 0.387085
0.387085 0.258057 0.387085
0.516144 0.258057 0.387115
0.645172 0.258057 0.387054
0.774200 0.258057 0.387085
0.903229 0.258057 0.387054
0.285431 0.372559 0.372559
0.319336 0.377411 0.377411
0.353180 0.382233 0.382233
0.387085 0.387085 0.387085
0.516144 0.387085 0.387085
0.645172 0.387085 0.387085
0.774200 0.387085 0.387085
0.903229 0.387085 0.387085
0.373016 0.495331 0.464752
0.351349 0.485626 0.440857
0.337860 0.467926 0.402893
0.409149 0.439880 0.409149
0.473022 0.473022 0.430176
0.602325 0.516144 0.429932
0.753021 0.523224 0.408234
0.903229 0.516113 0.387085
0.298309 0.570190 0.461395
0.288635 0.548737 0.418701
0.336212 0.469910 0.380768
0.431244 0.492676 0.431244
0.489471 0.527466 0.451477
0.558960 0.558960 0.473267
0.666840 0.609375 0.494446
0.817535 0.645172 0.472778
0.239410 0.629547 0.434479
0.272797 0.564850 0.389587
0.346375 0.469177 0.377075
0.453308 0.545410 0.453308
0.496796 0.563965 0.463165
0.588470 0.629852 0.505646
0.644897 0.644897 0.516357
0.731842 0.688507 0.558441
0.205444 0.663849 0.401855
0.285339 0.552704 0.374451
0.368439 0.521942 0.399139
0.475403 0.598206 0.475403
0.506775 0.599396 0.475891
0.591827 0.667816 0.515839
0.687988 0.730835 0.559448
0.730835 0.730835 0.559448
0.000000 0.000000 0.516144
0.129028 0.000000 0.516144
0.258087 0.000000 0.516144
0.387115 0.000000 0.516144
0.516144 0.000000 0.516144
0.645172 0.000000 0.516174
0.774200 0.000000 0.516205
0.903229 0.000000 0.516235
0.009369 0.135803 0.515137
0.129028 0.129028 0.516144
0.258026 0.129028 0.516144
0.387054 0.129028 0.516144
0.516144 0.129028 0.516144
0.645172 0.129028 0.516144
0.774200 0.129028 0.516205
0.903229 0.129028 0.516144
0.208801 0.351898 0.494965
0.187988 0.294708 0.508270
0.258057 0.258057 0.516144
0.387115 0.258057 0.516144
0.516144 0.258057 0.516144
0.645172 0.258057 0.516174
0.774200 0.258057 0.516144
0.903229 0.258057 0.516205
0.380615 0.467743 0.496765
0.376160 0.458221 0.499298
0.362457 0.434021 0.505554
0.387085 0.387085 0.516144
0.516144 0.387085 0.516144
0.645172 0.387085 0.516144
0.774200 0.387085 0.516174
0.903229 0.387085 0.516113
0.380615 0.496765 0.496765
0.414490 0.501617 0.501617
0.448364 0.506470 0.506470
0.482239 0.511292 0.511292
0.516144 0.516144 0.516144
0.645172 0.516144 0.516144
0.774200 0.516144 0.516144
0.903229 0.516144 0.516144
0.475800 0.620972 0.591949
0.502045 0.624359 0.593781
0.480560 0.614685 0.569977
0.466888 0.596954 0.531921
0.538208 0.568939 0.538208
0.602081 0.602081 0.559235
0.731354 0.645172 0.558990
0.882050 0.652191 0.537292
0.445007 0.713226 0.623840
0.427612 0.699280 0.590637
0.417664 0.677765 0.547729
0.465302 0.599091 0.509918
0.560303 0.621704 0.560303
0.618500 0.656494 0.580505
0.688019 0.688019 0.602325
0.795868 0.738434 0.623505
0.378174 0.780487 0.608124
0.368439 0.758575 0.563507
0.401917 0.694183 0.518860
0.475403 0.598206 0.506104
0.582367 0.674469 0.582367
0.625763 0.692932 0.592194
0.717529 0.758911 0.634705
0.773926 0.773926 0.645416
0.000000 0.000000 0.645172
0.128998 0.000000 0.645172
0.257996 0.000000 0.645172
0.387024 0.000000 0.645172
0.516174 0.000000 0.645172
0.645172 0.000000 0.645172
0.774200 0.000000 0.645111
0.903229 0.000000 0.645233
0.000000 0.128998 0.645172
0.129028 0.129028 0.645172
0.258057 0.129028 0.645172
0.387115 0.129028 0.645172
0.516144 0.129028 0.645172
0.645172 0.129028 0.645172
0.774200 0.129028 0.645203
0.903229 0.129028 0.645233
0.164368 0.348816 0.625610
0.138397 0.264832 0.644165
0.258057 0.258057 0.645172
0.387054 0.258057 0.645172
0.516174 0.258057 0.645172
0.645172 0.258057 0.645172
0.774200 0.258057 0.645172
0.903229 0.258057 0.645233
0.352844 0.510895 0.616302
0.337830 0.480927 0.623993
0.317017 0.423737 0.637299
0.387085 0.387085 0.645172
0.516144 0.387085 0.645172
0.645172 0.387085 0.645172
0.774200 0.387085 0.645203
0.903229 0.387085 0.645172
0.475800 0.591949 0.620972
0.509644 0.596771 0.625793
0.505249 0.587311 0.628326
0.491486 0.563049 0.634583
0.516144 0.516144 0.645172
0.645172 0.516144 0.645172
0.774200 0.516144 0.645172
0.903229 0.516144 0.645142
0.475800 0.620972 0.620972
0.509644 0.625793 0.625793
0.543518 0.630646 0.630646
0.577393 0.635498 0.635498
0.611267 0.640320 0.640320
0.645172 0.645172 0.645172
0.774200 0.645172 0.645172
0.903229 0.645172 0.645172
0.570923 0.745148 0.716095
0.604828 0.750000 0.720978
0.631073 0.753387 0.722809
0.609589 0.743713 0.699005
0.595947 0.725983 0.660980
0.667236 0.697968 0.667236
0.731110 0.731110 0.688263
0.860382 0.774200 0.688019
0.594696 0.852722 0.779022
0.574036 0.842255 0.752869
0.556641 0.828308 0.719666
0.546692 0.806793 0.676758
0.594299 0.727966 0.638855
0.689331 0.750732 0.689331
0.747528 0.785522 0.709534
0.817047 0.817047 0.731354
0.000000 0.000000 0.774200
0.129089 0.000000 0.774200
0.257996 0.000000 0.774200
0.387115 0.000000 0.774200
0.516205 0.000000 0.774200
0.645111 0.000000 0.774200
0.774200 0.000000 0.774200
0.903229 0.000000 0.774231
0.000000 0.129089 0.774200
0.129028 0.129028 0.774200
0.258026 0.129028 0.774200
0.387024 0.129028 0.774200
0.516205 0.129028 0.774200
0.645203 0.129028 0.774200
0.774200 0.129028 0.774200
0.903229 0.129028 0.774139
0.117920 0.331390 0.758453
0.129028 0.258026 0.774200
0.258057 0.258057 0.774200
0.387085 0.258057 0.774200
0.516144 0.258057 0.774200
0.645172 0.258057 0.774200
0.774200 0.258057 0.774200
0.903229 0.258057 0.774231
0.313171 0.527802 0.742432
0.293396 0.477844 0.754639
0.267426 0.393860 0.773193
0.387085 0.387085 0.774200
0.516174 0.387085 0.774200
0.645203 0.387085 0.774200
0.774200 0.387085 0.774200
0.903229 0.387085 0.774200
0.494385 0.658478 0.740509
0.482117 0.640076 0.745361
0.466858 0.609955 0.753021
0.446198 0.552948 0.766327
0.516144 0.516144 0.774200
0.645172 0.516144 0.774200
0.774200 0.516144 0.774200
0.903229 0.516144 0.774231
0.570923 0.716095 0.745148
0.604828 0.720978 0.750000
0.638672 0.725800 0.754822
0.634277 0.716339 0.757355
0.620544 0.692078 0.763611
0.645172 0.645172 0.774200
0.774200 0.645172 0.774200
0.903229 0.645172 0.774200
0.570923 0.745148 0.745148
0.604828 0.750000 0.750000
0.638672 0.754822 0.754822
0.672546 0.759674 0.759674
0.706451 0.764526 0.764526
0.740295 0.769348 0.769348
0.774200 0.774200 0.774200
0.903229 0.774200 0.774200
0.666077 0.869354 0.840332
0.699951 0.874176 0.845123
0.733856 0.879028 0.850006
0.760101 0.882416 0.851837
0.738617 0.872742 0.828033
0.724976 0.855011 0.790009
0.796265 0.826996 0.796265
0.860138 0.860138 0.817291
0.000000 0.000000 0.903229
0.128998 0.000000 0.903229
0.257996 0.000000 0.903229
0.386993 0.000000 0.903229
0.516235 0.000000 0.903229
0.645233 0.000000 0.903229
0.774231 0.000000 0.903229
0.903229 0.000000 0.903229
0.000000 0.128998 0.903229
0.129028 0.129028 0.903229
0.258118 0.129028 0.903229
0.387024 0.129028 0.903229
0.516144 0.129028 0.903229
0.645233 0.129028 0.903229
0.774139 0.129028 0.903229
0.903229 0.129028 0.903229
0.069305 0.304688 0.893341
0.129028 0.258118 0.903229
0.258057 0.258057 0.903229
0.387054 0.258057 0.903229
0.516205 0.258057 0.903229
0.645233 0.258057 0.903229
0.774231 0.258057 0.903229
0.903229 0.258057 0.903229
0.269745 0.527832 0.872070
0.246948 0.460419 0.887482
0.258057 0.387054 0.903229
0.387085 0.387085 0.903229
0.516113 0.387085 0.903229
0.645172 0.387085 0.903229
0.774200 0.387085 0.903229
0.903229 0.387085 0.903229
0.457886 0.689667 0.863434
0.442200 0.656830 0.871460
0.422668 0.607147 0.883698
0.396454 0.522888 0.902222
0.516144 0.516144 0.903229
0.645142 0.516144 0.903229
0.774231 0.516144 0.903229
0.903229 0.516144 0.903229
0.633698 0.800201 0.866760
0.623413 0.787506 0.869537
0.611145 0.769104 0.874390
0.595886 0.738983 0.882050
0.575104 0.681824 0.895355
0.645172 0.645172 0.903229
0.774200 0.645172 0.903229
0.903229 0.645172 0.903229
0.666077 0.840332 0.869354
0.699951 0.845123 0.874176
0.733856 0.850006 0.879028
0.767700 0.854828 0.883850
0.763306 0.845367 0.886383
0.749573 0.821106 0.892639
0.774200 0.774200 0.903229
0.903229 0.774200 0.903229
0.666077 0.869354 0.869354
0.699951 0.874176 0.874176
0.733856 0.879028 0.879028
0.767700 0.883850 0.883850
0.801575 0.888702 0.888702
0.835480 0.893555 0.893555
0.869324 0.898376 0.898376
0.903229 0.903229 0.903229
