Scenic Moods/Striped Purple - Snowy Blues.cube
#Created by: Adobe Photoshop Export Color Lookup Plugin
#Copyright: (C) Copyright 2019 Snowy Blues by Striped Purple - © Austin Barrett All Rights Reserved.
TITLE "Snowy Blues"
#LUT size
LUT_3D_SIZE 8
#data domain
#LUT data points
DOMAIN_MIN 0.000000 0.000000 0.000000
DOMAIN_MAX 0.903226 0.903226 0.903226
0.047058 0.062744 0.062744
0.132660 0.062744 0.062744
0.222534 0.062744 0.062744
0.320953 0.062744 0.062744
0.432220 0.062744 0.062744
0.558441 0.062744 0.062744
0.696320 0.062744 0.062744
0.841644 0.062744 0.062744
0.047058 0.186432 0.062744
0.132660 0.186432 0.062744
0.222534 0.186432 0.062744
0.320953 0.186432 0.062744
0.432220 0.186432 0.062744
0.558441 0.186432 0.062744
0.696320 0.186432 0.062744
0.841644 0.186432 0.062744
0.047058 0.308929 0.062744
0.132660 0.308929 0.062744
0.222534 0.308929 0.062744
0.320953 0.308929 0.062744
0.432220 0.308929 0.062744
0.558441 0.308929 0.062744
0.696320 0.308929 0.062744
0.841644 0.308929 0.062744
0.047058 0.429016 0.062744
0.132660 0.429016 0.062744
0.222534 0.429016 0.062744
0.320953 0.429016 0.062744
0.432220 0.429016 0.062744
0.558441 0.429016 0.062744
0.696320 0.429016 0.062744
0.841644 0.429016 0.062744
0.047058 0.545502 0.062744
0.132660 0.545502 0.062744
0.222534 0.545502 0.062744
0.320953 0.545502 0.062744
0.432220 0.545502 0.062744
0.558441 0.545502 0.062744
0.696320 0.545502 0.062744
0.841644 0.545502 0.062744
0.047058 0.657715 0.062744
0.132660 0.657715 0.062744
0.222534 0.657715 0.062744
0.320953 0.657715 0.062744
0.432220 0.657715 0.062744
0.558441 0.657715 0.062744
0.696320 0.657715 0.062744
0.841644 0.657715 0.062744
0.047058 0.766632 0.062744
0.132660 0.766632 0.062744
0.222534 0.766632 0.062744
0.320953 0.766632 0.062744
0.432220 0.766632 0.062744
0.558441 0.766632 0.062744
0.696320 0.766632 0.062744
0.841644 0.766632 0.062744
0.047058 0.873474 0.062744
0.132660 0.873474 0.062744
0.222534 0.873474 0.062744
0.320953 0.873474 0.062744
0.432220 0.873474 0.062744
0.558441 0.873474 0.062744
0.696320 0.873474 0.062744
0.841644 0.873474 0.062744
0.047058 0.062744 0.203125
0.132660 0.062744 0.203125
0.222534 0.062744 0.203125
0.320953 0.062744 0.203125
0.432220 0.062744 0.203125
0.558441 0.062744 0.203125
0.696320 0.062744 0.203125
0.841644 0.062744 0.203125
0.047058 0.186432 0.203125
0.132660 0.186432 0.203125
0.222534 0.186432 0.203125
0.320953 0.186432 0.203125
0.432220 0.186432 0.203125
0.558441 0.186432 0.203125
0.696320 0.186432 0.203125
0.841644 0.186432 0.203125
0.047058 0.308929 0.203125
0.132660 0.308929 0.203125
0.222534 0.308929 0.203125
0.320953 0.308929 0.203125
0.432220 0.308929 0.203125
0.558441 0.308929 0.203125
0.696320 0.308929 0.203125
0.841644 0.308929 0.203125
0.047058 0.429016 0.203125
0.132660 0.429016 0.203125
0.222534 0.429016 0.203125
0.320953 0.429016 0.203125
0.432220 0.429016 0.203125
0.558441 0.429016 0.203125
0.696320 0.429016 0.203125
0.841644 0.429016 0.203125
0.047058 0.545502 0.203125
0.132660 0.545502 0.203125
0.222534 0.545502 0.203125
0.320953 0.545502 0.203125
0.432220 0.545502 0.203125
0.558441 0.545502 0.203125
0.696320 0.545502 0.203125
0.841644 0.545502 0.203125
0.047058 0.657715 0.203125
0.132660 0.657715 0.203125
0.222534 0.657715 0.203125
0.320953 0.657715 0.203125
0.432220 0.657715 0.203125
0.558441 0.657715 0.203125
0.696320 0.657715 0.203125
0.841644 0.657715 0.203125
0.047058 0.766632 0.203125
0.132660 0.766632 0.203125
0.222534 0.766632 0.203125
0.320953 0.766632 0.203125
0.432220 0.766632 0.203125
0.558441 0.766632 0.203125
0.696320 0.766632 0.203125
0.841644 0.766632 0.203125
0.047058 0.873474 0.203125
0.132660 0.873474 0.203125
0.222534 0.873474 0.203125
0.320953 0.873474 0.203125
0.432220 0.873474 0.203125
0.558441 0.873474 0.203125
0.696320 0.873474 0.203125
0.841644 0.873474 0.203125
0.047058 0.062744 0.340332
0.132660 0.062744 0.340332
0.222534 0.062744 0.340332
0.320953 0.062744 0.340332
0.432220 0.062744 0.340332
0.558441 0.062744 0.340332
0.696320 0.062744 0.340332
0.841644 0.062744 0.340332
0.047058 0.186432 0.340332
0.132660 0.186432 0.340332
0.222534 0.186432 0.340332
0.320953 0.186432 0.340332
0.432220 0.186432 0.340332
0.558441 0.186432 0.340332
0.696320 0.186432 0.340332
0.841644 0.186432 0.340332
0.047058 0.308929 0.340332
0.132660 0.308929 0.340332
0.222534 0.308929 0.340332
0.320953 0.308929 0.340332
0.432220 0.308929 0.340332
0.558441 0.308929 0.340332
0.696320 0.308929 0.340332
0.841644 0.308929 0.340332
0.047058 0.429016 0.340332
0.132660 0.429016 0.340332
0.222534 0.429016 0.340332
0.320953 0.429016 0.340332
0.432220 0.429016 0.340332
0.558441 0.429016 0.340332
0.696320 0.429016 0.340332
0.841644 0.429016 0.340332
0.047058 0.545502 0.340332
0.132660 0.545502 0.340332
0.222534 0.545502 0.340332
0.320953 0.545502 0.340332
0.432220 0.545502 0.340332
0.558441 0.545502 0.340332
0.696320 0.545502 0.340332
0.841644 0.545502 0.340332
0.047058 0.657715 0.340332
0.132660 0.657715 0.340332
0.222534 0.657715 0.340332
0.320953 0.657715 0.340332
0.432220 0.657715 0.340332
0.558441 0.657715 0.340332
0.696320 0.657715 0.340332
0.841644 0.657715 0.340332
0.047058 0.766632 0.340332
0.132660 0.766632 0.340332
0.222534 0.766632 0.340332
0.320953 0.766632 0.340332
0.432220 0.766632 0.340332
0.558441 0.766632 0.340332
0.696320 0.766632 0.340332
0.841644 0.766632 0.340332
0.047058 0.873474 0.340332
0.132660 0.873474 0.340332
0.222534 0.873474 0.340332
0.320953 0.873474 0.340332
0.432220 0.873474 0.340332
0.558441 0.873474 0.340332
0.696320 0.873474 0.340332
0.841644 0.873474 0.340332
0.047058 0.062744 0.471283
0.132660 0.062744 0.471283
0.222534 0.062744 0.471283
0.320953 0.062744 0.471283
0.432220 0.062744 0.471283
0.558441 0.062744 0.471283
0.696320 0.062744 0.471283
0.841644 0.062744 0.471283
0.047058 0.186432 0.471283
0.132660 0.186432 0.471283
0.222534 0.186432 0.471283
0.320953 0.186432 0.471283
0.432220 0.186432 0.471283
0.558441 0.186432 0.471283
0.696320 0.186432 0.471283
0.841644 0.186432 0.471283
0.047058 0.308929 0.471283
0.132660 0.308929 0.471283
0.222534 0.308929 0.471283
0.320953 0.308929 0.471283
0.432220 0.308929 0.471283
0.558441 0.308929 0.471283
0.696320 0.308929 0.471283
0.841644 0.308929 0.471283
0.047058 0.429016 0.471283
0.132660 0.429016 0.471283
0.222534 0.429016 0.471283
0.320953 0.429016 0.471283
0.432220 0.429016 0.471283
0.558441 0.429016 0.471283
0.696320 0.429016 0.471283
0.841644 0.429016 0.471283
0.047058 0.545502 0.471283
0.132660 0.545502 0.471283
0.222534 0.545502 0.471283
0.320953 0.545502 0.471283
0.432220 0.545502 0.471283
0.558441 0.545502 0.471283
0.696320 0.545502 0.471283
0.841644 0.545502 0.471283
0.047058 0.657715 0.471283
0.132660 0.657715 0.471283
0.222534 0.657715 0.471283
0.320953 0.657715 0.471283
0.432220 0.657715 0.471283
0.558441 0.657715 0.471283
0.696320 0.657715 0.471283
0.841644 0.657715 0.471283
0.047058 0.766632 0.471283
0.132660 0.766632 0.471283
0.222534 0.766632 0.471283
0.320953 0.766632 0.471283
0.432220 0.766632 0.471283
0.558441 0.766632 0.471283
0.696320 0.766632 0.471283
0.841644 0.766632 0.471283
0.047058 0.873474 0.471283
0.132660 0.873474 0.471283
0.222534 0.873474 0.471283
0.320953 0.873474 0.471283
0.432220 0.873474 0.471283
0.558441 0.873474 0.471283
0.696320 0.873474 0.471283
0.841644 0.873474 0.471283
0.047058 0.062744 0.592834
0.132660 0.062744 0.592834
0.222534 0.062744 0.592834
0.320953 0.062744 0.592834
0.432220 0.062744 0.592834
0.558441 0.062744 0.592834
0.696320 0.062744 0.592834
0.841644 0.062744 0.592834
0.047058 0.186432 0.592834
0.132660 0.186432 0.592834
0.222534 0.186432 0.592834
0.320953 0.186432 0.592834
0.432220 0.186432 0.592834
0.558441 0.186432 0.592834
0.696320 0.186432 0.592834
0.841644 0.186432 0.592834
0.047058 0.308929 0.592834
0.132660 0.308929 0.592834
0.222534 0.308929 0.592834
0.320953 0.308929 0.592834
0.432220 0.308929 0.592834
0.558441 0.308929 0.592834
0.696320 0.308929 0.592834
0.841644 0.308929 0.592834
0.047058 0.429016 0.592834
0.132660 0.429016 0.592834
0.222534 0.429016 0.592834
0.320953 0.429016 0.592834
0.432220 0.429016 0.592834
0.558441 0.429016 0.592834
0.696320 0.429016 0.592834
0.841644 0.429016 0.592834
0.047058 0.545502 0.592834
0.132660 0.545502 0.592834
0.222534 0.545502 0.592834
0.320953 0.545502 0.592834
0.432220 0.545502 0.592834
0.558441 0.545502 0.592834
0.696320 0.545502 0.592834
0.841644 0.545502 0.592834
0.047058 0.657715 0.592834
0.132660 0.657715 0.592834
0.222534 0.657715 0.592834
0.320953 0.657715 0.592834
0.432220 0.657715 0.592834
0.558441 0.657715 0.592834
0.696320 0.657715 0.592834
0.841644 0.657715 0.592834
0.047058 0.766632 0.592834
0.132660 0.766632 0.592834
0.222534 0.766632 0.592834
0.320953 0.766632 0.592834
0.432220 0.766632 0.592834
0.558441 0.766632 0.592834
0.696320 0.766632 0.592834
0.841644 0.766632 0.592834
0.047058 0.873474 0.592834
0.132660 0.873474 0.592834
0.222534 0.873474 0.592834
0.320953 0.873474 0.592834
0.432220 0.873474 0.592834
0.558441 0.873474 0.592834
0.696320 0.873474 0.592834
0.841644 0.873474 0.592834
0.047058 0.062744 0.703369
0.132660 0.062744 0.703369
0.222534 0.062744 0.703369
0.320953 0.062744 0.703369
0.432220 0.062744 0.703369
0.558441 0.062744 0.703369
0.696320 0.062744 0.703369
0.841644 0.062744 0.703369
0.047058 0.186432 0.703369
0.132660 0.186432 0.703369
0.222534 0.186432 0.703369
0.320953 0.186432 0.703369
0.432220 0.186432 0.703369
0.558441 0.186432 0.703369
0.696320 0.186432 0.703369
0.841644 0.186432 0.703369
0.047058 0.308929 0.703369
0.132660 0.308929 0.703369
0.222534 0.308929 0.703369
0.320953 0.308929 0.703369
0.432220 0.308929 0.703369
0.558441 0.308929 0.703369
0.696320 0.308929 0.703369
0.841644 0.308929 0.703369
0.047058 0.429016 0.703369
0.132660 0.429016 0.703369
0.222534 0.429016 0.703369
0.320953 0.429016 0.703369
0.432220 0.429016 0.703369
0.558441 0.429016 0.703369
0.696320 0.429016 0.703369
0.841644 0.429016 0.703369
0.047058 0.545502 0.703369
0.132660 0.545502 0.703369
0.222534 0.545502 0.703369
0.320953 0.545502 0.703369
0.432220 0.545502 0.703369
0.558441 0.545502 0.703369
0.696320 0.545502 0.703369
0.841644 0.545502 0.703369
0.047058 0.657715 0.703369
0.132660 0.657715 0.703369
0.222534 0.657715 0.703369
0.320953 0.657715 0.703369
0.432220 0.657715 0.703369
0.558441 0.657715 0.703369
0.696320 0.657715 0.703369
0.841644 0.657715 0.703369
0.047058 0.766632 0.703369
0.132660 0.766632 0.703369
0.222534 0.766632 0.703369
0.320953 0.766632 0.703369
0.432220 0.766632 0.703369
0.558441 0.766632 0.703369
0.696320 0.766632 0.703369
0.841644 0.766632 0.703369
0.047058 0.873474 0.703369
0.132660 0.873474 0.703369
0.222534 0.873474 0.703369
0.320953 0.873474 0.703369
0.432220 0.873474 0.703369
0.558441 0.873474 0.703369
0.696320 0.873474 0.703369
0.841644 0.873474 0.703369
0.047058 0.062744 0.805328
0.132660 0.062744 0.805328
0.222534 0.062744 0.805328
0.320953 0.062744 0.805328
0.432220 0.062744 0.805328
0.558441 0.062744 0.805328
0.696320 0.062744 0.805328
0.841644 0.062744 0.805328
0.047058 0.186432 0.805328
0.132660 0.186432 0.805328
0.222534 0.186432 0.805328
0.320953 0.186432 0.805328
0.432220 0.186432 0.805328
0.558441 0.186432 0.805328
0.696320 0.186432 0.805328
0.841644 0.186432 0.805328
0.047058 0.308929 0.805328
0.132660 0.308929 0.805328
0.222534 0.308929 0.805328
0.320953 0.308929 0.805328
0.432220 0.308929 0.805328
0.558441 0.308929 0.805328
0.696320 0.308929 0.805328
0.841644 0.308929 0.805328
0.047058 0.429016 0.805328
0.132660 0.429016 0.805328
0.222534 0.429016 0.805328
0.320953 0.429016 0.805328
0.432220 0.429016 0.805328
0.558441 0.429016 0.805328
0.696320 0.429016 0.805328
0.841644 0.429016 0.805328
0.047058 0.545502 0.805328
0.132660 0.545502 0.805328
0.222534 0.545502 0.805328
0.320953 0.545502 0.805328
0.432220 0.545502 0.805328
0.558441 0.545502 0.805328
0.696320 0.545502 0.805328
0.841644 0.545502 0.805328
0.047058 0.657715 0.805328
0.132660 0.657715 0.805328
0.222534 0.657715 0.805328
0.320953 0.657715 0.805328
0.432220 0.657715 0.805328
0.558441 0.657715 0.805328
0.696320 0.657715 0.805328
0.841644 0.657715 0.805328
0.047058 0.766632 0.805328
0.132660 0.766632 0.805328
0.222534 0.766632 0.805328
0.320953 0.766632 0.805328
0.432220 0.766632 0.805328
0.558441 0.766632 0.805328
0.696320 0.766632 0.805328
0.841644 0.766632 0.805328
0.047058 0.873474 0.805328
0.132660 0.873474 0.805328
0.222534 0.873474 0.805328
0.320953 0.873474 0.805328
0.432220 0.873474 0.805328
0.558441 0.873474 0.805328
0.696320 0.873474 0.805328
0.841644 0.873474 0.805328
0.047058 0.062744 0.901855
0.132660 0.062744 0.901855
0.222534 0.062744 0.901855
0.320953 0.062744 0.901855
0.432220 0.062744 0.901855
0.558441 0.062744 0.901855
0.696320 0.062744 0.901855
0.841644 0.062744 0.901855
0.047058 0.186432 0.901855
0.132660 0.186432 0.901855
0.222534 0.186432 0.901855
0.320953 0.186432 0.901855
0.432220 0.186432 0.901855
0.558441 0.186432 0.901855
0.696320 0.186432 0.901855
0.841644 0.186432 0.901855
0.047058 0.308929 0.901855
0.132660 0.308929 0.901855
0.222534 0.308929 0.901855
0.320953 0.308929 0.901855
0.432220 0.308929 0.901855
0.558441 0.308929 0.901855
0.696320 0.308929 0.901855
0.841644 0.308929 0.901855
0.047058 0.429016 0.901855
0.132660 0.429016 0.901855
0.222534 0.429016 0.901855
0.320953 0.429016 0.901855
0.432220 0.429016 0.901855
0.558441 0.429016 0.901855
0.696320 0.429016 0.901855
0.841644 0.429016 0.901855
0.047058 0.545502 0.901855
0.132660 0.545502 0.901855
0.222534 0.545502 0.901855
0.320953 0.545502 0.901855
0.432220 0.545502 0.901855
0.558441 0.545502 0.901855
0.696320 0.545502 0.901855
0.841644 0.545502 0.901855
0.047058 0.657715 0.901855
0.132660 0.657715 0.901855
0.222534 0.657715 0.901855
0.320953 0.657715 0.901855
0.432220 0.657715 0.901855
0.558441 0.657715 0.901855
0.696320 0.657715 0.901855
0.841644 0.657715 0.901855
0.047058 0.766632 0.901855
0.132660 0.766632 0.901855
0.222534 0.766632 0.901855
0.320953 0.766632 0.901855
0.432220 0.766632 0.901855
0.558441 0.766632 0.901855
0.696320 0.766632 0.901855
0.841644 0.766632 0.901855
0.047058 0.873474 0.901855
0.132660 0.873474 0.901855
0.222534 0.873474 0.901855
0.320953 0.873474 0.901855
0.432220 0.873474 0.901855
0.558441 0.873474 0.901855
0.696320 0.873474 0.901855
0.841644 0.873474 0.901855
