Scenic Moods/Striped Purple - Snowy Blues.cube
#Created by: Adobe Photoshop Export Color Lookup Plugin
#Copyright: (C) Copyright 2019 Snowy Blues by Striped Purple - © Austin Barrett All Rights Reserved.
TITLE "Snowy Blues"
#LUT size
LUT_3D_SIZE 5
#data domain
#LUT data points
DOMAIN_MIN 0.000000 0.000000 0.000000
DOMAIN_MAX 0.903226 0.903226 0.903226
0.047058 0.062744 0.062744
0.199432 0.062744 0.062744
0.374695 0.062744 0.062744
0.591980 0.062744 0.062744
0.841644 0.062744 0.062744
0.047058 0.278473 0.062744
0.199432 0.278473 0.062744
0.374695 0.278473 0.062744
0.591980 0.278473 0.062744
0.841644 0.278473 0.062744
0.047058 0.487762 0.062744
0.199432 0.487762 0.062744
0.374695 0.487762 0.062744
0.591980 0.487762 0.062744
0.841644 0.487762 0.062744
0.047058 0.685211 0.062744
0.199432 0.685211 0.062744
0.374695 0.685211 0.062744
0.591980 0.685211 0.062744
0.841644 0.685211 0.062744
0.047058 0.873474 0.062744
0.199432 0.873474 0.062744
0.374695 0.873474 0.062744
0.591980 0.873474 0.062744
0.841644 0.873474 0.062744
0.047058 0.062744 0.306488
0.199432 0.062744 0.306488
0.374695 0.062744 0.306488
0.591980 0.062744 0.306488
0.841644 0.062744 0.306488
0.047058 0.278473 0.306488
0.199432 0.278473 0.306488
0.374695 0.278473 0.306488
0.591980 0.278473 0.306488
0.841644 0.278473 0.306488
0.047058 0.487762 0.306488
0.199432 0.487762 0.306488
0.374695 0.487762 0.306488
0.591980 0.487762 0.306488
0.841644 0.487762 0.306488
0.047058 0.685211 0.306488
0.199432 0.685211 0.306488
0.374695 0.685211 0.306488
0.591980 0.685211 0.306488
0.841644 0.685211 0.306488
0.047058 0.873474 0.306488
0.199432 0.873474 0.306488
0.374695 0.873474 0.306488
0.591980 0.873474 0.306488
0.841644 0.873474 0.306488
0.047058 0.062744 0.533417
0.199432 0.062744 0.533417
0.374695 0.062744 0.533417
0.591980 0.062744 0.533417
0.841644 0.062744 0.533417
0.047058 0.278473 0.533417
0.199432 0.278473 0.533417
0.374695 0.278473 0.533417
0.591980 0.278473 0.533417
0.841644 0.278473 0.533417
0.047058 0.487762 0.533417
0.199432 0.487762 0.533417
0.374695 0.487762 0.533417
0.591980 0.487762 0.533417
0.841644 0.487762 0.533417
0.047058 0.685211 0.533417
0.199432 0.685211 0.533417
0.374695 0.685211 0.533417
0.591980 0.685211 0.533417
0.841644 0.685211 0.533417
0.047058 0.873474 0.533417
0.199432 0.873474 0.533417
0.374695 0.873474 0.533417
0.591980 0.873474 0.533417
0.841644 0.873474 0.533417
0.047058 0.062744 0.729553
0.199432 0.062744 0.729553
0.374695 0.062744 0.729553
0.591980 0.062744 0.729553
0.841644 0.062744 0.729553
0.047058 0.278473 0.729553
0.199432 0.278473 0.729553
0.374695 0.278473 0.729553
0.591980 0.278473 0.729553
0.841644 0.278473 0.729553
0.047058 0.487762 0.729553
0.199432 0.487762 0.729553
0.374695 0.487762 0.729553
0.591980 0.487762 0.729553
0.841644 0.487762 0.729553
0.047058 0.685211 0.729553
0.199432 0.685211 0.729553
0.374695 0.685211 0.729553
0.591980 0.685211 0.729553
0.841644 0.685211 0.729553
0.047058 0.873474 0.729553
0.199432 0.873474 0.729553
0.374695 0.873474 0.729553
0.591980 0.873474 0.729553
0.841644 0.873474 0.729553
0.047058 0.062744 0.901855
0.199432 0.062744 0.901855
0.374695 0.062744 0.901855
0.591980 0.062744 0.901855
0.841644 0.062744 0.901855
0.047058 0.278473 0.901855
0.199432 0.278473 0.901855
0.374695 0.278473 0.901855
0.591980 0.278473 0.901855
0.841644 0.278473 0.901855
0.047058 0.487762 0.901855
0.199432 0.487762 0.901855
0.374695 0.487762 0.901855
0.591980 0.487762 0.901855
0.841644 0.487762 0.901855
0.047058 0.685211 0.901855
0.199432 0.685211 0.901855
0.374695 0.685211 0.901855
0.591980 0.685211 0.901855
0.841644 0.685211 0.901855
0.047058 0.873474 0.901855
0.199432 0.873474 0.901855
0.374695 0.873474 0.901855
0.591980 0.873474 0.901855
0.841644 0.873474 0.901855
