Scenic Moods/Striped Purple - Irish Uprising.cube
#Created by: Adobe Photoshop Export Color Lookup Plugin
#Copyright: (C) Copyright 2019 Irish Uprising by Striped Purple - © Austin Barrett All Rights Reserved.
TITLE "Striped Purple - Irish Uprising"
#LUT size
LUT_3D_SIZE 5
#data domain
#LUT data points
DOMAIN_MIN 0.000000 0.000000 0.000000
DOMAIN_MAX 0.903226 0.903226 0.903226
0.015686 0.058838 0.066681
0.278931 0.058838 0.066681
0.519928 0.058838 0.066681
0.720093 0.058838 0.066681
0.888763 0.058838 0.066681
0.015686 0.278809 0.066681
0.278931 0.278809 0.066681
0.519928 0.278809 0.066681
0.720093 0.278809 0.066681
0.888763 0.278809 0.066681
0.015686 0.491241 0.066681
0.278931 0.491241 0.066681
0.519928 0.491241 0.066681
0.720093 0.491241 0.066681
0.888763 0.491241 0.066681
0.015686 0.689850 0.066681
0.278931 0.689850 0.066681
0.519928 0.689850 0.066681
0.720093 0.689850 0.066681
0.888763 0.689850 0.066681
0.015686 0.877747 0.066681
0.278931 0.877747 0.066681
0.519928 0.877747 0.066681
0.720093 0.877747 0.066681
0.888763 0.877747 0.066681
0.015686 0.058838 0.202393
0.278931 0.058838 0.202393
0.519928 0.058838 0.202393
0.720093 0.058838 0.202393
0.888763 0.058838 0.202393
0.015686 0.278809 0.202393
0.278931 0.278809 0.202393
0.519928 0.278809 0.202393
0.720093 0.278809 0.202393
0.888763 0.278809 0.202393
0.015686 0.491241 0.202393
0.278931 0.491241 0.202393
0.519928 0.491241 0.202393
0.720093 0.491241 0.202393
0.888763 0.491241 0.202393
0.015686 0.689850 0.202393
0.278931 0.689850 0.202393
0.519928 0.689850 0.202393
0.720093 0.689850 0.202393
0.888763 0.689850 0.202393
0.015686 0.877747 0.202393
0.278931 0.877747 0.202393
0.519928 0.877747 0.202393
0.720093 0.877747 0.202393
0.888763 0.877747 0.202393
0.015686 0.058838 0.367523
0.278931 0.058838 0.367523
0.519928 0.058838 0.367523
0.720093 0.058838 0.367523
0.888763 0.058838 0.367523
0.015686 0.278809 0.367523
0.278931 0.278809 0.367523
0.519928 0.278809 0.367523
0.720093 0.278809 0.367523
0.888763 0.278809 0.367523
0.015686 0.491241 0.367523
0.278931 0.491241 0.367523
0.519928 0.491241 0.367523
0.720093 0.491241 0.367523
0.888763 0.491241 0.367523
0.015686 0.689850 0.367523
0.278931 0.689850 0.367523
0.519928 0.689850 0.367523
0.720093 0.689850 0.367523
0.888763 0.689850 0.367523
0.015686 0.877747 0.367523
0.278931 0.877747 0.367523
0.519928 0.877747 0.367523
0.720093 0.877747 0.367523
0.888763 0.877747 0.367523
0.015686 0.058838 0.586670
0.278931 0.058838 0.586670
0.519928 0.058838 0.586670
0.720093 0.058838 0.586670
0.888763 0.058838 0.586670
0.015686 0.278809 0.586670
0.278931 0.278809 0.586670
0.519928 0.278809 0.586670
0.720093 0.278809 0.586670
0.888763 0.278809 0.586670
0.015686 0.491241 0.586670
0.278931 0.491241 0.586670
0.519928 0.491241 0.586670
0.720093 0.491241 0.586670
0.888763 0.491241 0.586670
0.015686 0.689850 0.586670
0.278931 0.689850 0.586670
0.519928 0.689850 0.586670
0.720093 0.689850 0.586670
0.888763 0.689850 0.586670
0.015686 0.877747 0.586670
0.278931 0.877747 0.586670
0.519928 0.877747 0.586670
0.720093 0.877747 0.586670
0.888763 0.877747 0.586670
0.015686 0.058838 0.847412
0.278931 0.058838 0.847412
0.519928 0.058838 0.847412
0.720093 0.058838 0.847412
0.888763 0.058838 0.847412
0.015686 0.278809 0.847412
0.278931 0.278809 0.847412
0.519928 0.278809 0.847412
0.720093 0.278809 0.847412
0.888763 0.278809 0.847412
0.015686 0.491241 0.847412
0.278931 0.491241 0.847412
0.519928 0.491241 0.847412
0.720093 0.491241 0.847412
0.888763 0.491241 0.847412
0.015686 0.689850 0.847412
0.278931 0.689850 0.847412
0.519928 0.689850 0.847412
0.720093 0.689850 0.847412
0.888763 0.689850 0.847412
0.015686 0.877747 0.847412
0.278931 0.877747 0.847412
0.519928 0.877747 0.847412
0.720093 0.877747 0.847412
0.888763 0.877747 0.847412
