Scenic Moods/Striped Purple - Irish Uprising.cube
#Created by: Adobe Photoshop Export Color Lookup Plugin
#Copyright: (C) Copyright 2019 Irish Uprising by Striped Purple - © Austin Barrett All Rights Reserved.
TITLE "Striped Purple - Irish Uprising"
#LUT size
LUT_3D_SIZE 32
#data domain
DOMAIN_MIN 0.0 0.0 0.0
DOMAIN_MAX 1.0 1.0 1.0
#LUT data points
0.015686 0.058838 0.066681
0.053802 0.058838 0.066681
0.091888 0.058838 0.066681
0.129791 0.058838 0.066681
0.167542 0.058838 0.066681
0.205017 0.058838 0.066681
0.242188 0.058838 0.066681
0.278931 0.058838 0.066681
0.315247 0.058838 0.066681
0.351044 0.058838 0.066681
0.386230 0.058838 0.066681
0.420776 0.058838 0.066681
0.454651 0.058838 0.066681
0.487701 0.058838 0.066681
0.519928 0.058838 0.066681
0.551239 0.058838 0.066681
0.581604 0.058838 0.066681
0.610992 0.058838 0.066681
0.639465 0.058838 0.066681
0.667084 0.058838 0.066681
0.693939 0.058838 0.066681
0.720093 0.058838 0.066681
0.745605 0.058838 0.066681
0.770538 0.058838 0.066681
0.794952 0.058838 0.066681
0.818939 0.058838 0.066681
0.842499 0.058838 0.066681
0.865753 0.058838 0.066681
0.888763 0.058838 0.066681
0.911560 0.058838 0.066681
0.934235 0.058838 0.066681
0.956848 0.058838 0.066681
0.015686 0.090454 0.066681
0.053802 0.090454 0.066681
0.091888 0.090454 0.066681
0.129791 0.090454 0.066681
0.167542 0.090454 0.066681
0.205017 0.090454 0.066681
0.242188 0.090454 0.066681
0.278931 0.090454 0.066681
0.315247 0.090454 0.066681
0.351044 0.090454 0.066681
0.386230 0.090454 0.066681
0.420776 0.090454 0.066681
0.454651 0.090454 0.066681
0.487701 0.090454 0.066681
0.519928 0.090454 0.066681
0.551239 0.090454 0.066681
0.581604 0.090454 0.066681
0.610992 0.090454 0.066681
0.639465 0.090454 0.066681
0.667084 0.090454 0.066681
0.693939 0.090454 0.066681
0.720093 0.090454 0.066681
0.745605 0.090454 0.066681
0.770538 0.090454 0.066681
0.794952 0.090454 0.066681
0.818939 0.090454 0.066681
0.842499 0.090454 0.066681
0.865753 0.090454 0.066681
0.888763 0.090454 0.066681
0.911560 0.090454 0.066681
0.934235 0.090454 0.066681
0.956848 0.090454 0.066681
0.015686 0.122009 0.066681
0.053802 0.122009 0.066681
0.091888 0.122009 0.066681
0.129791 0.122009 0.066681
0.167542 0.122009 0.066681
0.205017 0.122009 0.066681
0.242188 0.122009 0.066681
0.278931 0.122009 0.066681
0.315247 0.122009 0.066681
0.351044 0.122009 0.066681
0.386230 0.122009 0.066681
0.420776 0.122009 0.066681
0.454651 0.122009 0.066681
0.487701 0.122009 0.066681
0.519928 0.122009 0.066681
0.551239 0.122009 0.066681
0.581604 0.122009 0.066681
0.610992 0.122009 0.066681
0.639465 0.122009 0.066681
0.667084 0.122009 0.066681
0.693939 0.122009 0.066681
0.720093 0.122009 0.066681
0.745605 0.122009 0.066681
0.770538 0.122009 0.066681
0.794952 0.122009 0.066681
0.818939 0.122009 0.066681
0.842499 0.122009 0.066681
0.865753 0.122009 0.066681
0.888763 0.122009 0.066681
0.911560 0.122009 0.066681
0.934235 0.122009 0.066681
0.956848 0.122009 0.066681
0.015686 0.153564 0.066681
0.053802 0.153564 0.066681
0.091888 0.153564 0.066681
0.129791 0.153564 0.066681
0.167542 0.153564 0.066681
0.205017 0.153564 0.066681
0.242188 0.153564 0.066681
0.278931 0.153564 0.066681
0.315247 0.153564 0.066681
0.351044 0.153564 0.066681
0.386230 0.153564 0.066681
0.420776 0.153564 0.066681
0.454651 0.153564 0.066681
0.487701 0.153564 0.066681
0.519928 0.153564 0.066681
0.551239 0.153564 0.066681
0.581604 0.153564 0.066681
0.610992 0.153564 0.066681
0.639465 0.153564 0.066681
0.667084 0.153564 0.066681
0.693939 0.153564 0.066681
0.720093 0.153564 0.066681
0.745605 0.153564 0.066681
0.770538 0.153564 0.066681
0.794952 0.153564 0.066681
0.818939 0.153564 0.066681
0.842499 0.153564 0.066681
0.865753 0.153564 0.066681
0.888763 0.153564 0.066681
0.911560 0.153564 0.066681
0.934235 0.153564 0.066681
0.956848 0.153564 0.066681
0.015686 0.185028 0.066681
0.053802 0.185028 0.066681
0.091888 0.185028 0.066681
0.129791 0.185028 0.066681
0.167542 0.185028 0.066681
0.205017 0.185028 0.066681
0.242188 0.185028 0.066681
0.278931 0.185028 0.066681
0.315247 0.185028 0.066681
0.351044 0.185028 0.066681
0.386230 0.185028 0.066681
0.420776 0.185028 0.066681
0.454651 0.185028 0.066681
0.487701 0.185028 0.066681
0.519928 0.185028 0.066681
0.551239 0.185028 0.066681
0.581604 0.185028 0.066681
0.610992 0.185028 0.066681
0.639465 0.185028 0.066681
0.667084 0.185028 0.066681
0.693939 0.185028 0.066681
0.720093 0.185028 0.066681
0.745605 0.185028 0.066681
0.770538 0.185028 0.066681
0.794952 0.185028 0.066681
0.818939 0.185028 0.066681
0.842499 0.185028 0.066681
0.865753 0.185028 0.066681
0.888763 0.185028 0.066681
0.911560 0.185028 0.066681
0.934235 0.185028 0.066681
0.956848 0.185028 0.066681
0.015686 0.216400 0.066681
0.053802 0.216400 0.066681
0.091888 0.216400 0.066681
0.129791 0.216400 0.066681
0.167542 0.216400 0.066681
0.205017 0.216400 0.066681
0.242188 0.216400 0.066681
0.278931 0.216400 0.066681
0.315247 0.216400 0.066681
0.351044 0.216400 0.066681
0.386230 0.216400 0.066681
0.420776 0.216400 0.066681
0.454651 0.216400 0.066681
0.487701 0.216400 0.066681
0.519928 0.216400 0.066681
0.551239 0.216400 0.066681
0.581604 0.216400 0.066681
0.610992 0.216400 0.066681
0.639465 0.216400 0.066681
0.667084 0.216400 0.066681
0.693939 0.216400 0.066681
0.720093 0.216400 0.066681
0.745605 0.216400 0.066681
0.770538 0.216400 0.066681
0.794952 0.216400 0.066681
0.818939 0.216400 0.066681
0.842499 0.216400 0.066681
0.865753 0.216400 0.066681
0.888763 0.216400 0.066681
0.911560 0.216400 0.066681
0.934235 0.216400 0.066681
0.956848 0.216400 0.066681
0.015686 0.247681 0.066681
0.053802 0.247681 0.066681
0.091888 0.247681 0.066681
0.129791 0.247681 0.066681
0.167542 0.247681 0.066681
0.205017 0.247681 0.066681
0.242188 0.247681 0.066681
0.278931 0.247681 0.066681
0.315247 0.247681 0.066681
0.351044 0.247681 0.066681
0.386230 0.247681 0.066681
0.420776 0.247681 0.066681
0.454651 0.247681 0.066681
0.487701 0.247681 0.066681
0.519928 0.247681 0.066681
0.551239 0.247681 0.066681
0.581604 0.247681 0.066681
0.610992 0.247681 0.066681
0.639465 0.247681 0.066681
0.667084 0.247681 0.066681
0.693939 0.247681 0.066681
0.720093 0.247681 0.066681
0.745605 0.247681 0.066681
0.770538 0.247681 0.066681
0.794952 0.247681 0.066681
0.818939 0.247681 0.066681
0.842499 0.247681 0.066681
0.865753 0.247681 0.066681
0.888763 0.247681 0.066681
0.911560 0.247681 0.066681
0.934235 0.247681 0.066681
0.956848 0.247681 0.066681
0.015686 0.278809 0.066681
0.053802 0.278809 0.066681
0.091888 0.278809 0.066681
0.129791 0.278809 0.066681
0.167542 0.278809 0.066681
0.205017 0.278809 0.066681
0.242188 0.278809 0.066681
0.278931 0.278809 0.066681
0.315247 0.278809 0.066681
0.351044 0.278809 0.066681
0.386230 0.278809 0.066681
0.420776 0.278809 0.066681
0.454651 0.278809 0.066681
0.487701 0.278809 0.066681
0.519928 0.278809 0.066681
0.551239 0.278809 0.066681
0.581604 0.278809 0.066681
0.610992 0.278809 0.066681
0.639465 0.278809 0.066681
0.667084 0.278809 0.066681
0.693939 0.278809 0.066681
0.720093 0.278809 0.066681
0.745605 0.278809 0.066681
0.770538 0.278809 0.066681
0.794952 0.278809 0.066681
0.818939 0.278809 0.066681
0.842499 0.278809 0.066681
0.865753 0.278809 0.066681
0.888763 0.278809 0.066681
0.911560 0.278809 0.066681
0.934235 0.278809 0.066681
0.956848 0.278809 0.066681
0.015686 0.309814 0.066681
0.053802 0.309814 0.066681
0.091888 0.309814 0.066681
0.129791 0.309814 0.066681
0.167542 0.309814 0.066681
0.205017 0.309814 0.066681
0.242188 0.309814 0.066681
0.278931 0.309814 0.066681
0.315247 0.309814 0.066681
0.351044 0.309814 0.066681
0.386230 0.309814 0.066681
0.420776 0.309814 0.066681
0.454651 0.309814 0.066681
0.487701 0.309814 0.066681
0.519928 0.309814 0.066681
0.551239 0.309814 0.066681
0.581604 0.309814 0.066681
0.610992 0.309814 0.066681
0.639465 0.309814 0.066681
0.667084 0.309814 0.066681
0.693939 0.309814 0.066681
0.720093 0.309814 0.066681
0.745605 0.309814 0.066681
0.770538 0.309814 0.066681
0.794952 0.309814 0.066681
0.818939 0.309814 0.066681
0.842499 0.309814 0.066681
0.865753 0.309814 0.066681
0.888763 0.309814 0.066681
0.911560 0.309814 0.066681
0.934235 0.309814 0.066681
0.956848 0.309814 0.066681
0.015686 0.340607 0.066681
0.053802 0.340607 0.066681
0.091888 0.340607 0.066681
0.129791 0.340607 0.066681
0.167542 0.340607 0.066681
0.205017 0.340607 0.066681
0.242188 0.340607 0.066681
0.278931 0.340607 0.066681
0.315247 0.340607 0.066681
0.351044 0.340607 0.066681
0.386230 0.340607 0.066681
0.420776 0.340607 0.066681
0.454651 0.340607 0.066681
0.487701 0.340607 0.066681
0.519928 0.340607 0.066681
0.551239 0.340607 0.066681
0.581604 0.340607 0.066681
0.610992 0.340607 0.066681
0.639465 0.340607 0.066681
0.667084 0.340607 0.066681
0.693939 0.340607 0.066681
0.720093 0.340607 0.066681
0.745605 0.340607 0.066681
0.770538 0.340607 0.066681
0.794952 0.340607 0.066681
0.818939 0.340607 0.066681
0.842499 0.340607 0.066681
0.865753 0.340607 0.066681
0.888763 0.340607 0.066681
0.911560 0.340607 0.066681
0.934235 0.340607 0.066681
0.956848 0.340607 0.066681
0.015686 0.371246 0.066681
0.053802 0.371246 0.066681
0.091888 0.371246 0.066681
0.129791 0.371246 0.066681
0.167542 0.371246 0.066681
0.205017 0.371246 0.066681
0.242188 0.371246 0.066681
0.278931 0.371246 0.066681
0.315247 0.371246 0.066681
0.351044 0.371246 0.066681
0.386230 0.371246 0.066681
0.420776 0.371246 0.066681
0.454651 0.371246 0.066681
0.487701 0.371246 0.066681
0.519928 0.371246 0.066681
0.551239 0.371246 0.066681
0.581604 0.371246 0.066681
0.610992 0.371246 0.066681
0.639465 0.371246 0.066681
0.667084 0.371246 0.066681
0.693939 0.371246 0.066681
0.720093 0.371246 0.066681
0.745605 0.371246 0.066681
0.770538 0.371246 0.066681
0.794952 0.371246 0.066681
0.818939 0.371246 0.066681
0.842499 0.371246 0.066681
0.865753 0.371246 0.066681
0.888763 0.371246 0.066681
0.911560 0.371246 0.066681
0.934235 0.371246 0.066681
0.956848 0.371246 0.066681
0.015686 0.401642 0.066681
0.053802 0.401642 0.066681
0.091888 0.401642 0.066681
0.129791 0.401642 0.066681
0.167542 0.401642 0.066681
0.205017 0.401642 0.066681
0.242188 0.401642 0.066681
0.278931 0.401642 0.066681
0.315247 0.401642 0.066681
0.351044 0.401642 0.066681
0.386230 0.401642 0.066681
0.420776 0.401642 0.066681
0.454651 0.401642 0.066681
0.487701 0.401642 0.066681
0.519928 0.401642 0.066681
0.551239 0.401642 0.066681
0.581604 0.401642 0.066681
0.610992 0.401642 0.066681
0.639465 0.401642 0.066681
0.667084 0.401642 0.066681
0.693939 0.401642 0.066681
0.720093 0.401642 0.066681
0.745605 0.401642 0.066681
0.770538 0.401642 0.066681
0.794952 0.401642 0.066681
0.818939 0.401642 0.066681
0.842499 0.401642 0.066681
0.865753 0.401642 0.066681
0.888763 0.401642 0.066681
0.911560 0.401642 0.066681
0.934235 0.401642 0.066681
0.956848 0.401642 0.066681
0.015686 0.431793 0.066681
0.053802 0.431793 0.066681
0.091888 0.431793 0.066681
0.129791 0.431793 0.066681
0.167542 0.431793 0.066681
0.205017 0.431793 0.066681
0.242188 0.431793 0.066681
0.278931 0.431793 0.066681
0.315247 0.431793 0.066681
0.351044 0.431793 0.066681
0.386230 0.431793 0.066681
0.420776 0.431793 0.066681
0.454651 0.431793 0.066681
0.487701 0.431793 0.066681
0.519928 0.431793 0.066681
0.551239 0.431793 0.066681
0.581604 0.431793 0.066681
0.610992 0.431793 0.066681
0.639465 0.431793 0.066681
0.667084 0.431793 0.066681
0.693939 0.431793 0.066681
0.720093 0.431793 0.066681
0.745605 0.431793 0.066681
0.770538 0.431793 0.066681
0.794952 0.431793 0.066681
0.818939 0.431793 0.066681
0.842499 0.431793 0.066681
0.865753 0.431793 0.066681
0.888763 0.431793 0.066681
0.911560 0.431793 0.066681
0.934235 0.431793 0.066681
0.956848 0.431793 0.066681
0.015686 0.461639 0.066681
0.053802 0.461639 0.066681
0.091888 0.461639 0.066681
0.129791 0.461639 0.066681
0.167542 0.461639 0.066681
0.205017 0.461639 0.066681
0.242188 0.461639 0.066681
0.278931 0.461639 0.066681
0.315247 0.461639 0.066681
0.351044 0.461639 0.066681
0.386230 0.461639 0.066681
0.420776 0.461639 0.066681
0.454651 0.461639 0.066681
0.487701 0.461639 0.066681
0.519928 0.461639 0.066681
0.551239 0.461639 0.066681
0.581604 0.461639 0.066681
0.610992 0.461639 0.066681
0.639465 0.461639 0.066681
0.667084 0.461639 0.066681
0.693939 0.461639 0.066681
0.720093 0.461639 0.066681
0.745605 0.461639 0.066681
0.770538 0.461639 0.066681
0.794952 0.461639 0.066681
0.818939 0.461639 0.066681
0.842499 0.461639 0.066681
0.865753 0.461639 0.066681
0.888763 0.461639 0.066681
0.911560 0.461639 0.066681
0.934235 0.461639 0.066681
0.956848 0.461639 0.066681
0.015686 0.491241 0.066681
0.053802 0.491241 0.066681
0.091888 0.491241 0.066681
0.129791 0.491241 0.066681
0.167542 0.491241 0.066681
0.205017 0.491241 0.066681
0.242188 0.491241 0.066681
0.278931 0.491241 0.066681
0.315247 0.491241 0.066681
0.351044 0.491241 0.066681
0.386230 0.491241 0.066681
0.420776 0.491241 0.066681
0.454651 0.491241 0.066681
0.487701 0.491241 0.066681
0.519928 0.491241 0.066681
0.551239 0.491241 0.066681
0.581604 0.491241 0.066681
0.610992 0.491241 0.066681
0.639465 0.491241 0.066681
0.667084 0.491241 0.066681
0.693939 0.491241 0.066681
0.720093 0.491241 0.066681
0.745605 0.491241 0.066681
0.770538 0.491241 0.066681
0.794952 0.491241 0.066681
0.818939 0.491241 0.066681
0.842499 0.491241 0.066681
0.865753 0.491241 0.066681
0.888763 0.491241 0.066681
0.911560 0.491241 0.066681
0.934235 0.491241 0.066681
0.956848 0.491241 0.066681
0.015686 0.520538 0.066681
0.053802 0.520538 0.066681
0.091888 0.520538 0.066681
0.129791 0.520538 0.066681
0.167542 0.520538 0.066681
0.205017 0.520538 0.066681
0.242188 0.520538 0.066681
0.278931 0.520538 0.066681
0.315247 0.520538 0.066681
0.351044 0.520538 0.066681
0.386230 0.520538 0.066681
0.420776 0.520538 0.066681
0.454651 0.520538 0.066681
0.487701 0.520538 0.066681
0.519928 0.520538 0.066681
0.551239 0.520538 0.066681
0.581604 0.520538 0.066681
0.610992 0.520538 0.066681
0.639465 0.520538 0.066681
0.667084 0.520538 0.066681
0.693939 0.520538 0.066681
0.720093 0.520538 0.066681
0.745605 0.520538 0.066681
0.770538 0.520538 0.066681
0.794952 0.520538 0.066681
0.818939 0.520538 0.066681
0.842499 0.520538 0.066681
0.865753 0.520538 0.066681
0.888763 0.520538 0.066681
0.911560 0.520538 0.066681
0.934235 0.520538 0.066681
0.956848 0.520538 0.066681
0.015686 0.549530 0.066681
0.053802 0.549530 0.066681
0.091888 0.549530 0.066681
0.129791 0.549530 0.066681
0.167542 0.549530 0.066681
0.205017 0.549530 0.066681
0.242188 0.549530 0.066681
0.278931 0.549530 0.066681
0.315247 0.549530 0.066681
0.351044 0.549530 0.066681
0.386230 0.549530 0.066681
0.420776 0.549530 0.066681
0.454651 0.549530 0.066681
0.487701 0.549530 0.066681
0.519928 0.549530 0.066681
0.551239 0.549530 0.066681
0.581604 0.549530 0.066681
0.610992 0.549530 0.066681
0.639465 0.549530 0.066681
0.667084 0.549530 0.066681
0.693939 0.549530 0.066681
0.720093 0.549530 0.066681
0.745605 0.549530 0.066681
0.770538 0.549530 0.066681
0.794952 0.549530 0.066681
0.818939 0.549530 0.066681
0.842499 0.549530 0.066681
0.865753 0.549530 0.066681
0.888763 0.549530 0.066681
0.911560 0.549530 0.066681
0.934235 0.549530 0.066681
0.956848 0.549530 0.066681
0.015686 0.578186 0.066681
0.053802 0.578186 0.066681
0.091888 0.578186 0.066681
0.129791 0.578186 0.066681
0.167542 0.578186 0.066681
0.205017 0.578186 0.066681
0.242188 0.578186 0.066681
0.278931 0.578186 0.066681
0.315247 0.578186 0.066681
0.351044 0.578186 0.066681
0.386230 0.578186 0.066681
0.420776 0.578186 0.066681
0.454651 0.578186 0.066681
0.487701 0.578186 0.066681
0.519928 0.578186 0.066681
0.551239 0.578186 0.066681
0.581604 0.578186 0.066681
0.610992 0.578186 0.066681
0.639465 0.578186 0.066681
0.667084 0.578186 0.066681
0.693939 0.578186 0.066681
0.720093 0.578186 0.066681
0.745605 0.578186 0.066681
0.770538 0.578186 0.066681
0.794952 0.578186 0.066681
0.818939 0.578186 0.066681
0.842499 0.578186 0.066681
0.865753 0.578186 0.066681
0.888763 0.578186 0.066681
0.911560 0.578186 0.066681
0.934235 0.578186 0.066681
0.956848 0.578186 0.066681
0.015686 0.606506 0.066681
0.053802 0.606506 0.066681
0.091888 0.606506 0.066681
0.129791 0.606506 0.066681
0.167542 0.606506 0.066681
0.205017 0.606506 0.066681
0.242188 0.606506 0.066681
0.278931 0.606506 0.066681
0.315247 0.606506 0.066681
0.351044 0.606506 0.066681
0.386230 0.606506 0.066681
0.420776 0.606506 0.066681
0.454651 0.606506 0.066681
0.487701 0.606506 0.066681
0.519928 0.606506 0.066681
0.551239 0.606506 0.066681
0.581604 0.606506 0.066681
0.610992 0.606506 0.066681
0.639465 0.606506 0.066681
0.667084 0.606506 0.066681
0.693939 0.606506 0.066681
0.720093 0.606506 0.066681
0.745605 0.606506 0.066681
0.770538 0.606506 0.066681
0.794952 0.606506 0.066681
0.818939 0.606506 0.066681
0.842499 0.606506 0.066681
0.865753 0.606506 0.066681
0.888763 0.606506 0.066681
0.911560 0.606506 0.066681
0.934235 0.606506 0.066681
0.956848 0.606506 0.066681
0.015686 0.634552 0.066681
0.053802 0.634552 0.066681
0.091888 0.634552 0.066681
0.129791 0.634552 0.066681
0.167542 0.634552 0.066681
0.205017 0.634552 0.066681
0.242188 0.634552 0.066681
0.278931 0.634552 0.066681
0.315247 0.634552 0.066681
0.351044 0.634552 0.066681
0.386230 0.634552 0.066681
0.420776 0.634552 0.066681
0.454651 0.634552 0.066681
0.487701 0.634552 0.066681
0.519928 0.634552 0.066681
0.551239 0.634552 0.066681
0.581604 0.634552 0.066681
0.610992 0.634552 0.066681
0.639465 0.634552 0.066681
0.667084 0.634552 0.066681
0.693939 0.634552 0.066681
0.720093 0.634552 0.066681
0.745605 0.634552 0.066681
0.770538 0.634552 0.066681
0.794952 0.634552 0.066681
0.818939 0.634552 0.066681
0.842499 0.634552 0.066681
0.865753 0.634552 0.066681
0.888763 0.634552 0.066681
0.911560 0.634552 0.066681
0.934235 0.634552 0.066681
0.956848 0.634552 0.066681
0.015686 0.662292 0.066681
0.053802 0.662292 0.066681
0.091888 0.662292 0.066681
0.129791 0.662292 0.066681
0.167542 0.662292 0.066681
0.205017 0.662292 0.066681
0.242188 0.662292 0.066681
0.278931 0.662292 0.066681
0.315247 0.662292 0.066681
0.351044 0.662292 0.066681
0.386230 0.662292 0.066681
0.420776 0.662292 0.066681
0.454651 0.662292 0.066681
0.487701 0.662292 0.066681
0.519928 0.662292 0.066681
0.551239 0.662292 0.066681
0.581604 0.662292 0.066681
0.610992 0.662292 0.066681
0.639465 0.662292 0.066681
0.667084 0.662292 0.066681
0.693939 0.662292 0.066681
0.720093 0.662292 0.066681
0.745605 0.662292 0.066681
0.770538 0.662292 0.066681
0.794952 0.662292 0.066681
0.818939 0.662292 0.066681
0.842499 0.662292 0.066681
0.865753 0.662292 0.066681
0.888763 0.662292 0.066681
0.911560 0.662292 0.066681
0.934235 0.662292 0.066681
0.956848 0.662292 0.066681
0.015686 0.689850 0.066681
0.053802 0.689850 0.066681
0.091888 0.689850 0.066681
0.129791 0.689850 0.066681
0.167542 0.689850 0.066681
0.205017 0.689850 0.066681
0.242188 0.689850 0.066681
0.278931 0.689850 0.066681
0.315247 0.689850 0.066681
0.351044 0.689850 0.066681
0.386230 0.689850 0.066681
0.420776 0.689850 0.066681
0.454651 0.689850 0.066681
0.487701 0.689850 0.066681
0.519928 0.689850 0.066681
0.551239 0.689850 0.066681
0.581604 0.689850 0.066681
0.610992 0.689850 0.066681
0.639465 0.689850 0.066681
0.667084 0.689850 0.066681
0.693939 0.689850 0.066681
0.720093 0.689850 0.066681
0.745605 0.689850 0.066681
0.770538 0.689850 0.066681
0.794952 0.689850 0.066681
0.818939 0.689850 0.066681
0.842499 0.689850 0.066681
0.865753 0.689850 0.066681
0.888763 0.689850 0.066681
0.911560 0.689850 0.066681
0.934235 0.689850 0.066681
0.956848 0.689850 0.066681
0.015686 0.717163 0.066681
0.053802 0.717163 0.066681
0.091888 0.717163 0.066681
0.129791 0.717163 0.066681
0.167542 0.717163 0.066681
0.205017 0.717163 0.066681
0.242188 0.717163 0.066681
0.278931 0.717163 0.066681
0.315247 0.717163 0.066681
0.351044 0.717163 0.066681
0.386230 0.717163 0.066681
0.420776 0.717163 0.066681
0.454651 0.717163 0.066681
0.487701 0.717163 0.066681
0.519928 0.717163 0.066681
0.551239 0.717163 0.066681
0.581604 0.717163 0.066681
0.610992 0.717163 0.066681
0.639465 0.717163 0.066681
0.667084 0.717163 0.066681
0.693939 0.717163 0.066681
0.720093 0.717163 0.066681
0.745605 0.717163 0.066681
0.770538 0.717163 0.066681
0.794952 0.717163 0.066681
0.818939 0.717163 0.066681
0.842499 0.717163 0.066681
0.865753 0.717163 0.066681
0.888763 0.717163 0.066681
0.911560 0.717163 0.066681
0.934235 0.717163 0.066681
0.956848 0.717163 0.066681
0.015686 0.744293 0.066681
0.053802 0.744293 0.066681
0.091888 0.744293 0.066681
0.129791 0.744293 0.066681
0.167542 0.744293 0.066681
0.205017 0.744293 0.066681
0.242188 0.744293 0.066681
0.278931 0.744293 0.066681
0.315247 0.744293 0.066681
0.351044 0.744293 0.066681
0.386230 0.744293 0.066681
0.420776 0.744293 0.066681
0.454651 0.744293 0.066681
0.487701 0.744293 0.066681
0.519928 0.744293 0.066681
0.551239 0.744293 0.066681
0.581604 0.744293 0.066681
0.610992 0.744293 0.066681
0.639465 0.744293 0.066681
0.667084 0.744293 0.066681
0.693939 0.744293 0.066681
0.720093 0.744293 0.066681
0.745605 0.744293 0.066681
0.770538 0.744293 0.066681
0.794952 0.744293 0.066681
0.818939 0.744293 0.066681
0.842499 0.744293 0.066681
0.865753 0.744293 0.066681
0.888763 0.744293 0.066681
0.911560 0.744293 0.066681
0.934235 0.744293 0.066681
0.956848 0.744293 0.066681
0.015686 0.771271 0.066681
0.053802 0.771271 0.066681
0.091888 0.771271 0.066681
0.129791 0.771271 0.066681
0.167542 0.771271 0.066681
0.205017 0.771271 0.066681
0.242188 0.771271 0.066681
0.278931 0.771271 0.066681
0.315247 0.771271 0.066681
0.351044 0.771271 0.066681
0.386230 0.771271 0.066681
0.420776 0.771271 0.066681
0.454651 0.771271 0.066681
0.487701 0.771271 0.066681
0.519928 0.771271 0.066681
0.551239 0.771271 0.066681
0.581604 0.771271 0.066681
0.610992 0.771271 0.066681
0.639465 0.771271 0.066681
0.667084 0.771271 0.066681
0.693939 0.771271 0.066681
0.720093 0.771271 0.066681
0.745605 0.771271 0.066681
0.770538 0.771271 0.066681
0.794952 0.771271 0.066681
0.818939 0.771271 0.066681
0.842499 0.771271 0.066681
0.865753 0.771271 0.066681
0.888763 0.771271 0.066681
0.911560 0.771271 0.066681
0.934235 0.771271 0.066681
0.956848 0.771271 0.066681
0.015686 0.798065 0.066681
0.053802 0.798065 0.066681
0.091888 0.798065 0.066681
0.129791 0.798065 0.066681
0.167542 0.798065 0.066681
0.205017 0.798065 0.066681
0.242188 0.798065 0.066681
0.278931 0.798065 0.066681
0.315247 0.798065 0.066681
0.351044 0.798065 0.066681
0.386230 0.798065 0.066681
0.420776 0.798065 0.066681
0.454651 0.798065 0.066681
0.487701 0.798065 0.066681
0.519928 0.798065 0.066681
0.551239 0.798065 0.066681
0.581604 0.798065 0.066681
0.610992 0.798065 0.066681
0.639465 0.798065 0.066681
0.667084 0.798065 0.066681
0.693939 0.798065 0.066681
0.720093 0.798065 0.066681
0.745605 0.798065 0.066681
0.770538 0.798065 0.066681
0.794952 0.798065 0.066681
0.818939 0.798065 0.066681
0.842499 0.798065 0.066681
0.865753 0.798065 0.066681
0.888763 0.798065 0.066681
0.911560 0.798065 0.066681
0.934235 0.798065 0.066681
0.956848 0.798065 0.066681
0.015686 0.824707 0.066681
0.053802 0.824707 0.066681
0.091888 0.824707 0.066681
0.129791 0.824707 0.066681
0.167542 0.824707 0.066681
0.205017 0.824707 0.066681
0.242188 0.824707 0.066681
0.278931 0.824707 0.066681
0.315247 0.824707 0.066681
0.351044 0.824707 0.066681
0.386230 0.824707 0.066681
0.420776 0.824707 0.066681
0.454651 0.824707 0.066681
0.487701 0.824707 0.066681
0.519928 0.824707 0.066681
0.551239 0.824707 0.066681
0.581604 0.824707 0.066681
0.610992 0.824707 0.066681
0.639465 0.824707 0.066681
0.667084 0.824707 0.066681
0.693939 0.824707 0.066681
0.720093 0.824707 0.066681
0.745605 0.824707 0.066681
0.770538 0.824707 0.066681
0.794952 0.824707 0.066681
0.818939 0.824707 0.066681
0.842499 0.824707 0.066681
0.865753 0.824707 0.066681
0.888763 0.824707 0.066681
0.911560 0.824707 0.066681
0.934235 0.824707 0.066681
0.956848 0.824707 0.066681
0.015686 0.851288 0.066681
0.053802 0.851288 0.066681
0.091888 0.851288 0.066681
0.129791 0.851288 0.066681
0.167542 0.851288 0.066681
0.205017 0.851288 0.066681
0.242188 0.851288 0.066681
0.278931 0.851288 0.066681
0.315247 0.851288 0.066681
0.351044 0.851288 0.066681
0.386230 0.851288 0.066681
0.420776 0.851288 0.066681
0.454651 0.851288 0.066681
