Scenic Moods/Striped Purple - Teal Supreme.cube
#Created by: Adobe Photoshop Export Color Lookup Plugin
#Copyright: (C) Copyright 2018 Striped Purple - Austin Barrett
TITLE "Striped Purple - Teal Supreme"
#LUT size
LUT_3D_SIZE 32
#data domain
DOMAIN_MIN 0.0 0.0 0.0
DOMAIN_MAX 1.0 1.0 1.0
#LUT data points
0.000000 0.000000 0.000000
0.032257 0.000000 0.000000
0.064514 0.000000 0.000000
0.096771 0.000000 0.000000
0.129028 0.000000 0.000000
0.161285 0.000000 0.000000
0.193542 0.000000 0.000000
0.225800 0.000000 0.000000
0.258057 0.000000 0.000000
0.290314 0.000000 0.000000
0.322571 0.000000 0.000000
0.354828 0.000000 0.000000
0.387085 0.000000 0.000000
0.419342 0.000000 0.000000
0.451599 0.000000 0.000000
0.483856 0.000000 0.000000
0.516144 0.000000 0.000000
0.548401 0.000000 0.000000
0.580658 0.000000 0.000000
0.612915 0.000000 0.000000
0.645172 0.000000 0.000000
0.677429 0.000000 0.000000
0.709686 0.000000 0.000000
0.741943 0.000000 0.000000
0.774200 0.000000 0.000000
0.806458 0.000000 0.000000
0.838715 0.000000 0.000000
0.870972 0.000000 0.000000
0.903229 0.000000 0.000000
0.935486 0.000000 0.000000
0.967743 0.000000 0.000000
1.000000 0.000000 0.000000
0.005524 0.013214 0.005524
0.021484 0.021484 0.010773
0.053802 0.032257 0.010712
0.091461 0.033997 0.005280
0.129028 0.032257 0.000000
0.161285 0.032257 0.000000
0.193542 0.032288 0.000000
0.225800 0.032257 0.000000
0.258057 0.032257 0.000000
0.290314 0.032257 0.000000
0.322571 0.032288 0.000000
0.354828 0.032227 0.000000
0.387085 0.032227 0.000000
0.419342 0.032257 0.000000
0.451599 0.032318 0.000000
0.483856 0.032257 0.000000
0.516144 0.032257 0.000000
0.548401 0.032257 0.000000
0.580658 0.032318 0.000000
0.612915 0.032318 0.000000
0.645172 0.032288 0.000000
0.677429 0.032257 0.000000
0.709686 0.032227 0.000000
0.741943 0.032257 0.000000
0.774200 0.032318 0.000000
0.806458 0.032288 0.000000
0.838715 0.032349 0.000000
0.870972 0.032318 0.000000
0.903229 0.032196 0.000000
0.935486 0.032196 0.000000
0.967743 0.032379 0.000000
1.000000 0.032227 0.000000
0.011047 0.026398 0.011047
0.025604 0.035095 0.016083
0.042969 0.042969 0.021545
0.069916 0.055542 0.026825
0.107605 0.064514 0.021423
0.145203 0.067688 0.016052
0.182953 0.068024 0.010590
0.220490 0.066742 0.005280
0.258057 0.064514 0.000000
0.290314 0.064484 0.000000
0.322571 0.064484 0.000000
0.354828 0.064545 0.000000
0.387085 0.064545 0.000000
0.419342 0.064484 0.000000
0.451599 0.064484 0.000000
0.483856 0.064484 0.000000
0.516144 0.064514 0.000000
0.548401 0.064545 0.000000
0.580658 0.064514 0.000000
0.612915 0.064484 0.000000
0.645172 0.064575 0.000000
0.677429 0.064514 0.000000
0.709686 0.064453 0.000000
0.741943 0.064484 0.000000
0.774200 0.064453 0.000000
0.806458 0.064575 0.000000
0.838715 0.064514 0.000000
0.870972 0.064423 0.000000
0.903229 0.064606 0.000000
0.935486 0.064392 0.000000
0.967743 0.064514 0.000000
1.000000 0.064453 0.000000
0.016541 0.039581 0.016541
0.027405 0.044220 0.019012
0.050354 0.060699 0.029633
0.064453 0.064453 0.032318
0.086182 0.075348 0.042847
0.123779 0.089264 0.037476
0.161407 0.096771 0.032135
0.198883 0.100586 0.026886
0.236877 0.102051 0.021149
0.274445 0.102051 0.015869
0.311859 0.101074 0.010712
0.349274 0.099274 0.005524
0.387085 0.096771 0.000000
0.419342 0.096741 0.000000
0.451599 0.096802 0.000000
0.483856 0.096741 0.000000
0.516144 0.096771 0.000000
0.548401 0.096802 0.000000
0.580658 0.096832 0.000000
0.612915 0.096802 0.000000
0.645172 0.096710 0.000000
0.677429 0.096741 0.000000
0.709686 0.096863 0.000000
0.741943 0.096741 0.000000
0.774200 0.096771 0.000000
0.806458 0.096863 0.000000
0.838715 0.096863 0.000000
0.870972 0.096741 0.000000
0.903229 0.096802 0.000000
0.935486 0.096832 0.000000
0.967743 0.096863 0.000000
1.000000 0.096680 0.000000
0.022064 0.052795 0.022064
0.029938 0.053101 0.022217
0.051208 0.070190 0.032196
0.075226 0.085938 0.043091
0.085938 0.085938 0.043091
0.107422 0.096710 0.053864
0.139862 0.111145 0.053680
0.177734 0.122162 0.048065
0.215210 0.129028 0.042847
0.252869 0.133148 0.037415
0.290436 0.135437 0.032135
0.328491 0.136169 0.026337
0.365906 0.136047 0.021149
0.402954 0.135315 0.016388
0.441010 0.133545 0.010590
0.479126 0.131195 0.004730
0.516144 0.129028 0.000000
0.548401 0.129059 0.000000
0.580658 0.128998 0.000000
0.612915 0.128998 0.000000
0.645172 0.128998 0.000000
0.677429 0.128998 0.000000
0.709686 0.129089 0.000000
0.741943 0.128967 0.000000
0.774200 0.129089 0.000000
0.806458 0.128967 0.000000
0.838715 0.128998 0.000000
0.870972 0.129059 0.000000
0.903229 0.128998 0.000000
0.935486 0.129028 0.000000
0.967743 0.128998 0.000000
1.000000 0.129150 0.000000
0.027588 0.065979 0.027588
0.035278 0.065979 0.027588
0.052765 0.079315 0.035065
0.075745 0.095642 0.045868
0.096710 0.107422 0.053864
0.107422 0.107422 0.053864
0.128906 0.118195 0.064636
0.156097 0.131409 0.069672
0.194031 0.145264 0.063995
0.231903 0.154816 0.058380
0.269012 0.161285 0.053558
0.307007 0.165649 0.047821
0.343994 0.168488 0.043091
0.382477 0.169739 0.036835
0.419830 0.170349 0.031738
0.457397 0.170074 0.026459
0.494965 0.169220 0.021149
0.532318 0.167938 0.016052
0.570435 0.165833 0.010193
0.608124 0.163574 0.004791
0.645172 0.161285 0.000000
0.677429 0.161255 0.000000
0.709686 0.161316 0.000000
0.741943 0.161224 0.000000
0.774200 0.161224 0.000000
0.806458 0.161255 0.000000
0.838715 0.161346 0.000000
0.870972 0.161194 0.000000
0.903229 0.161194 0.000000
0.935486 0.161255 0.000000
0.967743 0.161377 0.000000
1.000000 0.161377 0.000000
0.033112 0.079163 0.033112
0.040802 0.079163 0.033112
0.054810 0.088409 0.038025
0.076782 0.105255 0.048279
0.100677 0.121368 0.059265
0.118195 0.128906 0.064636
0.128906 0.128906 0.064636
0.150391 0.139679 0.075409
0.172363 0.150696 0.085663
0.209778 0.166687 0.080505
0.247589 0.178558 0.074951
0.285522 0.187225 0.069305
0.322815 0.193542 0.064240
0.360352 0.198029 0.058960
0.397797 0.201202 0.053802
0.435638 0.203125 0.048187
0.473785 0.204132 0.042328
0.510895 0.204620 0.037476
0.548889 0.204071 0.031738
0.585388 0.203644 0.027527
0.623749 0.202148 0.021423
0.661530 0.200287 0.015869
0.698578 0.198578 0.011078
0.736145 0.196228 0.005798
0.774200 0.193542 0.000000
0.806458 0.193542 0.000000
0.838715 0.193512 0.000000
0.870972 0.193512 0.000000
0.903229 0.193604 0.000000
0.935486 0.193451 0.000000
0.967743 0.193512 0.000000
1.000000 0.193604 0.000000
0.038635 0.092377 0.038635
0.046326 0.092377 0.038635
0.057190 0.097382 0.041107
0.078308 0.114166 0.051422
0.101318 0.130981 0.061737
0.125916 0.147247 0.072540
0.139679 0.150391 0.075409
0.150391 0.150391 0.075409
0.171875 0.161163 0.086182
0.193359 0.171936 0.096954
0.226807 0.187500 0.095764
0.264038 0.201050 0.090790
0.301636 0.211517 0.085419
0.339081 0.219666 0.080261
0.376617 0.225800 0.074951
0.414856 0.230347 0.068970
0.451630 0.233887 0.064514
0.489471 0.236145 0.058899
0.527344 0.237640 0.053284
0.565033 0.238403 0.047882
0.602325 0.238708 0.042847
0.640381 0.238098 0.037048
0.677795 0.237335 0.031860
0.714417 0.236633 0.027527
0.753021 0.234680 0.021149
0.790710 0.232758 0.015747
0.827240 0.231140 0.011444
0.865875 0.228271 0.005096
0.903229 0.225800 0.000000
0.935486 0.225891 0.000000
0.967743 0.225861 0.000000
1.000000 0.225830 0.000000
0.044159 0.105560 0.044159
0.051849 0.105560 0.044159
0.059845 0.106171 0.044403
0.080170 0.123535 0.054138
0.102356 0.140350 0.064362
0.126007 0.156219 0.075623
0.150452 0.171875 0.086182
0.161163 0.171875 0.086182
0.171875 0.171875 0.086182
0.193359 0.182648 0.096954
0.214844 0.193420 0.107727
0.242554 0.207031 0.112274
0.279724 0.222290 0.107361
0.317780 0.234650 0.101562
0.355438 0.244324 0.096130
0.393127 0.252045 0.090729
0.430450 0.258087 0.085693
0.468048 0.262726 0.080322
0.505798 0.266327 0.074829
0.543488 0.269073 0.069427
0.580902 0.270874 0.064270
0.619202 0.271851 0.058197
0.657013 0.272369 0.052673
0.694122 0.272675 0.047821
0.731842 0.272095 0.042328
0.768646 0.271698 0.037781
0.805939 0.270599 0.032745
0.843750 0.269226 0.027222
0.882050 0.267059 0.021149
0.919037 0.265442 0.016449
0.958282 0.262390 0.009430
0.994141 0.260895 0.005859
0.049652 0.118744 0.049652
0.057312 0.118744 0.049652
0.065002 0.118744 0.049652
0.082214 0.132599 0.057037
0.103821 0.149445 0.067322
0.126831 0.165771 0.078125
0.151031 0.182068 0.088898
0.171936 0.193359 0.096954
0.182648 0.193359 0.096954
0.193359 0.193359 0.096954
0.214844 0.204132 0.107727
0.236328 0.214905 0.118500
0.258545 0.226044 0.128510
0.296478 0.243073 0.122833
0.333405 0.256531 0.118195
0.371399 0.267853 0.112457
0.409271 0.276947 0.106842
0.447723 0.284363 0.100677
0.484253 0.290344 0.096405
0.521942 0.295105 0.090973
0.559479 0.298859 0.085693
0.596710 0.301788 0.080688
0.634827 0.303955 0.074829
0.672394 0.305481 0.069550
0.710693 0.306213 0.063507
0.748169 0.306702 0.058258
0.784637 0.306976 0.054047
0.823334 0.306152 0.047638
0.860870 0.305511 0.042328
0.898926 0.304138 0.036530
0.935608 0.303223 0.032135
0.972656 0.301758 0.027344
0.055176 0.131927 0.055176
0.062866 0.131927 0.055176
0.070526 0.131927 0.055176
0.084625 0.141449 0.060272
0.105560 0.158661 0.070160
0.127960 0.175446 0.080475
0.151489 0.191284 0.091766
0.176117 0.207733 0.102356
0.193420 0.214844 0.107727
0.204132 0.214844 0.107727
0.214844 0.214844 0.107727
0.236328 0.225616 0.118500
0.257782 0.236359 0.129272
0.279266 0.247131 0.140045
0.312225 0.262848 0.139343
0.349640 0.277832 0.134186
0.388123 0.290588 0.128021
0.425232 0.300812 0.123169
0.463837 0.309540 0.116791
0.500366 0.316681 0.112518
0.538055 0.322571 0.107086
0.575531 0.327362 0.101868
0.614044 0.331299 0.095642
0.650635 0.334503 0.091278
0.687988 0.336975 0.086182
0.726105 0.338562 0.080322
0.764984 0.339508 0.073700
0.801208 0.340637 0.069733
0.839722 0.340759 0.063507
0.877014 0.340637 0.058472
0.914825 0.340149 0.052917
0.951172 0.339844 0.048828
0.060699 0.145142 0.060699
0.068359 0.145142 0.060699
0.076050 0.145142 0.060699
0.087128 0.150299 0.063446
0.107574 0.167450 0.073364
0.129364 0.184753 0.083221
0.152374 0.201111 0.093933
0.176361 0.217072 0.105072
0.201294 0.233307 0.115967
0.214905 0.236328 0.118500
0.225616 0.236328 0.118500
0.236328 0.236328 0.118500
0.257782 0.247070 0.129272
0.279266 0.257843 0.140045
0.300751 0.268616 0.150818
0.328857 0.282501 0.154968
0.366943 0.298889 0.149200
0.403809 0.312286 0.144592
0.442291 0.324097 0.138367
0.480042 0.333832 0.132874
0.516632 0.342010 0.128510
0.554382 0.348938 0.123047
0.591858 0.354828 0.117798
0.630341 0.359680 0.111572
0.666840 0.363739 0.107361
0.704071 0.367096 0.102386
0.742065 0.369720 0.096649
0.780792 0.371552 0.090149
0.816772 0.373322 0.086426
0.855072 0.374298 0.080383
0.892120 0.375000 0.075592
0.929688 0.375153 0.070312
0.066223 0.158325 0.066223
0.073883 0.158325 0.066223
0.081573 0.158325 0.066223
0.089752 0.159241 0.066589
0.109619 0.176788 0.076050
0.131073 0.193604 0.086395
0.153564 0.210541 0.096558
0.176941 0.226440 0.107666
0.201385 0.242767 0.118561
0.225647 0.257782 0.129272
0.236359 0.257782 0.129272
0.247070 0.257782 0.129272
0.257782 0.257782 0.129272
0.279266 0.268555 0.140045
0.300751 0.279327 0.150818
0.322235 0.290100 0.161591
0.344757 0.301422 0.171356
0.382385 0.318726 0.166016
0.419617 0.333435 0.161041
0.457275 0.346130 0.155609
0.495209 0.357056 0.149933
0.533203 0.366425 0.144196
0.571075 0.374481 0.138611
0.608612 0.381287 0.133301
0.645660 0.387085 0.128510
0.683594 0.391998 0.122864
0.720764 0.396118 0.117950
0.758698 0.399506 0.112274
0.795624 0.402405 0.107605
0.833160 0.404755 0.102325
0.871338 0.406281 0.096375
0.910156 0.407471 0.089844
0.071747 0.171539 0.071747
0.079407 0.171539 0.071747
0.087097 0.171539 0.071747
0.094757 0.171539 0.071747
0.111969 0.185760 0.079163
0.132965 0.202484 0.089539
0.154877 0.220001 0.099091
0.178009 0.236053 0.110229
0.201813 0.252289 0.121033
0.226410 0.268280 0.132172
0.247131 0.279266 0.140045
0.257843 0.279266 0.140045
0.268555 0.279266 0.140045
0.279266 0.279266 0.140045
0.300751 0.290039 0.150818
0.322235 0.300812 0.161591
0.343750 0.311615 0.172363
0.365234 0.322388 0.183136
0.399200 0.338715 0.181458
0.436920 0.354492 0.175964
0.473785 0.367920 0.171356
0.512024 0.380005 0.165375
0.550262 0.390320 0.159393
0.586884 0.399109 0.155060
0.624481 0.406921 0.149689
0.663116 0.413635 0.143341
0.699463 0.419342 0.139221
0.738281 0.424255 0.132690
0.774445 0.428589 0.128784
0.813049 0.431976 0.122406
0.850555 0.434998 0.117188
0.888672 0.437378 0.111328
0.077271 0.184723 0.077271
0.084961 0.184723 0.077271
0.092621 0.184723 0.077271
0.100311 0.184723 0.077271
0.114349 0.194733 0.082214
0.134888 0.212036 0.092041
0.156616 0.228333 0.102844
0.179169 0.245636 0.112671
0.202606 0.261963 0.123444
0.226715 0.277924 0.134521
0.251831 0.294495 0.145111
0.268616 0.300751 0.150818
0.279327 0.300751 0.150818
0.290039 0.300751 0.150818
0.300751 0.300751 0.150818
0.322235 0.311523 0.161591
0.343750 0.322327 0.172363
0.365234 0.333099 0.183136
0.386719 0.343872 0.193909
0.415375 0.358032 0.197510
0.453644 0.375000 0.191528
0.489532 0.389008 0.187866
0.528107 0.402039 0.181580
0.565155 0.413177 0.176788
0.603333 0.423096 0.170868
0.641052 0.431793 0.165375
0.678162 0.439178 0.160522
0.716156 0.445892 0.154785
0.753265 0.451599 0.149933
0.791138 0.456543 0.144348
0.829742 0.460724 0.137970
0.865234 0.464691 0.134766
0.082764 0.197906 0.082764
0.090424 0.197906 0.082764
0.098114 0.197906 0.082764
0.105774 0.197906 0.082764
0.117096 0.203217 0.085785
0.137024 0.221008 0.095062
0.158295 0.237946 0.105225
0.180511 0.254578 0.115723
0.203552 0.270905 0.126526
0.227234 0.286926 0.137665
0.251709 0.303436 0.148193
0.276459 0.318817 0.159882
0.290100 0.322235 0.161591
0.300812 0.322235 0.161591
0.311523 0.322235 0.161591
0.322235 0.322235 0.161591
0.343750 0.333038 0.172363
0.365234 0.343811 0.183136
0.386719 0.354553 0.193909
0.408203 0.365387 0.204681
0.430939 0.376770 0.214203
0.468384 0.394318 0.209045
0.505920 0.409790 0.203735
0.543396 0.423401 0.198517
0.582153 0.435852 0.192017
0.619019 0.446442 0.187439
0.656891 0.455902 0.181824
0.695740 0.464325 0.175201
0.732117 0.471619 0.171112
0.771027 0.478241 0.164429
0.807068 0.483856 0.160645
0.843750 0.488922 0.156250
0.088318 0.211121 0.088318
0.096008 0.211121 0.088318
0.103668 0.211121 0.088318
0.111359 0.211121 0.088318
0.119690 0.212311 0.088806
0.139587 0.229492 0.098724
0.160309 0.247040 0.108246
0.182068 0.264404 0.118011
0.204742 0.280731 0.128754
0.228180 0.297577 0.138977
0.251984 0.312439 0.151245
0.276642 0.328766 0.161987
0.300903 0.343750 0.172363
0.311615 0.343750 0.172363
0.322327 0.343750 0.172363
0.333038 0.343750 0.172363
0.343750 0.343750 0.172363
0.365234 0.354523 0.183136
0.386719 0.365295 0.193909
0.408203 0.376068 0.204681
0.429688 0.386871 0.215485
0.451172 0.397644 0.226257
0.485138 0.414062 0.224548
0.523132 0.430481 0.218811
0.559479 0.444580 0.214722
0.596954 0.457428 0.209473
0.635590 0.469299 0.203125
0.673645 0.479553 0.197327
0.710938 0.488708 0.192291
0.749115 0.496857 0.186371
0.786285 0.504089 0.181458
0.824219 0.510437 0.175781
0.093811 0.224304 0.093811
0.101501 0.224304 0.093811
0.109161 0.224304 0.093811
0.116852 0.224304 0.093811
0.124512 0.224304 0.093811
0.141937 0.238556 0.101654
0.162384 0.256165 0.111206
0.183716 0.273468 0.120941
0.206085 0.289795 0.131714
0.229126 0.306671 0.141937
0.252747 0.322388 0.153290
0.277069 0.338776 0.163971
0.301575 0.353943 0.175934
0.322388 0.365234 0.183136
0.333099 0.365234 0.183136
0.343811 0.365234 0.183136
0.354523 0.365234 0.183136
0.365234 0.365234 0.183136
0.386719 0.375977 0.193909
0.408203 0.386780 0.204681
0.429688 0.397583 0.215485
0.451172 0.408356 0.226257
0.472656 0.419098 0.237030
0.501373 0.433350 0.240540
0.539825 0.450714 0.234375
0.576477 0.465576 0.229950
0.614288 0.479309 0.224426
0.651520 0.491486 0.219421
0.689758 0.502655 0.213440
0.727173 0.512451 0.208282
0.765503 0.521423 0.202240
0.802734 0.529266 0.197266
0.099335 0.237488 0.099335
0.107025 0.237488 0.099335
0.114685 0.237488 0.099335
0.122375 0.237488 0.099335
0.130035 0.237488 0.099335
0.144653 0.247009 0.105255
0.164429 0.265198 0.114075
0.185608 0.282623 0.123840
0.207611 0.298889 0.134613
0.230347 0.315826 0.144867
0.253571 0.331482 0.156219
0.277740 0.348907 0.165894
0.302032 0.364136 0.177826
0.326996 0.380096 0.188934
0.343872 0.386719 0.193909
0.354553 0.386719 0.193909
0.365295 0.386719 0.193909
0.375977 0.386719 0.193909
0.386719 0.386719 0.193909
0.408203 0.397461 0.204681
0.429688 0.408234 0.215485
0.451172 0.419037 0.226257
0.472656 0.429810 0.237030
0.494141 0.440613 0.247803
0.517120 0.452118 0.257050
0.556000 0.470428 0.250427
0.592987 0.486145 0.245697
0.629395 0.500153 0.241547
0.666840 0.513092 0.236389
0.705261 0.525024 0.230225
0.742798 0.535706 0.224915
0.781250 0.545319 0.218750
0.104858 0.250702 0.104858
0.112549 0.250702 0.104858
0.120209 0.250702 0.104858
0.127899 0.250702 0.104858
0.135559 0.250702 0.104858
0.146790 0.256866 0.107452
0.166962 0.273682 0.117737
0.187500 0.291779 0.126678
0.209351 0.308105 0.137512
0.231689 0.325012 0.147736
0.254761 0.341675 0.158142
0.278168 0.357025 0.169769
0.302643 0.374420 0.179626
0.326843 0.389221 0.191772
0.352448 0.406219 0.201904
0.365387 0.408203 0.204681
0.376068 0.408203 0.204681
0.386780 0.408203 0.204681
0.397461 0.408203 0.204681
0.408203 0.408203 0.204681
0.429688 0.418976 0.215485
0.451172 0.429749 0.226257
0.472656 0.440491 0.237030
0.494141 0.451324 0.247803
0.515625 0.462097 0.258575
0.537109 0.472839 0.269348
0.571686 0.489624 0.266998
0.608978 0.506134 0.261963
0.647430 0.521515 0.255798
0.683350 0.534698 0.252136
0.722015 0.547363 0.245697
0.759766 0.558716 0.240234
0.110382 0.263885 0.110382
0.118073 0.263885 0.110382
0.125732 0.263885 0.110382
0.133392 0.263885 0.110382
0.141083 0.263885 0.110382
0.149597 0.265381 0.110992
0.169281 0.282928 0.120575
0.189850 0.300293 0.130371
0.211090 0.317291 0.140320
0.233154 0.334167 0.150513
0.255920 0.350891 0.160950
0.279266 0.367371 0.171570
0.302856 0.382477 0.183502
0.327454 0.399628 0.193451
0.352203 0.415436 0.204681
0.376129 0.429688 0.215485
0.386871 0.429688 0.215485
0.397583 0.429688 0.215485
0.408234 0.429688 0.215485
0.418976 0.429688 0.215485
0.429688 0.429688 0.215485
0.451172 0.440460 0.226257
0.472656 0.451263 0.237030
0.494141 0.462036 0.247803
0.515625 0.472748 0.258575
0.537109 0.483582 0.269348
0.558594 0.494354 0.280121
0.586884 0.508362 0.284088
0.624481 0.525726 0.278717
0.663239 0.541901 0.272247
0.699341 0.555725 0.268402
0.738281 0.569214 0.261719
0.115906 0.277100 0.115906
0.123566 0.277100 0.115906
0.131256 0.277100 0.115906
0.138916 0.277100 0.115906
0.146606 0.277100 0.115906
0.154266 0.277100 0.115906
0.171570 0.292145 0.123352
0.191864 0.309418 0.133087
0.212982 0.326599 0.143097
0.234924 0.342499 0.154266
0.257233 0.360168 0.163696
0.280243 0.376617 0.174316
0.303833 0.392883 0.185150
0.327972 0.409027 0.196228
0.352386 0.424805 0.207458
0.377747 0.441742 0.217651
0.397644 0.451172 0.226257
0.408356 0.451172 0.226257
0.419037 0.451172 0.226257
0.429749 0.451172 0.226257
0.440460 0.451172 0.226257
0.451172 0.451172 0.226257
0.472656 0.461945 0.237030
0.494141 0.472717 0.247803
0.515625 0.483490 0.258575
0.537109 0.494293 0.269348
0.558594 0.505035 0.280121
0.580078 0.515839 0.290894
0.603333 0.527466 0.299896
0.641327 0.545563 0.294159
0.680450 0.562469 0.287292
0.716797 0.576965 0.283203
0.121429 0.290283 0.121429
0.129089 0.290283 0.121429
0.136780 0.290283 0.121429
0.144470 0.290283 0.121429
0.152130 0.290283 0.121429
0.159821 0.290283 0.121429
0.174286 0.300629 0.126923
0.194366 0.317902 0.136749
0.215149 0.334930 0.146759
0.236572 0.352844 0.156036
0.258728 0.369476 0.166412
0.281525 0.385986 0.177032
0.304779 0.402222 0.187866
0.328491 0.418274 0.198883
0.352600 0.434082 0.210114
0.377197 0.449799 0.221619
0.402618 0.466614 0.231934
0.419098 0.472656 0.237030
0.429810 0.472656 0.237030
0.440491 0.472656 0.237030
0.451263 0.472656 0.237030
0.461945 0.472656 0.237030
0.472656 0.472656 0.237030
0.494141 0.483429 0.247803
0.515625 0.494232 0.258575
0.537109 0.504944 0.269348
0.558594 0.515747 0.280121
0.580078 0.526550 0.290894
0.601562 0.537292 0.301666
0.623047 0.548035 0.312439
0.657745 0.565033 0.309967
0.695312 0.581909 0.304688
0.126923 0.303467 0.126923
0.134583 0.303467 0.126923
0.142273 0.303467 0.126923
0.149933 0.303467 0.126923
0.157623 0.303467 0.126923
0.165283 0.303467 0.126923
0.176636 0.309937 0.129639
0.196625 0.327240 0.139465
0.217285 0.344360 0.149506
0.238342 0.362183 0.158691
0.260315 0.378876 0.169098
0.282806 0.395325 0.179688
0.305878 0.411621 0.190521
0.329407 0.427734 0.201569
0.353455 0.444763 0.211487
0.377838 0.460480 0.222900
0.402496 0.476013 0.234528
0.428162 0.492767 0.244934
0.440613 0.494141 0.247803
0.451324 0.494141 0.247803
0.462036 0.494141 0.247803
0.472717 0.494141 0.247803
0.483429 0.494141 0.247803
0.494141 0.494141 0.247803
0.515625 0.504883 0.258575
0.537109 0.515656 0.269348
0.558594 0.526428 0.280121
0.580078 0.537231 0.290894
0.601562 0.548035 0.301666
0.623047 0.558807 0.312439
0.644531 0.569550 0.323212
0.673828 0.584106 0.326172
0.132446 0.316650 0.132446
0.140137 0.316650 0.132446
0.147797 0.316650 0.132446
0.155487 0.316650 0.132446
0.163147 0.316650 0.132446
0.170807 0.316650 0.132446
0.179535 0.318481 0.133209
0.199280 0.335693 0.143066
0.219238 0.353607 0.152100
0.240448 0.370575 0.162384
0.262177 0.387238 0.172821
0.284210 0.404694 0.182281
0.307129 0.421082 0.193146
0.330383 0.437164 0.204163
0.353912 0.452911 0.215363
0.377960 0.468628 0.226837
0.402710 0.485504 0.237091
0.427216 0.500671 0.248871
0.451355 0.515625 0.258575
0.462097 0.515625 0.258575
0.472748 0.515625 0.258575
0.483490 0.515625 0.258575
0.494232 0.515625 0.258575
0.504883 0.515625 0.258575
0.515625 0.515625 0.258575
0.537109 0.526398 0.269348
0.558594 0.537170 0.280121
0.580078 0.547943 0.290894
0.601562 0.558716 0.301666
0.623047 0.569519 0.312439
0.644531 0.580292 0.323212
0.666016 0.591034 0.333984
0.137970 0.329865 0.137970
0.145660 0.329865 0.137970
0.153351 0.329865 0.137970
0.161011 0.329865 0.137970
0.168671 0.329865 0.137970
0.176331 0.329865 0.137970
0.184021 0.329865 0.137970
0.201569 0.345154 0.145721
0.221832 0.362152 0.155792
0.242706 0.378937 0.166046
0.263824 0.396576 0.175385
0.285950 0.413086 0.186066
0.308411 0.430542 0.195709
0.331451 0.446594 0.206696
0.354919 0.462494 0.217957
0.378723 0.478210 0.229431
0.402985 0.494934 0.239563
0.427948 0.511749 0.249908
0.452667 0.526855 0.261871
0.472839 0.537109 0.269348
0.483582 0.537109 0.269348
0.494293 0.537109 0.269348
0.504944 0.537109 0.269348
0.515656 0.537109 0.269348
0.526398 0.537109 0.269348
0.537109 0.537109 0.269348
0.558594 0.547852 0.280121
0.580078 0.558685 0.290894
0.601562 0.569427 0.301666
0.623047 0.580200 0.312439
0.644531 0.590942 0.323212
0.666016 0.601746 0.333984
0.143494 0.343048 0.143494
0.151184 0.343048 0.143494
0.158844 0.343048 0.143494
0.166534 0.343048 0.143494
0.174194 0.343048 0.143494
0.181885 0.343048 0.143494
0.189545 0.343048 0.143494
0.204285 0.353546 0.149261
0.223907 0.371490 0.158325
0.244720 0.388428 0.168640
0.265930 0.404938 0.179077
0.287567 0.422546 0.188599
0.309753 0.440002 0.198181
0.332703 0.456146 0.209229
0.355835 0.471985 0.220428
0.379456 0.487671 0.231873
0.403656 0.504608 0.242096
0.428253 0.521362 0.252380
0.452850 0.536591 0.264374
0.477356 0.551361 0.276489
0.494354 0.558594 0.280121
0.505035 0.558594 0.280121
0.515747 0.558594 0.280121
0.526428 0.558594 0.280121
0.537170 0.558594 0.280121
0.547852 0.558594 0.280121
0.558594 0.558594 0.280121
0.580078 0.569336 0.290894
0.601562 0.580109 0.301666
0.623047 0.590881 0.312439
0.644531 0.601685 0.323212
0.666016 0.612427 0.333984
0.148987 0.356232 0.148987
0.156677 0.356232 0.148987
0.164307 0.356232 0.148987
0.171997 0.356232 0.148987
0.179688 0.356232 0.148987
0.187347 0.356232 0.148987
0.195038 0.356232 0.148987
0.206604 0.363068 0.151855
0.226624 0.380066 0.161987
0.246643 0.397797 0.171112
0.267883 0.414520 0.181641
0.289551 0.430939 0.192322
0.311432 0.448334 0.201935
0.333984 0.465698 0.211670
0.357056 0.481598 0.222900
