Scenic Moods/Striped Purple - Spring Water.cube
#Created by: Adobe Photoshop Export Color Lookup Plugin
#Copyright: (C) Copyright 2019 © 2019 Austin Barrett - Striped Purple
TITLE "Striped Purple - Spring Water"
#LUT size
LUT_3D_SIZE 6
#data domain
DOMAIN_MIN 0.0 0.0 0.0
DOMAIN_MAX 1.0 1.0 1.0
#LUT data points
0.000000 0.000000 0.000000
0.121094 0.044342 0.042572
0.300232 0.073456 0.065674
0.465485 0.106201 0.091888
0.611542 0.143799 0.123657
0.734955 0.187225 0.163666
0.064209 0.148956 0.098724
0.215973 0.169952 0.100006
0.389282 0.193329 0.130951
0.565643 0.223358 0.155945
0.706604 0.262451 0.191223
0.806152 0.312378 0.241058
0.093811 0.317719 0.185364
0.210175 0.360687 0.183136
0.473907 0.328613 0.124268
0.637573 0.344604 0.142120
0.758362 0.384979 0.191284
0.843903 0.437836 0.246704
0.096680 0.500488 0.270203
0.216766 0.546082 0.243774
0.405426 0.563965 0.178314
0.703522 0.519592 0.102783
0.816650 0.550049 0.119354
0.901245 0.593140 0.182983
0.105896 0.679413 0.358063
0.224335 0.721252 0.355957
0.373871 0.751373 0.332214
0.666138 0.733978 0.173828
0.869629 0.742065 0.121002
0.964783 0.788483 0.157898
0.100861 0.845764 0.552429
0.240906 0.882416 0.519073
0.404022 0.913055 0.455475
0.635620 0.925262 0.303802
0.896240 0.910248 0.219208
0.996490 0.938873 0.337189
0.008789 0.013397 0.104340
0.145599 0.044617 0.113129
0.309540 0.090668 0.133728
0.496674 0.119690 0.156586
0.647186 0.157776 0.189545
0.748260 0.207703 0.237671
0.082581 0.165039 0.162445
0.200012 0.200012 0.200012
0.394165 0.225342 0.219055
0.590393 0.249908 0.235535
0.738037 0.287079 0.266968
0.823456 0.340759 0.321381
0.106476 0.336304 0.251129
0.216553 0.374451 0.291809
0.458405 0.358063 0.225952
0.632385 0.375580 0.248230
0.765106 0.417419 0.294617
0.849426 0.472015 0.352539
0.060944 0.535492 0.379883
0.208710 0.561890 0.380829
0.368256 0.588562 0.347870
0.693542 0.542938 0.210144
0.817719 0.567963 0.227051
0.900482 0.612488 0.298920
0.040131 0.715973 0.541412
0.199554 0.740570 0.520111
0.354675 0.771515 0.476501
0.629852 0.762726 0.318481
0.867828 0.759277 0.233612
0.963531 0.803528 0.280823
0.065216 0.875336 0.691193
0.227173 0.896393 0.681702
0.393250 0.924957 0.621063
0.609741 0.937195 0.510437
0.881561 0.926514 0.371826
0.997772 0.952362 0.461609
0.005341 0.019836 0.279053
0.132629 0.051270 0.308777
0.342041 0.062195 0.243256
0.508820 0.110626 0.249939
0.643433 0.163849 0.287842
0.737976 0.219635 0.338593
0.049316 0.194977 0.292816
0.184296 0.214172 0.367126
0.410004 0.209076 0.338867
0.590027 0.256256 0.347290
0.734253 0.301270 0.381409
0.819519 0.355499 0.432770
0.118408 0.350861 0.340637
0.245697 0.381165 0.376251
0.399994 0.399994 0.399994
0.613678 0.420349 0.413818
0.777008 0.453644 0.441956
0.861755 0.507355 0.496094
0.126892 0.529602 0.431580
0.224945 0.570526 0.490112
0.380951 0.590179 0.504730
0.653412 0.571136 0.388458
0.796173 0.588776 0.410889
0.883667 0.637756 0.478638
0.086212 0.721985 0.583527
0.183014 0.762085 0.650116
0.382263 0.766144 0.629791
0.572723 0.787842 0.539764
0.846344 0.773590 0.415039
0.943817 0.812164 0.468689
0.085175 0.890137 0.757294
0.209991 0.917877 0.813324
0.435181 0.915253 0.758667
0.606323 0.944275 0.681976
0.852814 0.941254 0.570892
0.998779 0.965118 0.590698
0.000031 0.028900 0.444763
0.119049 0.055695 0.522369
0.321533 0.061707 0.482849
0.543701 0.075378 0.380646
0.678284 0.128387 0.391937
0.772522 0.180695 0.443512
0.013733 0.213409 0.490601
0.160431 0.227783 0.559082
0.366699 0.222260 0.571533
0.629913 0.203064 0.507660
0.769440 0.254578 0.512390
0.847992 0.318481 0.551697
0.054169 0.398804 0.458527
0.192535 0.417969 0.524078
0.376862 0.414825 0.583435
0.637115 0.387207 0.568481
0.789185 0.435852 0.577576
0.867462 0.500061 0.622131
0.134125 0.545074 0.528809
0.276154 0.569122 0.557892
0.437317 0.584930 0.579071
0.600006 0.600006 0.600006
0.779510 0.629364 0.626038
0.876556 0.679932 0.676270
0.171173 0.710541 0.612976
0.290436 0.742340 0.662689
0.429291 0.765656 0.704224
0.601135 0.779388 0.707275
0.818420 0.786499 0.621887
0.919769 0.820129 0.671082
0.161285 0.885223 0.775635
0.296875 0.909180 0.823212
0.457245 0.922852 0.857819
0.667755 0.923615 0.824921
0.814362 0.961731 0.766052
0.996979 0.976440 0.734802
0.000031 0.046326 0.551422
0.108398 0.062927 0.712097
0.294861 0.072662 0.696869
0.542816 0.061951 0.623413
0.714813 0.083801 0.582489
0.819916 0.123413 0.632019
0.000031 0.229858 0.639954
0.141174 0.245850 0.714325
0.335449 0.241364 0.753876
0.593689 0.217224 0.724792
0.792877 0.220367 0.710266
0.891235 0.265808 0.743591
0.011902 0.426880 0.623779
0.154602 0.442749 0.694489
0.359436 0.433350 0.731384
0.586792 0.414154 0.760101
0.818512 0.397644 0.762115
0.919220 0.443329 0.789795
0.075256 0.593994 0.626862
0.234497 0.607391 0.666199
0.402679 0.615906 0.707306
0.587646 0.615723 0.749451
0.805420 0.601898 0.775360
0.905701 0.653473 0.802368
0.163666 0.734039 0.707428
0.323181 0.750305 0.730499
0.493958 0.761688 0.749207
0.657440 0.776276 0.770569
0.799988 0.799988 0.799988
0.910889 0.847015 0.846619
0.233459 0.880676 0.803406
0.402771 0.891541 0.828766
0.560791 0.906677 0.862000
0.712769 0.925568 0.891632
0.862915 0.949219 0.900757
0.990265 0.985657 0.903442
0.000031 0.070007 0.624512
0.108032 0.079468 0.824554
0.292816 0.089752 0.811127
0.525848 0.082306 0.760437
0.719910 0.093353 0.717621
0.820068 0.137604 0.752594
0.000031 0.256470 0.697052
0.135345 0.272827 0.785583
0.323792 0.267395 0.846191
0.569580 0.246460 0.833618
0.787170 0.238983 0.826172
0.891083 0.280731 0.864105
0.000031 0.452606 0.717682
0.140289 0.470673 0.784088
0.358521 0.458923 0.796967
0.564819 0.446869 0.844482
0.798004 0.426910 0.861084
0.923218 0.456696 0.905212
0.051758 0.621857 0.741394
0.213898 0.635468 0.771637
0.394226 0.640442 0.798767
0.591705 0.637878 0.819611
0.779724 0.635529 0.864532
0.925873 0.654205 0.911682
0.152527 0.761932 0.787842
0.336884 0.766571 0.805725
0.507538 0.777588 0.826965
0.664185 0.794830 0.852722
0.808105 0.817261 0.885376
0.936707 0.844757 0.932343
0.246368 0.899231 0.868622
0.427582 0.905762 0.884857
0.605957 0.913666 0.901337
0.765656 0.929871 0.924408
0.895660 0.959198 0.957825
1.000000 1.000000 1.000000
