Scenic Moods/Striped Purple - Emerald Malaise.cube
#Created by: Adobe Photoshop Export Color Lookup Plugin
#Copyright: (C) Copyright 2020 © 2019 Austin Barrett - Striped Purple
TITLE "Striped Purple - Emerald Malaise"
#LUT size
LUT_3D_SIZE 16
#data domain
DOMAIN_MIN 0.0 0.0 0.0
DOMAIN_MAX 1.0 1.0 1.0
#LUT data points
0.054901 0.058838 0.066681
0.094788 0.058838 0.066681
0.135254 0.058838 0.066681
0.176849 0.058838 0.066681
0.220184 0.058838 0.066681
0.265839 0.058838 0.066681
0.314331 0.058838 0.066681
0.366333 0.058838 0.066681
0.422302 0.058838 0.066681
0.482269 0.058838 0.066681
0.545654 0.058838 0.066681
0.611938 0.058838 0.066681
0.680450 0.058838 0.066681
0.750732 0.058838 0.066681
0.822113 0.058838 0.066681
0.894104 0.058838 0.066681
0.054901 0.114685 0.066681
0.094788 0.114685 0.066681
0.135254 0.114685 0.066681
0.176849 0.114685 0.066681
0.220184 0.114685 0.066681
0.265839 0.114685 0.066681
0.314331 0.114685 0.066681
0.366333 0.114685 0.066681
0.422302 0.114685 0.066681
0.482269 0.114685 0.066681
0.545654 0.114685 0.066681
0.611938 0.114685 0.066681
0.680450 0.114685 0.066681
0.750732 0.114685 0.066681
0.822113 0.114685 0.066681
0.894104 0.114685 0.066681
0.054901 0.170288 0.066681
0.094788 0.170288 0.066681
0.135254 0.170288 0.066681
0.176849 0.170288 0.066681
0.220184 0.170288 0.066681
0.265839 0.170288 0.066681
0.314331 0.170288 0.066681
0.366333 0.170288 0.066681
0.422302 0.170288 0.066681
0.482269 0.170288 0.066681
0.545654 0.170288 0.066681
0.611938 0.170288 0.066681
0.680450 0.170288 0.066681
0.750732 0.170288 0.066681
0.822113 0.170288 0.066681
0.894104 0.170288 0.066681
0.054901 0.225555 0.066681
0.094788 0.225555 0.066681
0.135254 0.225555 0.066681
0.176849 0.225555 0.066681
0.220184 0.225555 0.066681
0.265839 0.225555 0.066681
0.314331 0.225555 0.066681
0.366333 0.225555 0.066681
0.422302 0.225555 0.066681
0.482269 0.225555 0.066681
0.545654 0.225555 0.066681
0.611938 0.225555 0.066681
0.680450 0.225555 0.066681
0.750732 0.225555 0.066681
0.822113 0.225555 0.066681
0.894104 0.225555 0.066681
0.054901 0.280212 0.066681
0.094788 0.280212 0.066681
0.135254 0.280212 0.066681
0.176849 0.280212 0.066681
0.220184 0.280212 0.066681
0.265839 0.280212 0.066681
0.314331 0.280212 0.066681
0.366333 0.280212 0.066681
0.422302 0.280212 0.066681
0.482269 0.280212 0.066681
0.545654 0.280212 0.066681
0.611938 0.280212 0.066681
0.680450 0.280212 0.066681
0.750732 0.280212 0.066681
0.822113 0.280212 0.066681
0.894104 0.280212 0.066681
0.054901 0.334106 0.066681
0.094788 0.334106 0.066681
0.135254 0.334106 0.066681
0.176849 0.334106 0.066681
0.220184 0.334106 0.066681
0.265839 0.334106 0.066681
0.314331 0.334106 0.066681
0.366333 0.334106 0.066681
0.422302 0.334106 0.066681
0.482269 0.334106 0.066681
0.545654 0.334106 0.066681
0.611938 0.334106 0.066681
0.680450 0.334106 0.066681
0.750732 0.334106 0.066681
0.822113 0.334106 0.066681
0.894104 0.334106 0.066681
0.054901 0.387024 0.066681
0.094788 0.387024 0.066681
0.135254 0.387024 0.066681
0.176849 0.387024 0.066681
0.220184 0.387024 0.066681
0.265839 0.387024 0.066681
0.314331 0.387024 0.066681
0.366333 0.387024 0.066681
0.422302 0.387024 0.066681
0.482269 0.387024 0.066681
0.545654 0.387024 0.066681
0.611938 0.387024 0.066681
0.680450 0.387024 0.066681
0.750732 0.387024 0.066681
0.822113 0.387024 0.066681
0.894104 0.387024 0.066681
0.054901 0.438843 0.066681
0.094788 0.438843 0.066681
0.135254 0.438843 0.066681
0.176849 0.438843 0.066681
0.220184 0.438843 0.066681
0.265839 0.438843 0.066681
0.314331 0.438843 0.066681
0.366333 0.438843 0.066681
0.422302 0.438843 0.066681
0.482269 0.438843 0.066681
0.545654 0.438843 0.066681
0.611938 0.438843 0.066681
0.680450 0.438843 0.066681
0.750732 0.438843 0.066681
0.822113 0.438843 0.066681
0.894104 0.438843 0.066681
0.054901 0.489258 0.066681
0.094788 0.489258 0.066681
0.135254 0.489258 0.066681
0.176849 0.489258 0.066681
0.220184 0.489258 0.066681
0.265839 0.489258 0.066681
0.314331 0.489258 0.066681
0.366333 0.489258 0.066681
0.422302 0.489258 0.066681
0.482269 0.489258 0.066681
0.545654 0.489258 0.066681
0.611938 0.489258 0.066681
0.680450 0.489258 0.066681
0.750732 0.489258 0.066681
0.822113 0.489258 0.066681
0.894104 0.489258 0.066681
0.054901 0.538391 0.066681
0.094788 0.538391 0.066681
0.135254 0.538391 0.066681
0.176849 0.538391 0.066681
0.220184 0.538391 0.066681
0.265839 0.538391 0.066681
0.314331 0.538391 0.066681
0.366333 0.538391 0.066681
0.422302 0.538391 0.066681
0.482269 0.538391 0.066681
0.545654 0.538391 0.066681
0.611938 0.538391 0.066681
0.680450 0.538391 0.066681
0.750732 0.538391 0.066681
0.822113 0.538391 0.066681
0.894104 0.538391 0.066681
0.054901 0.586334 0.066681
0.094788 0.586334 0.066681
0.135254 0.586334 0.066681
0.176849 0.586334 0.066681
0.220184 0.586334 0.066681
0.265839 0.586334 0.066681
0.314331 0.586334 0.066681
0.366333 0.586334 0.066681
0.422302 0.586334 0.066681
0.482269 0.586334 0.066681
0.545654 0.586334 0.066681
0.611938 0.586334 0.066681
0.680450 0.586334 0.066681
0.750732 0.586334 0.066681
0.822113 0.586334 0.066681
0.894104 0.586334 0.066681
0.054901 0.633362 0.066681
0.094788 0.633362 0.066681
0.135254 0.633362 0.066681
0.176849 0.633362 0.066681
0.220184 0.633362 0.066681
0.265839 0.633362 0.066681
0.314331 0.633362 0.066681
0.366333 0.633362 0.066681
0.422302 0.633362 0.066681
0.482269 0.633362 0.066681
0.545654 0.633362 0.066681
0.611938 0.633362 0.066681
0.680450 0.633362 0.066681
0.750732 0.633362 0.066681
0.822113 0.633362 0.066681
0.894104 0.633362 0.066681
0.054901 0.679596 0.066681
0.094788 0.679596 0.066681
0.135254 0.679596 0.066681
0.176849 0.679596 0.066681
0.220184 0.679596 0.066681
0.265839 0.679596 0.066681
0.314331 0.679596 0.066681
0.366333 0.679596 0.066681
0.422302 0.679596 0.066681
0.482269 0.679596 0.066681
0.545654 0.679596 0.066681
0.611938 0.679596 0.066681
0.680450 0.679596 0.066681
0.750732 0.679596 0.066681
0.822113 0.679596 0.066681
0.894104 0.679596 0.066681
0.054901 0.725281 0.066681
0.094788 0.725281 0.066681
0.135254 0.725281 0.066681
0.176849 0.725281 0.066681
0.220184 0.725281 0.066681
0.265839 0.725281 0.066681
0.314331 0.725281 0.066681
0.366333 0.725281 0.066681
0.422302 0.725281 0.066681
0.482269 0.725281 0.066681
0.545654 0.725281 0.066681
0.611938 0.725281 0.066681
0.680450 0.725281 0.066681
0.750732 0.725281 0.066681
0.822113 0.725281 0.066681
0.894104 0.725281 0.066681
0.054901 0.770538 0.066681
0.094788 0.770538 0.066681
0.135254 0.770538 0.066681
0.176849 0.770538 0.066681
0.220184 0.770538 0.066681
0.265839 0.770538 0.066681
0.314331 0.770538 0.066681
0.366333 0.770538 0.066681
0.422302 0.770538 0.066681
0.482269 0.770538 0.066681
0.545654 0.770538 0.066681
0.611938 0.770538 0.066681
0.680450 0.770538 0.066681
0.750732 0.770538 0.066681
0.822113 0.770538 0.066681
0.894104 0.770538 0.066681
0.054901 0.815674 0.066681
0.094788 0.815674 0.066681
0.135254 0.815674 0.066681
0.176849 0.815674 0.066681
0.220184 0.815674 0.066681
0.265839 0.815674 0.066681
0.314331 0.815674 0.066681
0.366333 0.815674 0.066681
0.422302 0.815674 0.066681
0.482269 0.815674 0.066681
0.545654 0.815674 0.066681
0.611938 0.815674 0.066681
0.680450 0.815674 0.066681
0.750732 0.815674 0.066681
0.822113 0.815674 0.066681
0.894104 0.815674 0.066681
0.054901 0.058838 0.115265
0.094788 0.058838 0.115265
0.135254 0.058838 0.115265
0.176849 0.058838 0.115265
0.220184 0.058838 0.115265
0.265839 0.058838 0.115265
0.314331 0.058838 0.115265
0.366333 0.058838 0.115265
0.422302 0.058838 0.115265
0.482269 0.058838 0.115265
0.545654 0.058838 0.115265
0.611938 0.058838 0.115265
0.680450 0.058838 0.115265
0.750732 0.058838 0.115265
0.822113 0.058838 0.115265
0.894104 0.058838 0.115265
0.054901 0.114685 0.115265
0.094788 0.114685 0.115265
0.135254 0.114685 0.115265
0.176849 0.114685 0.115265
0.220184 0.114685 0.115265
0.265839 0.114685 0.115265
0.314331 0.114685 0.115265
0.366333 0.114685 0.115265
0.422302 0.114685 0.115265
0.482269 0.114685 0.115265
0.545654 0.114685 0.115265
0.611938 0.114685 0.115265
0.680450 0.114685 0.115265
0.750732 0.114685 0.115265
0.822113 0.114685 0.115265
0.894104 0.114685 0.115265
0.054901 0.170288 0.115265
0.094788 0.170288 0.115265
0.135254 0.170288 0.115265
0.176849 0.170288 0.115265
0.220184 0.170288 0.115265
0.265839 0.170288 0.115265
0.314331 0.170288 0.115265
0.366333 0.170288 0.115265
0.422302 0.170288 0.115265
0.482269 0.170288 0.115265
0.545654 0.170288 0.115265
0.611938 0.170288 0.115265
0.680450 0.170288 0.115265
0.750732 0.170288 0.115265
0.822113 0.170288 0.115265
0.894104 0.170288 0.115265
0.054901 0.225555 0.115265
0.094788 0.225555 0.115265
0.135254 0.225555 0.115265
0.176849 0.225555 0.115265
0.220184 0.225555 0.115265
0.265839 0.225555 0.115265
0.314331 0.225555 0.115265
0.366333 0.225555 0.115265
0.422302 0.225555 0.115265
0.482269 0.225555 0.115265
0.545654 0.225555 0.115265
0.611938 0.225555 0.115265
0.680450 0.225555 0.115265
0.750732 0.225555 0.115265
0.822113 0.225555 0.115265
0.894104 0.225555 0.115265
0.054901 0.280212 0.115265
0.094788 0.280212 0.115265
0.135254 0.280212 0.115265
0.176849 0.280212 0.115265
0.220184 0.280212 0.115265
0.265839 0.280212 0.115265
0.314331 0.280212 0.115265
0.366333 0.280212 0.115265
0.422302 0.280212 0.115265
0.482269 0.280212 0.115265
0.545654 0.280212 0.115265
0.611938 0.280212 0.115265
0.680450 0.280212 0.115265
0.750732 0.280212 0.115265
0.822113 0.280212 0.115265
0.894104 0.280212 0.115265
0.054901 0.334106 0.115265
0.094788 0.334106 0.115265
0.135254 0.334106 0.115265
0.176849 0.334106 0.115265
0.220184 0.334106 0.115265
0.265839 0.334106 0.115265
0.314331 0.334106 0.115265
0.366333 0.334106 0.115265
0.422302 0.334106 0.115265
0.482269 0.334106 0.115265
0.545654 0.334106 0.115265
0.611938 0.334106 0.115265
0.680450 0.334106 0.115265
0.750732 0.334106 0.115265
0.822113 0.334106 0.115265
0.894104 0.334106 0.115265
0.054901 0.387024 0.115265
0.094788 0.387024 0.115265
0.135254 0.387024 0.115265
0.176849 0.387024 0.115265
0.220184 0.387024 0.115265
0.265839 0.387024 0.115265
0.314331 0.387024 0.115265
0.366333 0.387024 0.115265
0.422302 0.387024 0.115265
0.482269 0.387024 0.115265
0.545654 0.387024 0.115265
0.611938 0.387024 0.115265
0.680450 0.387024 0.115265
0.750732 0.387024 0.115265
0.822113 0.387024 0.115265
0.894104 0.387024 0.115265
0.054901 0.438843 0.115265
0.094788 0.438843 0.115265
0.135254 0.438843 0.115265
0.176849 0.438843 0.115265
0.220184 0.438843 0.115265
0.265839 0.438843 0.115265
0.314331 0.438843 0.115265
0.366333 0.438843 0.115265
0.422302 0.438843 0.115265
0.482269 0.438843 0.115265
0.545654 0.438843 0.115265
0.611938 0.438843 0.115265
0.680450 0.438843 0.115265
0.750732 0.438843 0.115265
0.822113 0.438843 0.115265
0.894104 0.438843 0.115265
0.054901 0.489258 0.115265
0.094788 0.489258 0.115265
0.135254 0.489258 0.115265
0.176849 0.489258 0.115265
0.220184 0.489258 0.115265
0.265839 0.489258 0.115265
0.314331 0.489258 0.115265
0.366333 0.489258 0.115265
0.422302 0.489258 0.115265
0.482269 0.489258 0.115265
0.545654 0.489258 0.115265
0.611938 0.489258 0.115265
0.680450 0.489258 0.115265
0.750732 0.489258 0.115265
0.822113 0.489258 0.115265
0.894104 0.489258 0.115265
0.054901 0.538391 0.115265
0.094788 0.538391 0.115265
0.135254 0.538391 0.115265
0.176849 0.538391 0.115265
0.220184 0.538391 0.115265
0.265839 0.538391 0.115265
0.314331 0.538391 0.115265
0.366333 0.538391 0.115265
0.422302 0.538391 0.115265
0.482269 0.538391 0.115265
0.545654 0.538391 0.115265
0.611938 0.538391 0.115265
0.680450 0.538391 0.115265
0.750732 0.538391 0.115265
0.822113 0.538391 0.115265
0.894104 0.538391 0.115265
0.054901 0.586334 0.115265
0.094788 0.586334 0.115265
0.135254 0.586334 0.115265
0.176849 0.586334 0.115265
0.220184 0.586334 0.115265
0.265839 0.586334 0.115265
0.314331 0.586334 0.115265
0.366333 0.586334 0.115265
0.422302 0.586334 0.115265
0.482269 0.586334 0.115265
0.545654 0.586334 0.115265
0.611938 0.586334 0.115265
0.680450 0.586334 0.115265
0.750732 0.586334 0.115265
0.822113 0.586334 0.115265
0.894104 0.586334 0.115265
0.054901 0.633362 0.115265
0.094788 0.633362 0.115265
0.135254 0.633362 0.115265
0.176849 0.633362 0.115265
0.220184 0.633362 0.115265
0.265839 0.633362 0.115265
0.314331 0.633362 0.115265
0.366333 0.633362 0.115265
0.422302 0.633362 0.115265
0.482269 0.633362 0.115265
0.545654 0.633362 0.115265
0.611938 0.633362 0.115265
0.680450 0.633362 0.115265
0.750732 0.633362 0.115265
0.822113 0.633362 0.115265
0.894104 0.633362 0.115265
0.054901 0.679596 0.115265
0.094788 0.679596 0.115265
0.135254 0.679596 0.115265
0.176849 0.679596 0.115265
0.220184 0.679596 0.115265
0.265839 0.679596 0.115265
0.314331 0.679596 0.115265
0.366333 0.679596 0.115265
0.422302 0.679596 0.115265
0.482269 0.679596 0.115265
0.545654 0.679596 0.115265
0.611938 0.679596 0.115265
0.680450 0.679596 0.115265
0.750732 0.679596 0.115265
0.822113 0.679596 0.115265
0.894104 0.679596 0.115265
0.054901 0.725281 0.115265
0.094788 0.725281 0.115265
0.135254 0.725281 0.115265
0.176849 0.725281 0.115265
0.220184 0.725281 0.115265
0.265839 0.725281 0.115265
0.314331 0.725281 0.115265
0.366333 0.725281 0.115265
0.422302 0.725281 0.115265
0.482269 0.725281 0.115265
0.545654 0.725281 0.115265
0.611938 0.725281 0.115265
0.680450 0.725281 0.115265
0.750732 0.725281 0.115265
0.822113 0.725281 0.115265
0.894104 0.725281 0.115265
0.054901 0.770538 0.115265
0.094788 0.770538 0.115265
0.135254 0.770538 0.115265
0.176849 0.770538 0.115265
0.220184 0.770538 0.115265
0.265839 0.770538 0.115265
0.314331 0.770538 0.115265
0.366333 0.770538 0.115265
0.422302 0.770538 0.115265
0.482269 0.770538 0.115265
0.545654 0.770538 0.115265
0.611938 0.770538 0.115265
0.680450 0.770538 0.115265
0.750732 0.770538 0.115265
0.822113 0.770538 0.115265
0.894104 0.770538 0.115265
0.054901 0.815674 0.115265
0.094788 0.815674 0.115265
0.135254 0.815674 0.115265
0.176849 0.815674 0.115265
0.220184 0.815674 0.115265
0.265839 0.815674 0.115265
0.314331 0.815674 0.115265
0.366333 0.815674 0.115265
0.422302 0.815674 0.115265
0.482269 0.815674 0.115265
0.545654 0.815674 0.115265
0.611938 0.815674 0.115265
0.680450 0.815674 0.115265
0.750732 0.815674 0.115265
0.822113 0.815674 0.115265
0.894104 0.815674 0.115265
0.054901 0.058838 0.163574
0.094788 0.058838 0.163574
0.135254 0.058838 0.163574
0.176849 0.058838 0.163574
0.220184 0.058838 0.163574
0.265839 0.058838 0.163574
0.314331 0.058838 0.163574
0.366333 0.058838 0.163574
0.422302 0.058838 0.163574
0.482269 0.058838 0.163574
0.545654 0.058838 0.163574
0.611938 0.058838 0.163574
0.680450 0.058838 0.163574
0.750732 0.058838 0.163574
0.822113 0.058838 0.163574
0.894104 0.058838 0.163574
0.054901 0.114685 0.163574
0.094788 0.114685 0.163574
0.135254 0.114685 0.163574
0.176849 0.114685 0.163574
0.220184 0.114685 0.163574
0.265839 0.114685 0.163574
0.314331 0.114685 0.163574
0.366333 0.114685 0.163574
0.422302 0.114685 0.163574
0.482269 0.114685 0.163574
0.545654 0.114685 0.163574
0.611938 0.114685 0.163574
0.680450 0.114685 0.163574
0.750732 0.114685 0.163574
0.822113 0.114685 0.163574
0.894104 0.114685 0.163574
0.054901 0.170288 0.163574
0.094788 0.170288 0.163574
0.135254 0.170288 0.163574
0.176849 0.170288 0.163574
0.220184 0.170288 0.163574
0.265839 0.170288 0.163574
0.314331 0.170288 0.163574
0.366333 0.170288 0.163574
0.422302 0.170288 0.163574
0.482269 0.170288 0.163574
0.545654 0.170288 0.163574
0.611938 0.170288 0.163574
0.680450 0.170288 0.163574
0.750732 0.170288 0.163574
0.822113 0.170288 0.163574
0.894104 0.170288 0.163574
0.054901 0.225555 0.163574
0.094788 0.225555 0.163574
0.135254 0.225555 0.163574
0.176849 0.225555 0.163574
0.220184 0.225555 0.163574
0.265839 0.225555 0.163574
0.314331 0.225555 0.163574
0.366333 0.225555 0.163574
0.422302 0.225555 0.163574
0.482269 0.225555 0.163574
0.545654 0.225555 0.163574
0.611938 0.225555 0.163574
0.680450 0.225555 0.163574
0.750732 0.225555 0.163574
0.822113 0.225555 0.163574
0.894104 0.225555 0.163574
0.054901 0.280212 0.163574
0.094788 0.280212 0.163574
0.135254 0.280212 0.163574
0.176849 0.280212 0.163574
0.220184 0.280212 0.163574
0.265839 0.280212 0.163574
0.314331 0.280212 0.163574
0.366333 0.280212 0.163574
0.422302 0.280212 0.163574
0.482269 0.280212 0.163574
0.545654 0.280212 0.163574
0.611938 0.280212 0.163574
0.680450 0.280212 0.163574
0.750732 0.280212 0.163574
0.822113 0.280212 0.163574
0.894104 0.280212 0.163574
0.054901 0.334106 0.163574
0.094788 0.334106 0.163574
0.135254 0.334106 0.163574
0.176849 0.334106 0.163574
0.220184 0.334106 0.163574
0.265839 0.334106 0.163574
0.314331 0.334106 0.163574
0.366333 0.334106 0.163574
0.422302 0.334106 0.163574
0.482269 0.334106 0.163574
0.545654 0.334106 0.163574
0.611938 0.334106 0.163574
0.680450 0.334106 0.163574
0.750732 0.334106 0.163574
0.822113 0.334106 0.163574
0.894104 0.334106 0.163574
0.054901 0.387024 0.163574
0.094788 0.387024 0.163574
0.135254 0.387024 0.163574
0.176849 0.387024 0.163574
0.220184 0.387024 0.163574
0.265839 0.387024 0.163574
0.314331 0.387024 0.163574
0.366333 0.387024 0.163574
0.422302 0.387024 0.163574
0.482269 0.387024 0.163574
0.545654 0.387024 0.163574
0.611938 0.387024 0.163574
0.680450 0.387024 0.163574
0.750732 0.387024 0.163574
0.822113 0.387024 0.163574
0.894104 0.387024 0.163574
0.054901 0.438843 0.163574
0.094788 0.438843 0.163574
0.135254 0.438843 0.163574
0.176849 0.438843 0.163574
0.220184 0.438843 0.163574
0.265839 0.438843 0.163574
0.314331 0.438843 0.163574
0.366333 0.438843 0.163574
0.422302 0.438843 0.163574
0.482269 0.438843 0.163574
0.545654 0.438843 0.163574
0.611938 0.438843 0.163574
0.680450 0.438843 0.163574
0.750732 0.438843 0.163574
0.822113 0.438843 0.163574
0.894104 0.438843 0.163574
0.054901 0.489258 0.163574
0.094788 0.489258 0.163574
0.135254 0.489258 0.163574
0.176849 0.489258 0.163574
0.220184 0.489258 0.163574
0.265839 0.489258 0.163574
0.314331 0.489258 0.163574
0.366333 0.489258 0.163574
0.422302 0.489258 0.163574
0.482269 0.489258 0.163574
0.545654 0.489258 0.163574
0.611938 0.489258 0.163574
0.680450 0.489258 0.163574
0.750732 0.489258 0.163574
0.822113 0.489258 0.163574
0.894104 0.489258 0.163574
0.054901 0.538391 0.163574
0.094788 0.538391 0.163574
0.135254 0.538391 0.163574
0.176849 0.538391 0.163574
0.220184 0.538391 0.163574
0.265839 0.538391 0.163574
0.314331 0.538391 0.163574
0.366333 0.538391 0.163574
0.422302 0.538391 0.163574
0.482269 0.538391 0.163574
0.545654 0.538391 0.163574
0.611938 0.538391 0.163574
0.680450 0.538391 0.163574
0.750732 0.538391 0.163574
0.822113 0.538391 0.163574
0.894104 0.538391 0.163574
0.054901 0.586334 0.163574
0.094788 0.586334 0.163574
0.135254 0.586334 0.163574
0.176849 0.586334 0.163574
0.220184 0.586334 0.163574
0.265839 0.586334 0.163574
0.314331 0.586334 0.163574
0.366333 0.586334 0.163574
0.422302 0.586334 0.163574
0.482269 0.586334 0.163574
0.545654 0.586334 0.163574
0.611938 0.586334 0.163574
0.680450 0.586334 0.163574
0.750732 0.586334 0.163574
0.822113 0.586334 0.163574
0.894104 0.586334 0.163574
0.054901 0.633362 0.163574
0.094788 0.633362 0.163574
0.135254 0.633362 0.163574
0.176849 0.633362 0.163574
0.220184 0.633362 0.163574
0.265839 0.633362 0.163574
0.314331 0.633362 0.163574
0.366333 0.633362 0.163574
0.422302 0.633362 0.163574
0.482269 0.633362 0.163574
0.545654 0.633362 0.163574
0.611938 0.633362 0.163574
0.680450 0.633362 0.163574
0.750732 0.633362 0.163574
0.822113 0.633362 0.163574
0.894104 0.633362 0.163574
0.054901 0.679596 0.163574
0.094788 0.679596 0.163574
0.135254 0.679596 0.163574
0.176849 0.679596 0.163574
0.220184 0.679596 0.163574
0.265839 0.679596 0.163574
0.314331 0.679596 0.163574
0.366333 0.679596 0.163574
0.422302 0.679596 0.163574
0.482269 0.679596 0.163574
0.545654 0.679596 0.163574
0.611938 0.679596 0.163574
0.680450 0.679596 0.163574
0.750732 0.679596 0.163574
0.822113 0.679596 0.163574
0.894104 0.679596 0.163574
0.054901 0.725281 0.163574
0.094788 0.725281 0.163574
0.135254 0.725281 0.163574
0.176849 0.725281 0.163574
0.220184 0.725281 0.163574
0.265839 0.725281 0.163574
0.314331 0.725281 0.163574
0.366333 0.725281 0.163574
0.422302 0.725281 0.163574
0.482269 0.725281 0.163574
0.545654 0.725281 0.163574
0.611938 0.725281 0.163574
0.680450 0.725281 0.163574
0.750732 0.725281 0.163574
0.822113 0.725281 0.163574
0.894104 0.725281 0.163574
0.054901 0.770538 0.163574
0.094788 0.770538 0.163574
0.135254 0.770538 0.163574
0.176849 0.770538 0.163574
0.220184 0.770538 0.163574
0.265839 0.770538 0.163574
0.314331 0.770538 0.163574
0.366333 0.770538 0.163574
0.422302 0.770538 0.163574
0.482269 0.770538 0.163574
0.545654 0.770538 0.163574
0.611938 0.770538 0.163574
0.680450 0.770538 0.163574
0.750732 0.770538 0.163574
0.822113 0.770538 0.163574
0.894104 0.770538 0.163574
0.054901 0.815674 0.163574
0.094788 0.815674 0.163574
0.135254 0.815674 0.163574
0.176849 0.815674 0.163574
0.220184 0.815674 0.163574
0.265839 0.815674 0.163574
0.314331 0.815674 0.163574
0.366333 0.815674 0.163574
0.422302 0.815674 0.163574
0.482269 0.815674 0.163574
0.545654 0.815674 0.163574
0.611938 0.815674 0.163574
0.680450 0.815674 0.163574
0.750732 0.815674 0.163574
0.822113 0.815674 0.163574
0.894104 0.815674 0.163574
0.054901 0.058838 0.211365
0.094788 0.058838 0.211365
0.135254 0.058838 0.211365
0.176849 0.058838 0.211365
0.220184 0.058838 0.211365
0.265839 0.058838 0.211365
0.314331 0.058838 0.211365
0.366333 0.058838 0.211365
0.422302 0.058838 0.211365
0.482269 0.058838 0.211365
0.545654 0.058838 0.211365
0.611938 0.058838 0.211365
0.680450 0.058838 0.211365
0.750732 0.058838 0.211365
0.822113 0.058838 0.211365
0.894104 0.058838 0.211365
0.054901 0.114685 0.211365
0.094788 0.114685 0.211365
0.135254 0.114685 0.211365
0.176849 0.114685 0.211365
0.220184 0.114685 0.211365
0.265839 0.114685 0.211365
0.314331 0.114685 0.211365
0.366333 0.114685 0.211365
0.422302 0.114685 0.211365
0.482269 0.114685 0.211365
0.545654 0.114685 0.211365
0.611938 0.114685 0.211365
0.680450 0.114685 0.211365
0.750732 0.114685 0.211365
0.822113 0.114685 0.211365
0.894104 0.114685 0.211365
0.054901 0.170288 0.211365
0.094788 0.170288 0.211365
0.135254 0.170288 0.211365
0.176849 0.170288 0.211365
0.220184 0.170288 0.211365
0.265839 0.170288 0.211365
0.314331 0.170288 0.211365
0.366333 0.170288 0.211365
0.422302 0.170288 0.211365
0.482269 0.170288 0.211365
0.545654 0.170288 0.211365
0.611938 0.170288 0.211365
0.680450 0.170288 0.211365
0.750732 0.170288 0.211365
0.822113 0.170288 0.211365
0.894104 0.170288 0.211365
0.054901 0.225555 0.211365
0.094788 0.225555 0.211365
0.135254 0.225555 0.211365
0.176849 0.225555 0.211365
0.220184 0.225555 0.211365
0.265839 0.225555 0.211365
0.314331 0.225555 0.211365
0.366333 0.225555 0.211365
0.422302 0.225555 0.211365
0.482269 0.225555 0.211365
0.545654 0.225555 0.211365
0.611938 0.225555 0.211365
0.680450 0.225555 0.211365
0.750732 0.225555 0.211365
0.822113 0.225555 0.211365
0.894104 0.225555 0.211365
0.054901 0.280212 0.211365
0.094788 0.280212 0.211365
0.135254 0.280212 0.211365
0.176849 0.280212 0.211365
0.220184 0.280212 0.211365
0.265839 0.280212 0.211365
0.314331 0.280212 0.211365
0.366333 0.280212 0.211365
0.422302 0.280212 0.211365
0.482269 0.280212 0.211365
0.545654 0.280212 0.211365
0.611938 0.280212 0.211365
0.680450 0.280212 0.211365
0.750732 0.280212 0.211365
0.822113 0.280212 0.211365
0.894104 0.280212 0.211365
0.054901 0.334106 0.211365
0.094788 0.334106 0.211365
0.135254 0.334106 0.211365
0.176849 0.334106 0.211365
0.220184 0.334106 0.211365
0.265839 0.334106 0.211365
0.314331 0.334106 0.211365
0.366333 0.334106 0.211365
0.422302 0.334106 0.211365
0.482269 0.334106 0.211365
0.545654 0.334106 0.211365
0.611938 0.334106 0.211365
0.680450 0.334106 0.211365
0.750732 0.334106 0.211365
0.822113 0.334106 0.211365
0.894104 0.334106 0.211365
0.054901 0.387024 0.211365
0.094788 0.387024 0.211365
0.135254 0.387024 0.211365
0.176849 0.387024 0.211365
0.220184 0.387024 0.211365
0.265839 0.387024 0.211365
0.314331 0.387024 0.211365
0.366333 0.387024 0.211365
0.422302 0.387024 0.211365
0.482269 0.387024 0.211365
0.545654 0.387024 0.211365
0.611938 0.387024 0.211365
0.680450 0.387024 0.211365
0.750732 0.387024 0.211365
