Scenic Moods/Striped Purple - Emerald Malaise.cube
#Created by: Adobe Photoshop Export Color Lookup Plugin
#Copyright: (C) Copyright 2020 © 2019 Austin Barrett - Striped Purple
TITLE "Striped Purple - Emerald Malaise"
#LUT size
LUT_3D_SIZE 6
#data domain
DOMAIN_MIN 0.0 0.0 0.0
DOMAIN_MAX 1.0 1.0 1.0
#LUT data points
0.054901 0.058838 0.066681
0.176849 0.058838 0.066681
0.314331 0.058838 0.066681
0.482269 0.058838 0.066681
0.680450 0.058838 0.066681
0.894104 0.058838 0.066681
0.054901 0.225555 0.066681
0.176849 0.225555 0.066681
0.314331 0.225555 0.066681
0.482269 0.225555 0.066681
0.680450 0.225555 0.066681
0.894104 0.225555 0.066681
0.054901 0.387024 0.066681
0.176849 0.387024 0.066681
0.314331 0.387024 0.066681
0.482269 0.387024 0.066681
0.680450 0.387024 0.066681
0.894104 0.387024 0.066681
0.054901 0.538391 0.066681
0.176849 0.538391 0.066681
0.314331 0.538391 0.066681
0.482269 0.538391 0.066681
0.680450 0.538391 0.066681
0.894104 0.538391 0.066681
0.054901 0.679596 0.066681
0.176849 0.679596 0.066681
0.314331 0.679596 0.066681
0.482269 0.679596 0.066681
0.680450 0.679596 0.066681
0.894104 0.679596 0.066681
0.054901 0.815674 0.066681
0.176849 0.815674 0.066681
0.314331 0.815674 0.066681
0.482269 0.815674 0.066681
0.680450 0.815674 0.066681
0.894104 0.815674 0.066681
0.054901 0.058838 0.211365
0.176849 0.058838 0.211365
0.314331 0.058838 0.211365
0.482269 0.058838 0.211365
0.680450 0.058838 0.211365
0.894104 0.058838 0.211365
0.054901 0.225555 0.211365
0.176849 0.225555 0.211365
0.314331 0.225555 0.211365
0.482269 0.225555 0.211365
0.680450 0.225555 0.211365
0.894104 0.225555 0.211365
0.054901 0.387024 0.211365
0.176849 0.387024 0.211365
0.314331 0.387024 0.211365
0.482269 0.387024 0.211365
0.680450 0.387024 0.211365
0.894104 0.387024 0.211365
0.054901 0.538391 0.211365
0.176849 0.538391 0.211365
0.314331 0.538391 0.211365
0.482269 0.538391 0.211365
0.680450 0.538391 0.211365
0.894104 0.538391 0.211365
0.054901 0.679596 0.211365
0.176849 0.679596 0.211365
0.314331 0.679596 0.211365
0.482269 0.679596 0.211365
0.680450 0.679596 0.211365
0.894104 0.679596 0.211365
0.054901 0.815674 0.211365
0.176849 0.815674 0.211365
0.314331 0.815674 0.211365
0.482269 0.815674 0.211365
0.680450 0.815674 0.211365
0.894104 0.815674 0.211365
0.054901 0.058838 0.348999
0.176849 0.058838 0.348999
0.314331 0.058838 0.348999
0.482269 0.058838 0.348999
0.680450 0.058838 0.348999
0.894104 0.058838 0.348999
0.054901 0.225555 0.348999
0.176849 0.225555 0.348999
0.314331 0.225555 0.348999
0.482269 0.225555 0.348999
0.680450 0.225555 0.348999
0.894104 0.225555 0.348999
0.054901 0.387024 0.348999
0.176849 0.387024 0.348999
0.314331 0.387024 0.348999
0.482269 0.387024 0.348999
0.680450 0.387024 0.348999
0.894104 0.387024 0.348999
0.054901 0.538391 0.348999
0.176849 0.538391 0.348999
0.314331 0.538391 0.348999
0.482269 0.538391 0.348999
0.680450 0.538391 0.348999
0.894104 0.538391 0.348999
0.054901 0.679596 0.348999
0.176849 0.679596 0.348999
0.314331 0.679596 0.348999
0.482269 0.679596 0.348999
0.680450 0.679596 0.348999
0.894104 0.679596 0.348999
0.054901 0.815674 0.348999
0.176849 0.815674 0.348999
0.314331 0.815674 0.348999
0.482269 0.815674 0.348999
0.680450 0.815674 0.348999
0.894104 0.815674 0.348999
0.054901 0.058838 0.472900
0.176849 0.058838 0.472900
0.314331 0.058838 0.472900
0.482269 0.058838 0.472900
0.680450 0.058838 0.472900
0.894104 0.058838 0.472900
0.054901 0.225555 0.472900
0.176849 0.225555 0.472900
0.314331 0.225555 0.472900
0.482269 0.225555 0.472900
0.680450 0.225555 0.472900
0.894104 0.225555 0.472900
0.054901 0.387024 0.472900
0.176849 0.387024 0.472900
0.314331 0.387024 0.472900
0.482269 0.387024 0.472900
0.680450 0.387024 0.472900
0.894104 0.387024 0.472900
0.054901 0.538391 0.472900
0.176849 0.538391 0.472900
0.314331 0.538391 0.472900
0.482269 0.538391 0.472900
0.680450 0.538391 0.472900
0.894104 0.538391 0.472900
0.054901 0.679596 0.472900
0.176849 0.679596 0.472900
0.314331 0.679596 0.472900
0.482269 0.679596 0.472900
0.680450 0.679596 0.472900
0.894104 0.679596 0.472900
0.054901 0.815674 0.472900
0.176849 0.815674 0.472900
0.314331 0.815674 0.472900
0.482269 0.815674 0.472900
0.680450 0.815674 0.472900
0.894104 0.815674 0.472900
0.054901 0.058838 0.583069
0.176849 0.058838 0.583069
0.314331 0.058838 0.583069
0.482269 0.058838 0.583069
0.680450 0.058838 0.583069
0.894104 0.058838 0.583069
0.054901 0.225555 0.583069
0.176849 0.225555 0.583069
0.314331 0.225555 0.583069
0.482269 0.225555 0.583069
0.680450 0.225555 0.583069
0.894104 0.225555 0.583069
0.054901 0.387024 0.583069
0.176849 0.387024 0.583069
0.314331 0.387024 0.583069
0.482269 0.387024 0.583069
0.680450 0.387024 0.583069
0.894104 0.387024 0.583069
0.054901 0.538391 0.583069
0.176849 0.538391 0.583069
0.314331 0.538391 0.583069
0.482269 0.538391 0.583069
0.680450 0.538391 0.583069
0.894104 0.538391 0.583069
0.054901 0.679596 0.583069
0.176849 0.679596 0.583069
0.314331 0.679596 0.583069
0.482269 0.679596 0.583069
0.680450 0.679596 0.583069
0.894104 0.679596 0.583069
0.054901 0.815674 0.583069
0.176849 0.815674 0.583069
0.314331 0.815674 0.583069
0.482269 0.815674 0.583069
0.680450 0.815674 0.583069
0.894104 0.815674 0.583069
0.054901 0.058838 0.686279
0.176849 0.058838 0.686279
0.314331 0.058838 0.686279
0.482269 0.058838 0.686279
0.680450 0.058838 0.686279
0.894104 0.058838 0.686279
0.054901 0.225555 0.686279
0.176849 0.225555 0.686279
0.314331 0.225555 0.686279
0.482269 0.225555 0.686279
0.680450 0.225555 0.686279
0.894104 0.225555 0.686279
0.054901 0.387024 0.686279
0.176849 0.387024 0.686279
0.314331 0.387024 0.686279
0.482269 0.387024 0.686279
0.680450 0.387024 0.686279
0.894104 0.387024 0.686279
0.054901 0.538391 0.686279
0.176849 0.538391 0.686279
0.314331 0.538391 0.686279
0.482269 0.538391 0.686279
0.680450 0.538391 0.686279
0.894104 0.538391 0.686279
0.054901 0.679596 0.686279
0.176849 0.679596 0.686279
0.314331 0.679596 0.686279
0.482269 0.679596 0.686279
0.680450 0.679596 0.686279
0.894104 0.679596 0.686279
0.054901 0.815674 0.686279
0.176849 0.815674 0.686279
0.314331 0.815674 0.686279
0.482269 0.815674 0.686279
0.680450 0.815674 0.686279
0.894104 0.815674 0.686279
