Scenic Moods/Striped Purple - Snowy Blues.cube
#Created by: Adobe Photoshop Export Color Lookup Plugin
#Copyright: (C) Copyright 2019 Snowy Blues by Striped Purple - © Austin Barrett All Rights Reserved.
TITLE "Snowy Blues"
#LUT size
LUT_3D_SIZE 32
#data domain
DOMAIN_MIN 0.0 0.0 0.0
DOMAIN_MAX 1.0 1.0 1.0
#LUT data points
0.047058 0.062744 0.062744
0.068298 0.062744 0.062744
0.089600 0.062744 0.062744
0.111023 0.062744 0.062744
0.132660 0.062744 0.062744
0.154572 0.062744 0.062744
0.176819 0.062744 0.062744
0.199432 0.062744 0.062744
0.222534 0.062744 0.062744
0.246185 0.062744 0.062744
0.270416 0.062744 0.062744
0.295319 0.062744 0.062744
0.320953 0.062744 0.062744
0.347382 0.062744 0.062744
0.374695 0.062744 0.062744
0.402924 0.062744 0.062744
0.432220 0.062744 0.062744
0.462433 0.062744 0.062744
0.493591 0.062744 0.062744
0.525635 0.062744 0.062744
0.558441 0.062744 0.062744
0.591980 0.062744 0.062744
0.626190 0.062744 0.062744
0.661011 0.062744 0.062744
0.696320 0.062744 0.062744
0.732117 0.062744 0.062744
0.768311 0.062744 0.062744
0.804871 0.062744 0.062744
0.841644 0.062744 0.062744
0.878632 0.062744 0.062744
0.915771 0.062744 0.062744
0.952942 0.062744 0.062744
0.047058 0.093719 0.062744
0.068298 0.093719 0.062744
0.089600 0.093719 0.062744
0.111023 0.093719 0.062744
0.132660 0.093719 0.062744
0.154572 0.093719 0.062744
0.176819 0.093719 0.062744
0.199432 0.093719 0.062744
0.222534 0.093719 0.062744
0.246185 0.093719 0.062744
0.270416 0.093719 0.062744
0.295319 0.093719 0.062744
0.320953 0.093719 0.062744
0.347382 0.093719 0.062744
0.374695 0.093719 0.062744
0.402924 0.093719 0.062744
0.432220 0.093719 0.062744
0.462433 0.093719 0.062744
0.493591 0.093719 0.062744
0.525635 0.093719 0.062744
0.558441 0.093719 0.062744
0.591980 0.093719 0.062744
0.626190 0.093719 0.062744
0.661011 0.093719 0.062744
0.696320 0.093719 0.062744
0.732117 0.093719 0.062744
0.768311 0.093719 0.062744
0.804871 0.093719 0.062744
0.841644 0.093719 0.062744
0.878632 0.093719 0.062744
0.915771 0.093719 0.062744
0.952942 0.093719 0.062744
0.047058 0.124664 0.062744
0.068298 0.124664 0.062744
0.089600 0.124664 0.062744
0.111023 0.124664 0.062744
0.132660 0.124664 0.062744
0.154572 0.124664 0.062744
0.176819 0.124664 0.062744
0.199432 0.124664 0.062744
0.222534 0.124664 0.062744
0.246185 0.124664 0.062744
0.270416 0.124664 0.062744
0.295319 0.124664 0.062744
0.320953 0.124664 0.062744
0.347382 0.124664 0.062744
0.374695 0.124664 0.062744
0.402924 0.124664 0.062744
0.432220 0.124664 0.062744
0.462433 0.124664 0.062744
0.493591 0.124664 0.062744
0.525635 0.124664 0.062744
0.558441 0.124664 0.062744
0.591980 0.124664 0.062744
0.626190 0.124664 0.062744
0.661011 0.124664 0.062744
0.696320 0.124664 0.062744
0.732117 0.124664 0.062744
0.768311 0.124664 0.062744
0.804871 0.124664 0.062744
0.841644 0.124664 0.062744
0.878632 0.124664 0.062744
0.915771 0.124664 0.062744
0.952942 0.124664 0.062744
0.047058 0.155579 0.062744
0.068298 0.155579 0.062744
0.089600 0.155579 0.062744
0.111023 0.155579 0.062744
0.132660 0.155579 0.062744
0.154572 0.155579 0.062744
0.176819 0.155579 0.062744
0.199432 0.155579 0.062744
0.222534 0.155579 0.062744
0.246185 0.155579 0.062744
0.270416 0.155579 0.062744
0.295319 0.155579 0.062744
0.320953 0.155579 0.062744
0.347382 0.155579 0.062744
0.374695 0.155579 0.062744
0.402924 0.155579 0.062744
0.432220 0.155579 0.062744
0.462433 0.155579 0.062744
0.493591 0.155579 0.062744
0.525635 0.155579 0.062744
0.558441 0.155579 0.062744
0.591980 0.155579 0.062744
0.626190 0.155579 0.062744
0.661011 0.155579 0.062744
0.696320 0.155579 0.062744
0.732117 0.155579 0.062744
0.768311 0.155579 0.062744
0.804871 0.155579 0.062744
0.841644 0.155579 0.062744
0.878632 0.155579 0.062744
0.915771 0.155579 0.062744
0.952942 0.155579 0.062744
0.047058 0.186432 0.062744
0.068298 0.186432 0.062744
0.089600 0.186432 0.062744
0.111023 0.186432 0.062744
0.132660 0.186432 0.062744
0.154572 0.186432 0.062744
0.176819 0.186432 0.062744
0.199432 0.186432 0.062744
0.222534 0.186432 0.062744
0.246185 0.186432 0.062744
0.270416 0.186432 0.062744
0.295319 0.186432 0.062744
0.320953 0.186432 0.062744
0.347382 0.186432 0.062744
0.374695 0.186432 0.062744
0.402924 0.186432 0.062744
0.432220 0.186432 0.062744
0.462433 0.186432 0.062744
0.493591 0.186432 0.062744
0.525635 0.186432 0.062744
0.558441 0.186432 0.062744
0.591980 0.186432 0.062744
0.626190 0.186432 0.062744
0.661011 0.186432 0.062744
0.696320 0.186432 0.062744
0.732117 0.186432 0.062744
0.768311 0.186432 0.062744
0.804871 0.186432 0.062744
0.841644 0.186432 0.062744
0.878632 0.186432 0.062744
0.915771 0.186432 0.062744
0.952942 0.186432 0.062744
0.047058 0.217224 0.062744
0.068298 0.217224 0.062744
0.089600 0.217224 0.062744
0.111023 0.217224 0.062744
0.132660 0.217224 0.062744
0.154572 0.217224 0.062744
0.176819 0.217224 0.062744
0.199432 0.217224 0.062744
0.222534 0.217224 0.062744
0.246185 0.217224 0.062744
0.270416 0.217224 0.062744
0.295319 0.217224 0.062744
0.320953 0.217224 0.062744
0.347382 0.217224 0.062744
0.374695 0.217224 0.062744
0.402924 0.217224 0.062744
0.432220 0.217224 0.062744
0.462433 0.217224 0.062744
0.493591 0.217224 0.062744
0.525635 0.217224 0.062744
0.558441 0.217224 0.062744
0.591980 0.217224 0.062744
0.626190 0.217224 0.062744
0.661011 0.217224 0.062744
0.696320 0.217224 0.062744
0.732117 0.217224 0.062744
0.768311 0.217224 0.062744
0.804871 0.217224 0.062744
0.841644 0.217224 0.062744
0.878632 0.217224 0.062744
0.915771 0.217224 0.062744
0.952942 0.217224 0.062744
0.047058 0.247894 0.062744
0.068298 0.247894 0.062744
0.089600 0.247894 0.062744
0.111023 0.247894 0.062744
0.132660 0.247894 0.062744
0.154572 0.247894 0.062744
0.176819 0.247894 0.062744
0.199432 0.247894 0.062744
0.222534 0.247894 0.062744
0.246185 0.247894 0.062744
0.270416 0.247894 0.062744
0.295319 0.247894 0.062744
0.320953 0.247894 0.062744
0.347382 0.247894 0.062744
0.374695 0.247894 0.062744
0.402924 0.247894 0.062744
0.432220 0.247894 0.062744
0.462433 0.247894 0.062744
0.493591 0.247894 0.062744
0.525635 0.247894 0.062744
0.558441 0.247894 0.062744
0.591980 0.247894 0.062744
0.626190 0.247894 0.062744
0.661011 0.247894 0.062744
0.696320 0.247894 0.062744
0.732117 0.247894 0.062744
0.768311 0.247894 0.062744
0.804871 0.247894 0.062744
0.841644 0.247894 0.062744
0.878632 0.247894 0.062744
0.915771 0.247894 0.062744
0.952942 0.247894 0.062744
0.047058 0.278473 0.062744
0.068298 0.278473 0.062744
0.089600 0.278473 0.062744
0.111023 0.278473 0.062744
0.132660 0.278473 0.062744
0.154572 0.278473 0.062744
0.176819 0.278473 0.062744
0.199432 0.278473 0.062744
0.222534 0.278473 0.062744
0.246185 0.278473 0.062744
0.270416 0.278473 0.062744
0.295319 0.278473 0.062744
0.320953 0.278473 0.062744
0.347382 0.278473 0.062744
0.374695 0.278473 0.062744
0.402924 0.278473 0.062744
0.432220 0.278473 0.062744
0.462433 0.278473 0.062744
0.493591 0.278473 0.062744
0.525635 0.278473 0.062744
0.558441 0.278473 0.062744
0.591980 0.278473 0.062744
0.626190 0.278473 0.062744
0.661011 0.278473 0.062744
0.696320 0.278473 0.062744
0.732117 0.278473 0.062744
0.768311 0.278473 0.062744
0.804871 0.278473 0.062744
0.841644 0.278473 0.062744
0.878632 0.278473 0.062744
0.915771 0.278473 0.062744
0.952942 0.278473 0.062744
0.047058 0.308929 0.062744
0.068298 0.308929 0.062744
0.089600 0.308929 0.062744
0.111023 0.308929 0.062744
0.132660 0.308929 0.062744
0.154572 0.308929 0.062744
0.176819 0.308929 0.062744
0.199432 0.308929 0.062744
0.222534 0.308929 0.062744
0.246185 0.308929 0.062744
0.270416 0.308929 0.062744
0.295319 0.308929 0.062744
0.320953 0.308929 0.062744
0.347382 0.308929 0.062744
0.374695 0.308929 0.062744
0.402924 0.308929 0.062744
0.432220 0.308929 0.062744
0.462433 0.308929 0.062744
0.493591 0.308929 0.062744
0.525635 0.308929 0.062744
0.558441 0.308929 0.062744
0.591980 0.308929 0.062744
0.626190 0.308929 0.062744
0.661011 0.308929 0.062744
0.696320 0.308929 0.062744
0.732117 0.308929 0.062744
0.768311 0.308929 0.062744
0.804871 0.308929 0.062744
0.841644 0.308929 0.062744
0.878632 0.308929 0.062744
0.915771 0.308929 0.062744
0.952942 0.308929 0.062744
0.047058 0.339233 0.062744
0.068298 0.339233 0.062744
0.089600 0.339233 0.062744
0.111023 0.339233 0.062744
0.132660 0.339233 0.062744
0.154572 0.339233 0.062744
0.176819 0.339233 0.062744
0.199432 0.339233 0.062744
0.222534 0.339233 0.062744
0.246185 0.339233 0.062744
0.270416 0.339233 0.062744
0.295319 0.339233 0.062744
0.320953 0.339233 0.062744
0.347382 0.339233 0.062744
0.374695 0.339233 0.062744
0.402924 0.339233 0.062744
0.432220 0.339233 0.062744
0.462433 0.339233 0.062744
0.493591 0.339233 0.062744
0.525635 0.339233 0.062744
0.558441 0.339233 0.062744
0.591980 0.339233 0.062744
0.626190 0.339233 0.062744
0.661011 0.339233 0.062744
0.696320 0.339233 0.062744
0.732117 0.339233 0.062744
0.768311 0.339233 0.062744
0.804871 0.339233 0.062744
0.841644 0.339233 0.062744
0.878632 0.339233 0.062744
0.915771 0.339233 0.062744
0.952942 0.339233 0.062744
0.047058 0.369354 0.062744
0.068298 0.369354 0.062744
0.089600 0.369354 0.062744
0.111023 0.369354 0.062744
0.132660 0.369354 0.062744
0.154572 0.369354 0.062744
0.176819 0.369354 0.062744
0.199432 0.369354 0.062744
0.222534 0.369354 0.062744
0.246185 0.369354 0.062744
0.270416 0.369354 0.062744
0.295319 0.369354 0.062744
0.320953 0.369354 0.062744
0.347382 0.369354 0.062744
0.374695 0.369354 0.062744
0.402924 0.369354 0.062744
0.432220 0.369354 0.062744
0.462433 0.369354 0.062744
0.493591 0.369354 0.062744
0.525635 0.369354 0.062744
0.558441 0.369354 0.062744
0.591980 0.369354 0.062744
0.626190 0.369354 0.062744
0.661011 0.369354 0.062744
0.696320 0.369354 0.062744
0.732117 0.369354 0.062744
0.768311 0.369354 0.062744
0.804871 0.369354 0.062744
0.841644 0.369354 0.062744
0.878632 0.369354 0.062744
0.915771 0.369354 0.062744
0.952942 0.369354 0.062744
0.047058 0.399292 0.062744
0.068298 0.399292 0.062744
0.089600 0.399292 0.062744
0.111023 0.399292 0.062744
0.132660 0.399292 0.062744
0.154572 0.399292 0.062744
0.176819 0.399292 0.062744
0.199432 0.399292 0.062744
0.222534 0.399292 0.062744
0.246185 0.399292 0.062744
0.270416 0.399292 0.062744
0.295319 0.399292 0.062744
0.320953 0.399292 0.062744
0.347382 0.399292 0.062744
0.374695 0.399292 0.062744
0.402924 0.399292 0.062744
0.432220 0.399292 0.062744
0.462433 0.399292 0.062744
0.493591 0.399292 0.062744
0.525635 0.399292 0.062744
0.558441 0.399292 0.062744
0.591980 0.399292 0.062744
0.626190 0.399292 0.062744
0.661011 0.399292 0.062744
0.696320 0.399292 0.062744
0.732117 0.399292 0.062744
0.768311 0.399292 0.062744
0.804871 0.399292 0.062744
0.841644 0.399292 0.062744
0.878632 0.399292 0.062744
0.915771 0.399292 0.062744
0.952942 0.399292 0.062744
0.047058 0.429016 0.062744
0.068298 0.429016 0.062744
0.089600 0.429016 0.062744
0.111023 0.429016 0.062744
0.132660 0.429016 0.062744
0.154572 0.429016 0.062744
0.176819 0.429016 0.062744
0.199432 0.429016 0.062744
0.222534 0.429016 0.062744
0.246185 0.429016 0.062744
0.270416 0.429016 0.062744
0.295319 0.429016 0.062744
0.320953 0.429016 0.062744
0.347382 0.429016 0.062744
0.374695 0.429016 0.062744
0.402924 0.429016 0.062744
0.432220 0.429016 0.062744
0.462433 0.429016 0.062744
0.493591 0.429016 0.062744
0.525635 0.429016 0.062744
0.558441 0.429016 0.062744
0.591980 0.429016 0.062744
0.626190 0.429016 0.062744
0.661011 0.429016 0.062744
0.696320 0.429016 0.062744
0.732117 0.429016 0.062744
0.768311 0.429016 0.062744
0.804871 0.429016 0.062744
0.841644 0.429016 0.062744
0.878632 0.429016 0.062744
0.915771 0.429016 0.062744
0.952942 0.429016 0.062744
0.047058 0.458496 0.062744
0.068298 0.458496 0.062744
0.089600 0.458496 0.062744
0.111023 0.458496 0.062744
0.132660 0.458496 0.062744
0.154572 0.458496 0.062744
0.176819 0.458496 0.062744
0.199432 0.458496 0.062744
0.222534 0.458496 0.062744
0.246185 0.458496 0.062744
0.270416 0.458496 0.062744
0.295319 0.458496 0.062744
0.320953 0.458496 0.062744
0.347382 0.458496 0.062744
0.374695 0.458496 0.062744
0.402924 0.458496 0.062744
0.432220 0.458496 0.062744
0.462433 0.458496 0.062744
0.493591 0.458496 0.062744
0.525635 0.458496 0.062744
0.558441 0.458496 0.062744
0.591980 0.458496 0.062744
0.626190 0.458496 0.062744
0.661011 0.458496 0.062744
0.696320 0.458496 0.062744
0.732117 0.458496 0.062744
0.768311 0.458496 0.062744
0.804871 0.458496 0.062744
0.841644 0.458496 0.062744
0.878632 0.458496 0.062744
0.915771 0.458496 0.062744
0.952942 0.458496 0.062744
0.047058 0.487762 0.062744
0.068298 0.487762 0.062744
0.089600 0.487762 0.062744
0.111023 0.487762 0.062744
0.132660 0.487762 0.062744
0.154572 0.487762 0.062744
0.176819 0.487762 0.062744
0.199432 0.487762 0.062744
0.222534 0.487762 0.062744
0.246185 0.487762 0.062744
0.270416 0.487762 0.062744
0.295319 0.487762 0.062744
0.320953 0.487762 0.062744
0.347382 0.487762 0.062744
0.374695 0.487762 0.062744
0.402924 0.487762 0.062744
0.432220 0.487762 0.062744
0.462433 0.487762 0.062744
0.493591 0.487762 0.062744
0.525635 0.487762 0.062744
0.558441 0.487762 0.062744
0.591980 0.487762 0.062744
0.626190 0.487762 0.062744
0.661011 0.487762 0.062744
0.696320 0.487762 0.062744
0.732117 0.487762 0.062744
0.768311 0.487762 0.062744
0.804871 0.487762 0.062744
0.841644 0.487762 0.062744
0.878632 0.487762 0.062744
0.915771 0.487762 0.062744
0.952942 0.487762 0.062744
0.047058 0.516754 0.062744
0.068298 0.516754 0.062744
0.089600 0.516754 0.062744
0.111023 0.516754 0.062744
0.132660 0.516754 0.062744
0.154572 0.516754 0.062744
0.176819 0.516754 0.062744
0.199432 0.516754 0.062744
0.222534 0.516754 0.062744
0.246185 0.516754 0.062744
0.270416 0.516754 0.062744
0.295319 0.516754 0.062744
0.320953 0.516754 0.062744
0.347382 0.516754 0.062744
0.374695 0.516754 0.062744
0.402924 0.516754 0.062744
0.432220 0.516754 0.062744
0.462433 0.516754 0.062744
0.493591 0.516754 0.062744
0.525635 0.516754 0.062744
0.558441 0.516754 0.062744
0.591980 0.516754 0.062744
0.626190 0.516754 0.062744
0.661011 0.516754 0.062744
0.696320 0.516754 0.062744
0.732117 0.516754 0.062744
0.768311 0.516754 0.062744
0.804871 0.516754 0.062744
0.841644 0.516754 0.062744
0.878632 0.516754 0.062744
0.915771 0.516754 0.062744
0.952942 0.516754 0.062744
0.047058 0.545502 0.062744
0.068298 0.545502 0.062744
0.089600 0.545502 0.062744
0.111023 0.545502 0.062744
0.132660 0.545502 0.062744
0.154572 0.545502 0.062744
0.176819 0.545502 0.062744
0.199432 0.545502 0.062744
0.222534 0.545502 0.062744
0.246185 0.545502 0.062744
0.270416 0.545502 0.062744
0.295319 0.545502 0.062744
0.320953 0.545502 0.062744
0.347382 0.545502 0.062744
0.374695 0.545502 0.062744
0.402924 0.545502 0.062744
0.432220 0.545502 0.062744
0.462433 0.545502 0.062744
0.493591 0.545502 0.062744
0.525635 0.545502 0.062744
0.558441 0.545502 0.062744
0.591980 0.545502 0.062744
0.626190 0.545502 0.062744
0.661011 0.545502 0.062744
0.696320 0.545502 0.062744
0.732117 0.545502 0.062744
0.768311 0.545502 0.062744
0.804871 0.545502 0.062744
0.841644 0.545502 0.062744
0.878632 0.545502 0.062744
0.915771 0.545502 0.062744
0.952942 0.545502 0.062744
0.047058 0.573914 0.062744
0.068298 0.573914 0.062744
0.089600 0.573914 0.062744
0.111023 0.573914 0.062744
0.132660 0.573914 0.062744
0.154572 0.573914 0.062744
0.176819 0.573914 0.062744
0.199432 0.573914 0.062744
0.222534 0.573914 0.062744
0.246185 0.573914 0.062744
0.270416 0.573914 0.062744
0.295319 0.573914 0.062744
0.320953 0.573914 0.062744
0.347382 0.573914 0.062744
0.374695 0.573914 0.062744
0.402924 0.573914 0.062744
0.432220 0.573914 0.062744
0.462433 0.573914 0.062744
0.493591 0.573914 0.062744
0.525635 0.573914 0.062744
0.558441 0.573914 0.062744
0.591980 0.573914 0.062744
0.626190 0.573914 0.062744
0.661011 0.573914 0.062744
0.696320 0.573914 0.062744
0.732117 0.573914 0.062744
0.768311 0.573914 0.062744
0.804871 0.573914 0.062744
0.841644 0.573914 0.062744
0.878632 0.573914 0.062744
0.915771 0.573914 0.062744
0.952942 0.573914 0.062744
0.047058 0.602112 0.062744
0.068298 0.602112 0.062744
0.089600 0.602112 0.062744
0.111023 0.602112 0.062744
0.132660 0.602112 0.062744
0.154572 0.602112 0.062744
0.176819 0.602112 0.062744
0.199432 0.602112 0.062744
0.222534 0.602112 0.062744
0.246185 0.602112 0.062744
0.270416 0.602112 0.062744
0.295319 0.602112 0.062744
0.320953 0.602112 0.062744
0.347382 0.602112 0.062744
0.374695 0.602112 0.062744
0.402924 0.602112 0.062744
0.432220 0.602112 0.062744
0.462433 0.602112 0.062744
0.493591 0.602112 0.062744
0.525635 0.602112 0.062744
0.558441 0.602112 0.062744
0.591980 0.602112 0.062744
0.626190 0.602112 0.062744
0.661011 0.602112 0.062744
0.696320 0.602112 0.062744
0.732117 0.602112 0.062744
0.768311 0.602112 0.062744
0.804871 0.602112 0.062744
0.841644 0.602112 0.062744
0.878632 0.602112 0.062744
0.915771 0.602112 0.062744
0.952942 0.602112 0.062744
0.047058 0.630035 0.062744
0.068298 0.630035 0.062744
0.089600 0.630035 0.062744
0.111023 0.630035 0.062744
0.132660 0.630035 0.062744
0.154572 0.630035 0.062744
0.176819 0.630035 0.062744
0.199432 0.630035 0.062744
0.222534 0.630035 0.062744
0.246185 0.630035 0.062744
0.270416 0.630035 0.062744
0.295319 0.630035 0.062744
0.320953 0.630035 0.062744
0.347382 0.630035 0.062744
0.374695 0.630035 0.062744
0.402924 0.630035 0.062744
0.432220 0.630035 0.062744
0.462433 0.630035 0.062744
0.493591 0.630035 0.062744
0.525635 0.630035 0.062744
0.558441 0.630035 0.062744
0.591980 0.630035 0.062744
0.626190 0.630035 0.062744
0.661011 0.630035 0.062744
0.696320 0.630035 0.062744
0.732117 0.630035 0.062744
0.768311 0.630035 0.062744
0.804871 0.630035 0.062744
0.841644 0.630035 0.062744
0.878632 0.630035 0.062744
0.915771 0.630035 0.062744
0.952942 0.630035 0.062744
0.047058 0.657715 0.062744
0.068298 0.657715 0.062744
0.089600 0.657715 0.062744
0.111023 0.657715 0.062744
0.132660 0.657715 0.062744
0.154572 0.657715 0.062744
0.176819 0.657715 0.062744
0.199432 0.657715 0.062744
0.222534 0.657715 0.062744
0.246185 0.657715 0.062744
0.270416 0.657715 0.062744
0.295319 0.657715 0.062744
0.320953 0.657715 0.062744
0.347382 0.657715 0.062744
0.374695 0.657715 0.062744
0.402924 0.657715 0.062744
0.432220 0.657715 0.062744
0.462433 0.657715 0.062744
0.493591 0.657715 0.062744
0.525635 0.657715 0.062744
0.558441 0.657715 0.062744
0.591980 0.657715 0.062744
0.626190 0.657715 0.062744
0.661011 0.657715 0.062744
0.696320 0.657715 0.062744
0.732117 0.657715 0.062744
0.768311 0.657715 0.062744
0.804871 0.657715 0.062744
0.841644 0.657715 0.062744
0.878632 0.657715 0.062744
0.915771 0.657715 0.062744
0.952942 0.657715 0.062744
0.047058 0.685211 0.062744
0.068298 0.685211 0.062744
0.089600 0.685211 0.062744
0.111023 0.685211 0.062744
0.132660 0.685211 0.062744
0.154572 0.685211 0.062744
0.176819 0.685211 0.062744
0.199432 0.685211 0.062744
0.222534 0.685211 0.062744
0.246185 0.685211 0.062744
0.270416 0.685211 0.062744
0.295319 0.685211 0.062744
0.320953 0.685211 0.062744
0.347382 0.685211 0.062744
0.374695 0.685211 0.062744
0.402924 0.685211 0.062744
0.432220 0.685211 0.062744
0.462433 0.685211 0.062744
0.493591 0.685211 0.062744
0.525635 0.685211 0.062744
0.558441 0.685211 0.062744
0.591980 0.685211 0.062744
0.626190 0.685211 0.062744
0.661011 0.685211 0.062744
0.696320 0.685211 0.062744
0.732117 0.685211 0.062744
0.768311 0.685211 0.062744
0.804871 0.685211 0.062744
0.841644 0.685211 0.062744
0.878632 0.685211 0.062744
0.915771 0.685211 0.062744
0.952942 0.685211 0.062744
0.047058 0.712494 0.062744
0.068298 0.712494 0.062744
0.089600 0.712494 0.062744
0.111023 0.712494 0.062744
0.132660 0.712494 0.062744
0.154572 0.712494 0.062744
0.176819 0.712494 0.062744
0.199432 0.712494 0.062744
0.222534 0.712494 0.062744
0.246185 0.712494 0.062744
0.270416 0.712494 0.062744
0.295319 0.712494 0.062744
0.320953 0.712494 0.062744
0.347382 0.712494 0.062744
0.374695 0.712494 0.062744
0.402924 0.712494 0.062744
0.432220 0.712494 0.062744
0.462433 0.712494 0.062744
0.493591 0.712494 0.062744
0.525635 0.712494 0.062744
0.558441 0.712494 0.062744
0.591980 0.712494 0.062744
0.626190 0.712494 0.062744
0.661011 0.712494 0.062744
0.696320 0.712494 0.062744
0.732117 0.712494 0.062744
0.768311 0.712494 0.062744
0.804871 0.712494 0.062744
0.841644 0.712494 0.062744
0.878632 0.712494 0.062744
0.915771 0.712494 0.062744
0.952942 0.712494 0.062744
0.047058 0.739655 0.062744
0.068298 0.739655 0.062744
0.089600 0.739655 0.062744
0.111023 0.739655 0.062744
0.132660 0.739655 0.062744
0.154572 0.739655 0.062744
0.176819 0.739655 0.062744
0.199432 0.739655 0.062744
0.222534 0.739655 0.062744
0.246185 0.739655 0.062744
0.270416 0.739655 0.062744
0.295319 0.739655 0.062744
0.320953 0.739655 0.062744
0.347382 0.739655 0.062744
0.374695 0.739655 0.062744
0.402924 0.739655 0.062744
0.432220 0.739655 0.062744
0.462433 0.739655 0.062744
0.493591 0.739655 0.062744
0.525635 0.739655 0.062744
0.558441 0.739655 0.062744
0.591980 0.739655 0.062744
0.626190 0.739655 0.062744
0.661011 0.739655 0.062744
0.696320 0.739655 0.062744
0.732117 0.739655 0.062744
0.768311 0.739655 0.062744
0.804871 0.739655 0.062744
0.841644 0.739655 0.062744
0.878632 0.739655 0.062744
0.915771 0.739655 0.062744
0.952942 0.739655 0.062744
0.047058 0.766632 0.062744
0.068298 0.766632 0.062744
0.089600 0.766632 0.062744
0.111023 0.766632 0.062744
0.132660 0.766632 0.062744
0.154572 0.766632 0.062744
0.176819 0.766632 0.062744
0.199432 0.766632 0.062744
0.222534 0.766632 0.062744
0.246185 0.766632 0.062744
0.270416 0.766632 0.062744
0.295319 0.766632 0.062744
0.320953 0.766632 0.062744
0.347382 0.766632 0.062744
0.374695 0.766632 0.062744
0.402924 0.766632 0.062744
0.432220 0.766632 0.062744
0.462433 0.766632 0.062744
0.493591 0.766632 0.062744
0.525635 0.766632 0.062744
0.558441 0.766632 0.062744
0.591980 0.766632 0.062744
0.626190 0.766632 0.062744
0.661011 0.766632 0.062744
0.696320 0.766632 0.062744
0.732117 0.766632 0.062744
0.768311 0.766632 0.062744
0.804871 0.766632 0.062744
0.841644 0.766632 0.062744
0.878632 0.766632 0.062744
0.915771 0.766632 0.062744
0.952942 0.766632 0.062744
0.047058 0.793518 0.062744
0.068298 0.793518 0.062744
0.089600 0.793518 0.062744
0.111023 0.793518 0.062744
0.132660 0.793518 0.062744
0.154572 0.793518 0.062744
0.176819 0.793518 0.062744
0.199432 0.793518 0.062744
0.222534 0.793518 0.062744
0.246185 0.793518 0.062744
0.270416 0.793518 0.062744
0.295319 0.793518 0.062744
0.320953 0.793518 0.062744
0.347382 0.793518 0.062744
0.374695 0.793518 0.062744
0.402924 0.793518 0.062744
0.432220 0.793518 0.062744
0.462433 0.793518 0.062744
0.493591 0.793518 0.062744
0.525635 0.793518 0.062744
0.558441 0.793518 0.062744
0.591980 0.793518 0.062744
0.626190 0.793518 0.062744
0.661011 0.793518 0.062744
0.696320 0.793518 0.062744
0.732117 0.793518 0.062744
0.768311 0.793518 0.062744
0.804871 0.793518 0.062744
0.841644 0.793518 0.062744
0.878632 0.793518 0.062744
0.915771 0.793518 0.062744
0.952942 0.793518 0.062744
0.047058 0.820251 0.062744
0.068298 0.820251 0.062744
0.089600 0.820251 0.062744
0.111023 0.820251 0.062744
0.132660 0.820251 0.062744
0.154572 0.820251 0.062744
0.176819 0.820251 0.062744
0.199432 0.820251 0.062744
0.222534 0.820251 0.062744
0.246185 0.820251 0.062744
0.270416 0.820251 0.062744
0.295319 0.820251 0.062744
0.320953 0.820251 0.062744
0.347382 0.820251 0.062744
0.374695 0.820251 0.062744
0.402924 0.820251 0.062744
0.432220 0.820251 0.062744
0.462433 0.820251 0.062744
0.493591 0.820251 0.062744
0.525635 0.820251 0.062744
0.558441 0.820251 0.062744
0.591980 0.820251 0.062744
0.626190 0.820251 0.062744
0.661011 0.820251 0.062744
0.696320 0.820251 0.062744
0.732117 0.820251 0.062744
0.768311 0.820251 0.062744
0.804871 0.820251 0.062744
0.841644 0.820251 0.062744
0.878632 0.820251 0.062744
0.915771 0.820251 0.062744
0.952942 0.820251 0.062744
0.047058 0.846893 0.062744
0.068298 0.846893 0.062744
0.089600 0.846893 0.062744
0.111023 0.846893 0.062744
0.132660 0.846893 0.062744
0.154572 0.846893 0.062744
0.176819 0.846893 0.062744
0.199432 0.846893 0.062744
0.222534 0.846893 0.062744
0.246185 0.846893 0.062744
0.270416 0.846893 0.062744
0.295319 0.846893 0.062744
0.320953 0.846893 0.062744
0.347382 0.846893 0.062744
