Scenic Moods/Striped Purple - Philly Fog.cube
#Created by: Adobe Photoshop Export Color Lookup Plugin
#Copyright: (C) Copyright 2019 © 2019 Austin Barrett - Striped Purple
TITLE "Striped Purple - Philly Fog"
#LUT size
LUT_3D_SIZE 6
#data domain
DOMAIN_MIN 0.0 0.0 0.0
DOMAIN_MAX 1.0 1.0 1.0
#LUT data points
0.097809 0.114349 0.129425
0.152191 0.122131 0.126678
0.347534 0.158661 0.128174
0.561981 0.212952 0.148895
0.745056 0.262970 0.174164
0.785065 0.275116 0.179718
0.121246 0.174438 0.159973
0.183411 0.169312 0.143402
0.413605 0.222229 0.140961
0.647247 0.273376 0.163666
0.787476 0.309875 0.183807
0.789032 0.311127 0.183472
0.216644 0.375732 0.245453
0.261688 0.413818 0.233215
0.452209 0.346375 0.195709
0.717194 0.436859 0.212585
0.798462 0.458923 0.218384
0.798645 0.459808 0.219208
0.391418 0.642731 0.377747
0.416321 0.680847 0.348419
0.480835 0.585297 0.306580
0.705231 0.563263 0.298676
0.798492 0.622559 0.326141
0.798279 0.617310 0.321930
0.510742 0.824921 0.503326
0.523285 0.844208 0.461945
0.537415 0.853851 0.415344
0.685455 0.707733 0.368744
0.809357 0.710052 0.387451
0.819519 0.720093 0.392517
0.550659 0.885956 0.612549
0.554840 0.892303 0.563446
0.559601 0.899536 0.498871
0.650574 0.831879 0.438904
0.793365 0.759644 0.401855
0.833649 0.758942 0.408051
0.102966 0.120483 0.160004
0.159088 0.118896 0.185364
0.356781 0.126312 0.150757
0.611572 0.202942 0.175171
0.777527 0.256317 0.202332
0.787689 0.265991 0.205627
0.118408 0.157349 0.166229
0.163177 0.178833 0.193054
0.393280 0.207214 0.174042
0.677795 0.267151 0.176849
0.788116 0.294891 0.190094
0.791138 0.308502 0.204834
0.181488 0.316772 0.251068
0.226440 0.377136 0.316467
0.434540 0.354401 0.234558
0.710388 0.428711 0.220459
0.803864 0.447693 0.220795
0.805145 0.456238 0.229523
0.365356 0.602875 0.429504
0.394775 0.647827 0.457031
0.465271 0.667084 0.381256
0.692108 0.567352 0.318817
0.799255 0.620300 0.323395
0.802795 0.620911 0.331116
0.499878 0.808350 0.605682
0.513336 0.828949 0.584991
0.538422 0.860016 0.472504
0.670197 0.725800 0.426086
0.801941 0.714417 0.396973
0.820282 0.726898 0.408813
0.543549 0.875061 0.738434
0.547974 0.881805 0.692932
0.551300 0.886871 0.642181
0.651276 0.886993 0.537506
0.786896 0.770569 0.441986
0.828735 0.764099 0.426239
0.109436 0.129822 0.264709
0.150208 0.124115 0.310486
0.352203 0.143372 0.365417
0.616455 0.165710 0.294586
0.771271 0.186005 0.269775
0.789001 0.189270 0.267181
0.125916 0.218475 0.287628
0.186279 0.227570 0.334106
0.361481 0.191925 0.379791
0.657928 0.193024 0.267914
0.791168 0.212097 0.231720
0.794403 0.228699 0.257996
0.169464 0.299591 0.286835
0.246704 0.342682 0.339813
0.364136 0.385010 0.393829
0.670074 0.394897 0.320465
0.814941 0.417053 0.298126
0.823181 0.452667 0.324188
0.305573 0.511597 0.390533
0.349457 0.570343 0.466827
0.417572 0.648621 0.558319
0.677032 0.589722 0.418701
0.813904 0.630310 0.391693
0.833527 0.643829 0.407166
0.463348 0.752533 0.566376
0.489532 0.792603 0.643768
0.515198 0.831757 0.690796
0.670532 0.818176 0.554871
0.810211 0.741882 0.492249
0.835663 0.758331 0.515472
0.539093 0.868286 0.715820
0.541626 0.872101 0.777466
0.544556 0.876617 0.773224
0.678040 0.888550 0.699951
0.793945 0.805725 0.569977
0.847290 0.799255 0.551849
0.119263 0.148407 0.452057
0.158356 0.136261 0.502563
0.291901 0.141663 0.553986
0.617432 0.194794 0.592438
0.812561 0.232056 0.592102
0.846497 0.238800 0.605255
0.157166 0.284912 0.474915
0.213348 0.291595 0.525848
0.302246 0.254913 0.547974
0.632141 0.230591 0.605835
0.823395 0.250122 0.557312
0.840790 0.257141 0.545380
0.249695 0.426147 0.477875
0.279633 0.457916 0.531555
0.390350 0.471130 0.586334
0.642517 0.383423 0.611359
0.823303 0.370941 0.544281
0.853180 0.398560 0.551727
0.302612 0.507050 0.465546
0.354736 0.555054 0.525452
0.480652 0.605774 0.588562
0.642273 0.629913 0.618042
0.832001 0.634918 0.575378
0.871185 0.662079 0.588135
0.429047 0.700165 0.557404
0.485565 0.741608 0.620392
0.587250 0.782440 0.695709
0.664520 0.830475 0.769653
0.832153 0.788391 0.662018
0.866913 0.804382 0.674988
0.530670 0.855408 0.698120
0.537415 0.865723 0.758423
0.579315 0.871643 0.810577
0.721832 0.881409 0.828613
0.824188 0.877838 0.750580
0.876831 0.845703 0.717468
0.135040 0.185394 0.662537
0.171387 0.161072 0.695465
0.285889 0.155060 0.724274
0.445404 0.174011 0.762146
0.811096 0.238403 0.777710
0.855408 0.250183 0.786743
0.202728 0.354462 0.666718
0.249481 0.363190 0.703552
0.323486 0.313324 0.717224
0.484772 0.286957 0.747009
0.817627 0.268066 0.779083
0.858521 0.280945 0.771179
0.318390 0.531128 0.664703
0.329315 0.547882 0.710815
0.433319 0.554260 0.752625
0.542816 0.527100 0.768616
0.827942 0.403320 0.788269
0.878937 0.430969 0.782318
0.399811 0.655487 0.674133
0.421570 0.688751 0.716858
0.530182 0.721710 0.761353
0.653168 0.727020 0.792480
0.839508 0.631805 0.799072
0.889771 0.652069 0.797302
0.432617 0.705566 0.645935
0.473816 0.744568 0.698761
0.605347 0.782623 0.750153
0.735565 0.814636 0.793579
0.848969 0.828857 0.810760
0.897675 0.835907 0.809906
0.520844 0.840363 0.710571
0.578613 0.855988 0.755371
0.686523 0.869415 0.806427
0.781464 0.879639 0.846008
0.866913 0.887939 0.861603
0.899780 0.880188 0.840210
0.157654 0.235535 0.792694
0.188660 0.185883 0.805817
0.301208 0.182922 0.812164
0.488525 0.186737 0.820526
0.801514 0.236359 0.835266
0.855377 0.249146 0.837341
0.254272 0.433167 0.800049
0.292755 0.444275 0.811951
0.358856 0.380371 0.814026
0.502167 0.344513 0.819794
0.778320 0.281311 0.831848
0.858490 0.280304 0.837402
0.382568 0.629150 0.805878
0.385284 0.633362 0.823212
0.482574 0.639191 0.835175
0.582062 0.571350 0.834656
0.796936 0.454498 0.839661
0.876007 0.431396 0.842804
0.466156 0.756805 0.810516
0.479034 0.776489 0.830414
0.561829 0.793274 0.845673
0.684845 0.792908 0.855591
0.819794 0.699127 0.853851
0.888000 0.655701 0.854584
0.508759 0.821869 0.814240
0.541504 0.839905 0.834900
0.665710 0.855621 0.850769
0.775360 0.865936 0.861786
0.863525 0.866089 0.869476
0.901794 0.836487 0.868134
0.518250 0.836426 0.781738
0.570740 0.852661 0.815186
0.710388 0.866608 0.840881
0.823761 0.878052 0.858521
0.886993 0.885559 0.868805
0.906464 0.889740 0.874512
