Scenic Moods/Striped Purple - Teal Supreme.cube
#Created by: Adobe Photoshop Export Color Lookup Plugin
#Copyright: (C) Copyright 2018 Striped Purple - Austin Barrett
TITLE "Striped Purple - Teal Supreme"
#LUT size
LUT_3D_SIZE 5
#data domain
#LUT data points
DOMAIN_MIN 0.000000 0.000000 0.000000
DOMAIN_MAX 0.903226 0.903226 0.903226
0.000000 0.000000 0.000000
0.225800 0.000000 0.000000
0.451599 0.000000 0.000000
0.677429 0.000000 0.000000
0.903229 0.000000 0.000000
0.038635 0.092377 0.038635
0.150391 0.150391 0.075409
0.376617 0.225800 0.074951
0.640381 0.238098 0.037048
0.903229 0.225800 0.000000
0.077271 0.184723 0.077271
0.179169 0.245636 0.112671
0.300751 0.300751 0.150818
0.489532 0.389008 0.187866
0.753265 0.451599 0.149933
0.115906 0.277100 0.115906
0.191864 0.309418 0.133087
0.352386 0.424805 0.207458
0.451172 0.451172 0.226257
0.603333 0.527466 0.299896
0.154541 0.369446 0.154541
0.209442 0.371521 0.155396
0.358276 0.491241 0.225311
0.526581 0.601562 0.301666
0.601562 0.601562 0.301666
0.000000 0.000000 0.225800
0.225800 0.000000 0.225800
0.451599 0.000000 0.225800
0.677429 0.000000 0.225769
0.903229 0.000000 0.225800
0.166504 0.217316 0.217316
0.225800 0.225800 0.225800
0.451599 0.225800 0.225800
0.677429 0.225800 0.225800
0.903229 0.225800 0.225800
0.139648 0.367218 0.253448
0.264435 0.318176 0.264435
0.376190 0.376190 0.301208
0.602448 0.451630 0.300781
0.866180 0.463898 0.262848
0.136780 0.370728 0.214752
0.303070 0.410553 0.303070
0.404968 0.471436 0.338470
0.526581 0.526581 0.376617
0.715332 0.614807 0.413666
0.154541 0.369446 0.208282
0.341705 0.502899 0.341705
0.417664 0.535217 0.358887
0.578186 0.650604 0.433258
0.676971 0.676971 0.452057
0.000000 0.000000 0.451599
0.225800 0.000000 0.451599
0.451599 0.000000 0.451599
0.677429 0.000000 0.451660
0.903229 0.000000 0.451630
0.182678 0.307892 0.433075
0.225800 0.225800 0.451599
0.451599 0.225800 0.451599
0.677429 0.225800 0.451630
0.903229 0.225800 0.451569
0.333038 0.434662 0.434662
0.392303 0.443115 0.443115
0.451599 0.451599 0.451599
0.677429 0.451599 0.451599
0.903229 0.451599 0.451599
0.389404 0.624084 0.545868
0.365479 0.593048 0.479279
0.490234 0.543976 0.490234
0.601990 0.601990 0.527008
0.828247 0.677429 0.526581
0.279327 0.734467 0.506897
0.362579 0.596527 0.440552
0.528870 0.636353 0.528870
0.630768 0.697235 0.564270
0.752380 0.752380 0.602417
0.000000 0.000000 0.677429
0.225769 0.000000 0.677429
0.451660 0.000000 0.677429
0.677429 0.000000 0.677429
0.903229 0.000000 0.677429
0.103149 0.289948 0.663635
0.225800 0.225800 0.677429
0.451630 0.225800 0.677429
0.677429 0.225800 0.677429
0.903229 0.225800 0.677460
0.432587 0.576172 0.647949
0.408508 0.533722 0.658905
0.451599 0.451599 0.677429
0.677429 0.451599 0.677429
0.903229 0.451599 0.677429
0.499573 0.652008 0.652008
0.558868 0.660492 0.660492
0.618134 0.668945 0.668945
0.677429 0.677429 0.677429
0.903229 0.677429 0.677429
0.652740 0.866791 0.813293
0.615204 0.849884 0.771667
0.591278 0.818848 0.705078
0.716064 0.769806 0.716064
0.827820 0.827820 0.752838
0.000000 0.000000 0.903229
0.225800 0.000000 0.903229
0.451630 0.000000 0.903229
0.677429 0.000000 0.903229
0.903229 0.000000 0.903229
0.016418 0.237701 0.901489
0.225800 0.225800 0.903229
0.451569 0.225800 0.903229
0.677460 0.225800 0.903229
0.903229 0.225800 0.903229
0.365387 0.615784 0.866180
0.328949 0.515747 0.889435
0.451599 0.451599 0.903229
0.677429 0.451599 0.903229
0.903229 0.451599 0.903229
0.666077 0.818542 0.869354
0.658386 0.801971 0.873749
0.634308 0.759521 0.884705
0.677429 0.677429 0.903229
0.903229 0.677429 0.903229
0.666077 0.869354 0.869354
0.725372 0.877808 0.877808
0.784668 0.886292 0.886292
0.843933 0.894745 0.894745
0.903229 0.903229 0.903229
