Scenic Moods/Striped Purple - Irish Uprising.cube
#Created by: Adobe Photoshop Export Color Lookup Plugin
#Copyright: (C) Copyright 2019 Irish Uprising by Striped Purple - © Austin Barrett All Rights Reserved.
TITLE "Striped Purple - Irish Uprising"
#LUT size
LUT_3D_SIZE 8
#data domain
#LUT data points
DOMAIN_MIN 0.000000 0.000000 0.000000
DOMAIN_MAX 0.903226 0.903226 0.903226
0.015686 0.058838 0.066681
0.167542 0.058838 0.066681
0.315247 0.058838 0.066681
0.454651 0.058838 0.066681
0.581604 0.058838 0.066681
0.693939 0.058838 0.066681
0.794952 0.058838 0.066681
0.888763 0.058838 0.066681
0.015686 0.185028 0.066681
0.167542 0.185028 0.066681
0.315247 0.185028 0.066681
0.454651 0.185028 0.066681
0.581604 0.185028 0.066681
0.693939 0.185028 0.066681
0.794952 0.185028 0.066681
0.888763 0.185028 0.066681
0.015686 0.309814 0.066681
0.167542 0.309814 0.066681
0.315247 0.309814 0.066681
0.454651 0.309814 0.066681
0.581604 0.309814 0.066681
0.693939 0.309814 0.066681
0.794952 0.309814 0.066681
0.888763 0.309814 0.066681
0.015686 0.431793 0.066681
0.167542 0.431793 0.066681
0.315247 0.431793 0.066681
0.454651 0.431793 0.066681
0.581604 0.431793 0.066681
0.693939 0.431793 0.066681
0.794952 0.431793 0.066681
0.888763 0.431793 0.066681
0.015686 0.549530 0.066681
0.167542 0.549530 0.066681
0.315247 0.549530 0.066681
0.454651 0.549530 0.066681
0.581604 0.549530 0.066681
0.693939 0.549530 0.066681
0.794952 0.549530 0.066681
0.888763 0.549530 0.066681
0.015686 0.662292 0.066681
0.167542 0.662292 0.066681
0.315247 0.662292 0.066681
0.454651 0.662292 0.066681
0.581604 0.662292 0.066681
0.693939 0.662292 0.066681
0.794952 0.662292 0.066681
0.888763 0.662292 0.066681
0.015686 0.771271 0.066681
0.167542 0.771271 0.066681
0.315247 0.771271 0.066681
0.454651 0.771271 0.066681
0.581604 0.771271 0.066681
0.693939 0.771271 0.066681
0.794952 0.771271 0.066681
0.888763 0.771271 0.066681
0.015686 0.877747 0.066681
0.167542 0.877747 0.066681
0.315247 0.877747 0.066681
0.454651 0.877747 0.066681
0.581604 0.877747 0.066681
0.693939 0.877747 0.066681
0.794952 0.877747 0.066681
0.888763 0.877747 0.066681
0.015686 0.058838 0.142365
0.167542 0.058838 0.142365
0.315247 0.058838 0.142365
0.454651 0.058838 0.142365
0.581604 0.058838 0.142365
0.693939 0.058838 0.142365
0.794952 0.058838 0.142365
0.888763 0.058838 0.142365
0.015686 0.185028 0.142365
0.167542 0.185028 0.142365
0.315247 0.185028 0.142365
0.454651 0.185028 0.142365
0.581604 0.185028 0.142365
0.693939 0.185028 0.142365
0.794952 0.185028 0.142365
0.888763 0.185028 0.142365
0.015686 0.309814 0.142365
0.167542 0.309814 0.142365
0.315247 0.309814 0.142365
0.454651 0.309814 0.142365
0.581604 0.309814 0.142365
0.693939 0.309814 0.142365
0.794952 0.309814 0.142365
0.888763 0.309814 0.142365
0.015686 0.431793 0.142365
0.167542 0.431793 0.142365
0.315247 0.431793 0.142365
0.454651 0.431793 0.142365
0.581604 0.431793 0.142365
0.693939 0.431793 0.142365
0.794952 0.431793 0.142365
0.888763 0.431793 0.142365
0.015686 0.549530 0.142365
0.167542 0.549530 0.142365
0.315247 0.549530 0.142365
0.454651 0.549530 0.142365
0.581604 0.549530 0.142365
0.693939 0.549530 0.142365
0.794952 0.549530 0.142365
0.888763 0.549530 0.142365
0.015686 0.662292 0.142365
0.167542 0.662292 0.142365
0.315247 0.662292 0.142365
0.454651 0.662292 0.142365
0.581604 0.662292 0.142365
0.693939 0.662292 0.142365
0.794952 0.662292 0.142365
0.888763 0.662292 0.142365
0.015686 0.771271 0.142365
0.167542 0.771271 0.142365
0.315247 0.771271 0.142365
0.454651 0.771271 0.142365
0.581604 0.771271 0.142365
0.693939 0.771271 0.142365
0.794952 0.771271 0.142365
0.888763 0.771271 0.142365
0.015686 0.877747 0.142365
0.167542 0.877747 0.142365
0.315247 0.877747 0.142365
0.454651 0.877747 0.142365
0.581604 0.877747 0.142365
0.693939 0.877747 0.142365
0.794952 0.877747 0.142365
0.888763 0.877747 0.142365
0.015686 0.058838 0.223511
0.167542 0.058838 0.223511
0.315247 0.058838 0.223511
0.454651 0.058838 0.223511
0.581604 0.058838 0.223511
0.693939 0.058838 0.223511
0.794952 0.058838 0.223511
0.888763 0.058838 0.223511
0.015686 0.185028 0.223511
0.167542 0.185028 0.223511
0.315247 0.185028 0.223511
0.454651 0.185028 0.223511
0.581604 0.185028 0.223511
0.693939 0.185028 0.223511
0.794952 0.185028 0.223511
0.888763 0.185028 0.223511
0.015686 0.309814 0.223511
0.167542 0.309814 0.223511
0.315247 0.309814 0.223511
0.454651 0.309814 0.223511
0.581604 0.309814 0.223511
0.693939 0.309814 0.223511
0.794952 0.309814 0.223511
0.888763 0.309814 0.223511
0.015686 0.431793 0.223511
0.167542 0.431793 0.223511
0.315247 0.431793 0.223511
0.454651 0.431793 0.223511
0.581604 0.431793 0.223511
0.693939 0.431793 0.223511
0.794952 0.431793 0.223511
0.888763 0.431793 0.223511
0.015686 0.549530 0.223511
0.167542 0.549530 0.223511
0.315247 0.549530 0.223511
0.454651 0.549530 0.223511
0.581604 0.549530 0.223511
0.693939 0.549530 0.223511
0.794952 0.549530 0.223511
0.888763 0.549530 0.223511
0.015686 0.662292 0.223511
0.167542 0.662292 0.223511
0.315247 0.662292 0.223511
0.454651 0.662292 0.223511
0.581604 0.662292 0.223511
0.693939 0.662292 0.223511
0.794952 0.662292 0.223511
0.888763 0.662292 0.223511
0.015686 0.771271 0.223511
0.167542 0.771271 0.223511
0.315247 0.771271 0.223511
0.454651 0.771271 0.223511
0.581604 0.771271 0.223511
0.693939 0.771271 0.223511
0.794952 0.771271 0.223511
0.888763 0.771271 0.223511
0.015686 0.877747 0.223511
0.167542 0.877747 0.223511
0.315247 0.877747 0.223511
0.454651 0.877747 0.223511
0.581604 0.877747 0.223511
0.693939 0.877747 0.223511
0.794952 0.877747 0.223511
0.888763 0.877747 0.223511
0.015686 0.058838 0.315643
0.167542 0.058838 0.315643
0.315247 0.058838 0.315643
0.454651 0.058838 0.315643
0.581604 0.058838 0.315643
0.693939 0.058838 0.315643
0.794952 0.058838 0.315643
0.888763 0.058838 0.315643
0.015686 0.185028 0.315643
0.167542 0.185028 0.315643
0.315247 0.185028 0.315643
0.454651 0.185028 0.315643
0.581604 0.185028 0.315643
0.693939 0.185028 0.315643
0.794952 0.185028 0.315643
0.888763 0.185028 0.315643
0.015686 0.309814 0.315643
0.167542 0.309814 0.315643
0.315247 0.309814 0.315643
0.454651 0.309814 0.315643
0.581604 0.309814 0.315643
0.693939 0.309814 0.315643
0.794952 0.309814 0.315643
0.888763 0.309814 0.315643
0.015686 0.431793 0.315643
0.167542 0.431793 0.315643
0.315247 0.431793 0.315643
0.454651 0.431793 0.315643
0.581604 0.431793 0.315643
0.693939 0.431793 0.315643
0.794952 0.431793 0.315643
0.888763 0.431793 0.315643
0.015686 0.549530 0.315643
0.167542 0.549530 0.315643
0.315247 0.549530 0.315643
0.454651 0.549530 0.315643
0.581604 0.549530 0.315643
0.693939 0.549530 0.315643
0.794952 0.549530 0.315643
0.888763 0.549530 0.315643
0.015686 0.662292 0.315643
0.167542 0.662292 0.315643
0.315247 0.662292 0.315643
0.454651 0.662292 0.315643
0.581604 0.662292 0.315643
0.693939 0.662292 0.315643
0.794952 0.662292 0.315643
0.888763 0.662292 0.315643
0.015686 0.771271 0.315643
0.167542 0.771271 0.315643
0.315247 0.771271 0.315643
0.454651 0.771271 0.315643
0.581604 0.771271 0.315643
0.693939 0.771271 0.315643
0.794952 0.771271 0.315643
0.888763 0.771271 0.315643
0.015686 0.877747 0.315643
0.167542 0.877747 0.315643
0.315247 0.877747 0.315643
0.454651 0.877747 0.315643
0.581604 0.877747 0.315643
0.693939 0.877747 0.315643
0.794952 0.877747 0.315643
0.888763 0.877747 0.315643
0.015686 0.058838 0.424255
0.167542 0.058838 0.424255
0.315247 0.058838 0.424255
0.454651 0.058838 0.424255
0.581604 0.058838 0.424255
0.693939 0.058838 0.424255
0.794952 0.058838 0.424255
0.888763 0.058838 0.424255
0.015686 0.185028 0.424255
0.167542 0.185028 0.424255
0.315247 0.185028 0.424255
0.454651 0.185028 0.424255
0.581604 0.185028 0.424255
0.693939 0.185028 0.424255
0.794952 0.185028 0.424255
0.888763 0.185028 0.424255
0.015686 0.309814 0.424255
0.167542 0.309814 0.424255
0.315247 0.309814 0.424255
0.454651 0.309814 0.424255
0.581604 0.309814 0.424255
0.693939 0.309814 0.424255
0.794952 0.309814 0.424255
0.888763 0.309814 0.424255
0.015686 0.431793 0.424255
0.167542 0.431793 0.424255
0.315247 0.431793 0.424255
0.454651 0.431793 0.424255
0.581604 0.431793 0.424255
0.693939 0.431793 0.424255
0.794952 0.431793 0.424255
0.888763 0.431793 0.424255
0.015686 0.549530 0.424255
0.167542 0.549530 0.424255
0.315247 0.549530 0.424255
0.454651 0.549530 0.424255
0.581604 0.549530 0.424255
0.693939 0.549530 0.424255
0.794952 0.549530 0.424255
0.888763 0.549530 0.424255
0.015686 0.662292 0.424255
0.167542 0.662292 0.424255
0.315247 0.662292 0.424255
0.454651 0.662292 0.424255
0.581604 0.662292 0.424255
0.693939 0.662292 0.424255
0.794952 0.662292 0.424255
0.888763 0.662292 0.424255
0.015686 0.771271 0.424255
0.167542 0.771271 0.424255
0.315247 0.771271 0.424255
0.454651 0.771271 0.424255
0.581604 0.771271 0.424255
0.693939 0.771271 0.424255
0.794952 0.771271 0.424255
0.888763 0.771271 0.424255
0.015686 0.877747 0.424255
0.167542 0.877747 0.424255
0.315247 0.877747 0.424255
0.454651 0.877747 0.424255
0.581604 0.877747 0.424255
0.693939 0.877747 0.424255
0.794952 0.877747 0.424255
0.888763 0.877747 0.424255
0.015686 0.058838 0.552155
0.167542 0.058838 0.552155
0.315247 0.058838 0.552155
0.454651 0.058838 0.552155
0.581604 0.058838 0.552155
0.693939 0.058838 0.552155
0.794952 0.058838 0.552155
0.888763 0.058838 0.552155
0.015686 0.185028 0.552155
0.167542 0.185028 0.552155
0.315247 0.185028 0.552155
0.454651 0.185028 0.552155
0.581604 0.185028 0.552155
0.693939 0.185028 0.552155
0.794952 0.185028 0.552155
0.888763 0.185028 0.552155
0.015686 0.309814 0.552155
0.167542 0.309814 0.552155
0.315247 0.309814 0.552155
0.454651 0.309814 0.552155
0.581604 0.309814 0.552155
0.693939 0.309814 0.552155
0.794952 0.309814 0.552155
0.888763 0.309814 0.552155
0.015686 0.431793 0.552155
0.167542 0.431793 0.552155
0.315247 0.431793 0.552155
0.454651 0.431793 0.552155
0.581604 0.431793 0.552155
0.693939 0.431793 0.552155
0.794952 0.431793 0.552155
0.888763 0.431793 0.552155
0.015686 0.549530 0.552155
0.167542 0.549530 0.552155
0.315247 0.549530 0.552155
0.454651 0.549530 0.552155
0.581604 0.549530 0.552155
0.693939 0.549530 0.552155
0.794952 0.549530 0.552155
0.888763 0.549530 0.552155
0.015686 0.662292 0.552155
0.167542 0.662292 0.552155
0.315247 0.662292 0.552155
0.454651 0.662292 0.552155
0.581604 0.662292 0.552155
0.693939 0.662292 0.552155
0.794952 0.662292 0.552155
0.888763 0.662292 0.552155
0.015686 0.771271 0.552155
0.167542 0.771271 0.552155
0.315247 0.771271 0.552155
0.454651 0.771271 0.552155
0.581604 0.771271 0.552155
0.693939 0.771271 0.552155
0.794952 0.771271 0.552155
0.888763 0.771271 0.552155
0.015686 0.877747 0.552155
0.167542 0.877747 0.552155
0.315247 0.877747 0.552155
0.454651 0.877747 0.552155
0.581604 0.877747 0.552155
0.693939 0.877747 0.552155
0.794952 0.877747 0.552155
0.888763 0.877747 0.552155
0.015686 0.058838 0.695007
0.167542 0.058838 0.695007
0.315247 0.058838 0.695007
0.454651 0.058838 0.695007
0.581604 0.058838 0.695007
0.693939 0.058838 0.695007
0.794952 0.058838 0.695007
0.888763 0.058838 0.695007
0.015686 0.185028 0.695007
0.167542 0.185028 0.695007
0.315247 0.185028 0.695007
0.454651 0.185028 0.695007
0.581604 0.185028 0.695007
0.693939 0.185028 0.695007
0.794952 0.185028 0.695007
0.888763 0.185028 0.695007
0.015686 0.309814 0.695007
0.167542 0.309814 0.695007
0.315247 0.309814 0.695007
0.454651 0.309814 0.695007
0.581604 0.309814 0.695007
0.693939 0.309814 0.695007
0.794952 0.309814 0.695007
0.888763 0.309814 0.695007
0.015686 0.431793 0.695007
0.167542 0.431793 0.695007
0.315247 0.431793 0.695007
0.454651 0.431793 0.695007
0.581604 0.431793 0.695007
0.693939 0.431793 0.695007
0.794952 0.431793 0.695007
0.888763 0.431793 0.695007
0.015686 0.549530 0.695007
0.167542 0.549530 0.695007
0.315247 0.549530 0.695007
0.454651 0.549530 0.695007
0.581604 0.549530 0.695007
0.693939 0.549530 0.695007
0.794952 0.549530 0.695007
0.888763 0.549530 0.695007
0.015686 0.662292 0.695007
0.167542 0.662292 0.695007
0.315247 0.662292 0.695007
0.454651 0.662292 0.695007
0.581604 0.662292 0.695007
0.693939 0.662292 0.695007
0.794952 0.662292 0.695007
0.888763 0.662292 0.695007
0.015686 0.771271 0.695007
0.167542 0.771271 0.695007
0.315247 0.771271 0.695007
0.454651 0.771271 0.695007
0.581604 0.771271 0.695007
0.693939 0.771271 0.695007
0.794952 0.771271 0.695007
0.888763 0.771271 0.695007
0.015686 0.877747 0.695007
0.167542 0.877747 0.695007
0.315247 0.877747 0.695007
0.454651 0.877747 0.695007
0.581604 0.877747 0.695007
0.693939 0.877747 0.695007
0.794952 0.877747 0.695007
0.888763 0.877747 0.695007
0.015686 0.058838 0.847412
0.167542 0.058838 0.847412
0.315247 0.058838 0.847412
0.454651 0.058838 0.847412
0.581604 0.058838 0.847412
0.693939 0.058838 0.847412
0.794952 0.058838 0.847412
0.888763 0.058838 0.847412
0.015686 0.185028 0.847412
0.167542 0.185028 0.847412
0.315247 0.185028 0.847412
0.454651 0.185028 0.847412
0.581604 0.185028 0.847412
0.693939 0.185028 0.847412
0.794952 0.185028 0.847412
0.888763 0.185028 0.847412
0.015686 0.309814 0.847412
0.167542 0.309814 0.847412
0.315247 0.309814 0.847412
0.454651 0.309814 0.847412
0.581604 0.309814 0.847412
0.693939 0.309814 0.847412
0.794952 0.309814 0.847412
0.888763 0.309814 0.847412
0.015686 0.431793 0.847412
0.167542 0.431793 0.847412
0.315247 0.431793 0.847412
0.454651 0.431793 0.847412
0.581604 0.431793 0.847412
0.693939 0.431793 0.847412
0.794952 0.431793 0.847412
0.888763 0.431793 0.847412
0.015686 0.549530 0.847412
0.167542 0.549530 0.847412
0.315247 0.549530 0.847412
0.454651 0.549530 0.847412
0.581604 0.549530 0.847412
0.693939 0.549530 0.847412
0.794952 0.549530 0.847412
0.888763 0.549530 0.847412
0.015686 0.662292 0.847412
0.167542 0.662292 0.847412
0.315247 0.662292 0.847412
0.454651 0.662292 0.847412
0.581604 0.662292 0.847412
0.693939 0.662292 0.847412
0.794952 0.662292 0.847412
0.888763 0.662292 0.847412
0.015686 0.771271 0.847412
0.167542 0.771271 0.847412
0.315247 0.771271 0.847412
0.454651 0.771271 0.847412
0.581604 0.771271 0.847412
0.693939 0.771271 0.847412
0.794952 0.771271 0.847412
0.888763 0.771271 0.847412
0.015686 0.877747 0.847412
0.167542 0.877747 0.847412
0.315247 0.877747 0.847412
0.454651 0.877747 0.847412
0.581604 0.877747 0.847412
0.693939 0.877747 0.847412
0.794952 0.877747 0.847412
0.888763 0.877747 0.847412
