Avant Garde/Striped Purple - Woelfelly Neon.cube
#Created by: Adobe Photoshop Export Color Lookup Plugin
#Copyright: (C) Copyright 2018 Striped Purple - Austin Barrett
TITLE "Woelfelly Neon"
#LUT size
LUT_3D_SIZE 32
#data domain
DOMAIN_MIN 0.0 0.0 0.0
DOMAIN_MAX 1.0 1.0 1.0
#LUT data points
0.000000 0.000000 0.000000
0.004913 0.000000 0.000000
0.015045 0.000000 0.000000
0.030243 0.000000 0.000000
0.050262 0.000000 0.000000
0.074432 0.000000 0.000000
0.102509 0.000000 0.000000
0.133789 0.000000 0.000000
0.167755 0.000000 0.000000
0.203705 0.000000 0.000000
0.240936 0.000000 0.000000
0.278870 0.000000 0.000000
0.316895 0.000000 0.000000
0.354187 0.000000 0.000000
0.390442 0.000000 0.000000
0.424988 0.000000 0.000000
0.457367 0.000000 0.000000
0.487335 0.000000 0.000000
0.515289 0.000000 0.000000
0.545624 0.000000 0.000000
0.578674 0.000000 0.000000
0.613953 0.000000 0.000000
0.651337 0.000000 0.000000
0.690186 0.000000 0.000000
0.730164 0.000000 0.000000
0.770782 0.000000 0.000000
0.811554 0.000000 0.000000
0.851837 0.000000 0.000000
0.891327 0.000000 0.000000
0.929443 0.000000 0.000000
0.965820 0.000000 0.000000
1.000000 0.000000 0.000000
0.000000 0.001434 0.000000
0.005493 0.001434 0.000000
0.016907 0.001434 0.000000
0.033478 0.001373 0.000000
0.054657 0.001373 0.000000
0.079865 0.001373 0.000000
0.108887 0.001343 0.000000
0.141052 0.001312 0.000000
0.175598 0.001312 0.000000
0.212067 0.001251 0.000000
0.249512 0.001221 0.000000
0.287537 0.001190 0.000000
0.325409 0.001129 0.000000
0.362427 0.001099 0.000000
0.398224 0.001038 0.000000
0.432129 0.001007 0.000000
0.463959 0.000977 0.000000
0.493195 0.000885 0.000000
0.521149 0.000854 0.000000
0.551788 0.000793 0.000000
0.584991 0.000702 0.000000
0.620300 0.000671 0.000000
0.657562 0.000580 0.000000
0.696228 0.000549 0.000000
0.735718 0.000458 0.000000
0.775787 0.000427 0.000000
0.815887 0.000336 0.000000
0.855438 0.000244 0.000000
0.894073 0.000214 0.000000
0.931244 0.000122 0.000000
0.966736 0.000092 0.000000
1.000000 0.000000 0.000000
0.000000 0.005707 0.000000
0.005066 0.005707 0.000000
0.017700 0.005676 0.000000
0.035522 0.005615 0.000000
0.057983 0.005554 0.000000
0.084473 0.005493 0.000000
0.114624 0.005371 0.000000
0.147552 0.005280 0.000000
0.182800 0.005157 0.000000
0.219727 0.005035 0.000000
0.257507 0.004883 0.000000
0.295624 0.004700 0.000000
0.333435 0.004547 0.000000
0.370148 0.004364 0.000000
0.405609 0.004211 0.000000
0.438965 0.003998 0.000000
0.470154 0.003784 0.000000
0.498657 0.003571 0.000000
0.526886 0.003326 0.000000
0.557831 0.003113 0.000000
0.591156 0.002869 0.000000
0.626526 0.002594 0.000000
0.663635 0.002350 0.000000
0.701996 0.002106 0.000000
0.741150 0.001862 0.000000
0.780640 0.001587 0.000000
0.820007 0.001343 0.000000
0.858856 0.001038 0.000000
0.896637 0.000793 0.000000
0.933014 0.000549 0.000000
0.967590 0.000305 0.000000
1.000000 0.000031 0.000000
0.000000 0.012848 0.000000
0.006134 0.012848 0.000000
0.017181 0.012817 0.000000
0.036621 0.012695 0.000000
0.060425 0.012573 0.000000
0.088257 0.012360 0.000000
0.119446 0.012177 0.000000
0.153351 0.011932 0.000000
0.189423 0.011627 0.000000
0.226898 0.011322 0.000000
0.264954 0.010986 0.000000
0.303223 0.010620 0.000000
0.340973 0.010254 0.000000
0.377472 0.009827 0.000000
0.412506 0.009399 0.000000
0.445404 0.008942 0.000000
0.475983 0.008484 0.000000
0.503906 0.007965 0.000000
0.532471 0.007477 0.000000
0.563690 0.006927 0.000000
0.597198 0.006409 0.000000
0.632568 0.005890 0.000000
0.669495 0.005280 0.000000
0.707611 0.004730 0.000000
0.746307 0.004150 0.000000
0.785309 0.003571 0.000000
0.824036 0.002991 0.000000
0.862122 0.002441 0.000000
0.899139 0.001862 0.000000
0.934631 0.001251 0.000000
0.968414 0.000671 0.000000
1.000000 0.000122 0.000000
0.000000 0.022797 0.000000
0.007172 0.022797 0.000000
0.017944 0.022797 0.000000
0.036591 0.022614 0.000000
0.061951 0.022339 0.000000
0.091125 0.022003 0.000000
0.123566 0.021576 0.000000
0.158478 0.021149 0.000000
0.195343 0.020630 0.000000
0.233368 0.020050 0.000000
0.271851 0.019470 0.000000
0.310272 0.018829 0.000000
0.347900 0.018097 0.000000
0.384308 0.017395 0.000000
0.419006 0.016602 0.000000
0.451447 0.015839 0.000000
0.481476 0.014984 0.000000
0.509064 0.014099 0.000000
0.537964 0.013184 0.000000
0.569458 0.012268 0.000000
0.603027 0.011322 0.000000
0.638367 0.010376 0.000000
0.675232 0.009399 0.000000
0.712952 0.008392 0.000000
0.751312 0.007385 0.000000
0.789795 0.006378 0.000000
0.827911 0.005371 0.000000
0.865295 0.004364 0.000000
0.901550 0.003357 0.000000
0.936218 0.002350 0.000000
0.969177 0.001343 0.000000
1.000000 0.000366 0.000000
0.000000 0.035370 0.000000
0.008362 0.035370 0.000000
0.020264 0.035370 0.000000
0.035614 0.035370 0.000000
0.062561 0.034882 0.000000
0.093201 0.034302 0.000000
0.126953 0.033661 0.000000
0.162903 0.032928 0.000000
0.200623 0.032135 0.000000
0.239319 0.031281 0.000000
0.278198 0.030273 0.000000
0.316864 0.029297 0.000000
0.354462 0.028198 0.000000
0.390747 0.027039 0.000000
0.425171 0.025848 0.000000
0.457123 0.024597 0.000000
0.486664 0.023285 0.000000
0.514038 0.021912 0.000000
0.543304 0.020569 0.000000
0.575012 0.019073 0.000000
0.608734 0.017639 0.000000
0.644043 0.016205 0.000000
0.680725 0.014648 0.000000
0.718201 0.013153 0.000000
0.756165 0.011627 0.000000
0.794128 0.010071 0.000000
0.831573 0.008514 0.000000
0.868317 0.006958 0.000000
0.903870 0.005402 0.000000
0.937775 0.003906 0.000000
0.969910 0.002380 0.000000
1.000000 0.000916 0.000000
0.000000 0.050598 0.000000
0.009613 0.050598 0.000000
0.022705 0.050598 0.000000
0.039093 0.050598 0.000000
0.062195 0.050323 0.000000
0.094452 0.049500 0.000000
0.129517 0.048523 0.000000
0.166656 0.047424 0.000000
0.205261 0.046265 0.000000
0.244537 0.044983 0.000000
0.283966 0.043610 0.000000
0.322906 0.042084 0.000000
0.360596 0.040558 0.000000
0.396759 0.038879 0.000000
0.430847 0.037170 0.000000
0.462463 0.035370 0.000000
0.491516 0.033478 0.000000
0.518951 0.031555 0.000000
0.548523 0.029602 0.000000
0.580444 0.027527 0.000000
0.614197 0.025452 0.000000
0.649536 0.023376 0.000000
0.686066 0.021210 0.000000
0.723236 0.019043 0.000000
0.760803 0.016907 0.000000
0.798279 0.014709 0.000000
0.835175 0.012512 0.000000
0.871216 0.010376 0.000000
0.906036 0.008240 0.000000
0.939209 0.006073 0.000000
0.970612 0.003998 0.000000
1.000000 0.001923 0.000000
0.000000 0.068420 0.000000
0.010925 0.068420 0.000000
0.025269 0.068420 0.000000
0.042816 0.068420 0.000000
0.063293 0.068420 0.000000
0.094757 0.067474 0.000000
0.131317 0.066132 0.000000
0.169647 0.064636 0.000000
0.209320 0.063019 0.000000
0.249268 0.061218 0.000000
0.289307 0.059357 0.000000
0.328491 0.057343 0.000000
0.366272 0.055206 0.000000
0.402344 0.052948 0.000000
0.436249 0.050568 0.000000
0.467468 0.048157 0.000000
0.496063 0.045624 0.000000
0.523651 0.042999 0.000000
0.553558 0.040344 0.000000
0.585693 0.037628 0.000000
0.619507 0.034851 0.000000
0.654877 0.032013 0.000000
0.691254 0.029144 0.000000
0.728119 0.026245 0.000000
0.765320 0.023376 0.000000
0.802307 0.020477 0.000000
0.838623 0.017578 0.000000
0.874023 0.014709 0.000000
0.908142 0.011871 0.000000
0.940613 0.009033 0.000000
0.971375 0.006256 0.000000
1.000000 0.003571 0.000000
0.000000 0.088531 0.000000
0.012268 0.088531 0.000000
0.027954 0.088531 0.000000
0.046722 0.088531 0.000000
0.068329 0.088531 0.000000
0.094299 0.088257 0.000000
0.132294 0.086517 0.000000
0.172028 0.084503 0.000000
0.212738 0.082336 0.000000
0.253540 0.080017 0.000000
0.294098 0.077545 0.000000
0.333649 0.074890 0.000000
0.371552 0.072083 0.000000
0.407562 0.069183 0.000000
0.441254 0.066132 0.000000
0.472168 0.062988 0.000000
0.500305 0.059692 0.000000
0.528259 0.056305 0.000000
0.558472 0.052917 0.000000
0.590790 0.049377 0.000000
0.624664 0.045807 0.000000
0.660034 0.042175 0.000000
0.696228 0.038513 0.000000
0.732880 0.034851 0.000000
0.769653 0.031128 0.000000
0.806152 0.027435 0.000000
0.841949 0.023773 0.000000
0.876740 0.020081 0.000000
0.910187 0.016479 0.000000
0.941986 0.012939 0.000000
0.972015 0.009491 0.000000
1.000000 0.006073 0.000000
0.000000 0.110931 0.000000
0.013702 0.110931 0.000000
0.030701 0.110931 0.000000
0.050720 0.110931 0.000000
0.073486 0.110931 0.000000
0.098663 0.110931 0.000000
0.132599 0.109650 0.000000
0.173706 0.107147 0.000000
0.215515 0.104370 0.000000
0.257202 0.101410 0.000000
0.298401 0.098267 0.000000
0.338318 0.094910 0.000000
0.376373 0.091400 0.000000
0.412415 0.087769 0.000000
0.445892 0.083923 0.000000
0.476501 0.079956 0.000000
0.504364 0.075836 0.000000
0.532593 0.071655 0.000000
0.563202 0.067352 0.000000
0.595703 0.062988 0.000000
0.629730 0.058533 0.000000
0.665009 0.054047 0.000000
0.701080 0.049530 0.000000
0.737396 0.044952 0.000000
0.773895 0.040405 0.000000
0.809906 0.035828 0.000000
0.845154 0.031311 0.000000
0.879364 0.026855 0.000000
0.912109 0.022461 0.000000
0.943329 0.018097 0.000000
0.972687 0.013855 0.000000
1.000000 0.009766 0.000000
0.000000 0.135376 0.000000
0.015198 0.135376 0.000000
0.033569 0.135376 0.000000
0.054840 0.135376 0.000000
0.078796 0.135376 0.000000
0.105011 0.135376 0.000000
0.133148 0.135376 0.000000
0.174774 0.132477 0.000000
0.217773 0.129059 0.000000
0.260345 0.125397 0.000000
0.302185 0.121521 0.000000
0.342560 0.117432 0.000000
0.380798 0.113129 0.000000
0.416840 0.108643 0.000000
0.450134 0.103973 0.000000
0.480591 0.099152 0.000000
0.508270 0.094177 0.000000
0.536896 0.089081 0.000000
0.567780 0.083893 0.000000
0.600494 0.078552 0.000000
0.634583 0.073181 0.000000
0.669830 0.067780 0.000000
0.705750 0.062317 0.000000
0.741882 0.056793 0.000000
0.777954 0.051331 0.000000
0.813568 0.045868 0.000000
0.848236 0.040466 0.000000
0.881866 0.035126 0.000000
0.914032 0.029877 0.000000
0.944641 0.024719 0.000000
0.973328 0.019714 0.000000
1.000000 0.014862 0.000000
0.000000 0.161713 0.000000
0.016724 0.161713 0.000000
0.036530 0.161713 0.000000
0.059143 0.161713 0.000000
0.084259 0.161713 0.000000
0.111481 0.161713 0.000000
0.140503 0.161713 0.000000
0.175201 0.160522 0.000000
0.219391 0.156403 0.000000
0.263000 0.152008 0.000000
0.305511 0.147339 0.000000
0.346344 0.142426 0.000000
0.384827 0.137329 0.000000
0.420990 0.131958 0.000000
0.454132 0.126404 0.000000
0.484375 0.120667 0.000000
0.512054 0.114746 0.000000
0.541016 0.108704 0.000000
0.572205 0.102539 0.000000
0.605103 0.096222 0.000000
0.639282 0.089874 0.000000
0.674469 0.083466 0.000000
0.710297 0.077026 0.000000
0.746155 0.070587 0.000000
0.781921 0.064148 0.000000
0.817017 0.057739 0.000000
0.851288 0.051422 0.000000
0.884399 0.045197 0.000000
0.915924 0.039032 0.000000
0.945892 0.033081 0.000000
0.973969 0.027283 0.000000
1.000000 0.021698 0.000000
0.000000 0.189728 0.000000
0.018311 0.189728 0.000000
0.039581 0.189728 0.000000
0.063507 0.189728 0.000000
0.089813 0.189728 0.000000
0.118164 0.189728 0.000000
0.148041 0.189728 0.000000
0.179352 0.189728 0.000000
0.220490 0.186401 0.000000
0.265076 0.181244 0.000000
0.308411 0.175720 0.000000
0.349609 0.169983 0.000000
0.388550 0.163971 0.000000
0.424774 0.157684 0.000000
0.457886 0.151215 0.000000
0.487946 0.144501 0.000000
0.515686 0.137634 0.000000
0.545013 0.130615 0.000000
0.576477 0.123413 0.000000
0.609558 0.116150 0.000000
0.643829 0.108795 0.000000
0.679047 0.101349 0.000000
0.714691 0.093903 0.000000
0.750336 0.086517 0.000000
0.785767 0.079041 0.000000
0.820465 0.071716 0.000000
0.854279 0.064453 0.000000
0.886810 0.057281 0.000000
0.917786 0.050323 0.000000
0.947113 0.043518 0.000000
0.974304 0.037018 0.000000
1.000000 0.030609 0.000000
0.000000 0.219147 0.000000
0.019928 0.219147 0.000000
0.042694 0.219147 0.000000
0.067993 0.219147 0.000000
0.095551 0.219147 0.000000
0.124908 0.219147 0.000000
0.155640 0.219147 0.000000
0.187683 0.219147 0.000000
0.221008 0.218903 0.000000
0.266724 0.212982 0.000000
0.310852 0.206665 0.000000
0.352600 0.200043 0.000000
0.391907 0.193085 0.000000
0.428253 0.185883 0.000000
0.461334 0.178467 0.000000
0.491211 0.170776 0.000000
0.519135 0.162872 0.000000
0.548859 0.154877 0.000000
0.580627 0.146698 0.000000
0.613922 0.138367 0.000000
0.648193 0.130035 0.000000
0.683441 0.121582 0.000000
0.718872 0.113129 0.000000
0.754425 0.104675 0.000000
0.789551 0.096252 0.000000
0.823822 0.087982 0.000000
0.857208 0.079803 0.000000
0.889130 0.071777 0.000000
0.918762 0.064148 0.000000
0.947174 0.056610 0.000000
0.974304 0.049225 0.000000
1.000000 0.041931 0.000000
0.000000 0.249817 0.000000
0.021576 0.249817 0.000000
0.045868 0.249817 0.000000
0.072571 0.249817 0.000000
0.101288 0.249817 0.000000
0.131683 0.249817 0.000000
0.163330 0.249817 0.000000
0.196045 0.249817 0.000000
0.229248 0.249817 0.000000
0.267822 0.247162 0.000000
0.312836 0.240021 0.000000
0.355194 0.232513 0.000000
0.394867 0.224701 0.000000
0.431427 0.216553 0.000000
0.464539 0.208191 0.000000
0.494293 0.199554 0.000000
0.522461 0.190674 0.000000
0.552582 0.181671 0.000000
0.584625 0.172455 0.000000
0.618073 0.163116 0.000000
0.652527 0.153778 0.000000
0.687714 0.144318 0.000000
0.723083 0.134888 0.000000
0.758362 0.125427 0.000000
0.793213 0.116058 0.000000
0.827118 0.106873 0.000000
0.858765 0.098083 0.000000
0.889435 0.089478 0.000000
0.918945 0.080933 0.000000
0.947266 0.072540 0.000000
0.974335 0.064209 0.000000
1.000000 0.056091 0.000000
0.000000 0.281433 0.000000
0.023285 0.281433 0.000000
0.049164 0.281433 0.000000
0.077179 0.281433 0.000000
0.107147 0.281433 0.000000
0.138611 0.281433 0.000000
0.171143 0.281433 0.000000
0.204529 0.281433 0.000000
0.238220 0.281433 0.000000
0.272064 0.281433 0.000000
0.314423 0.275635 0.000000
0.357452 0.267334 0.000000
0.397552 0.258636 0.000000
0.434326 0.249603 0.000000
0.467468 0.240295 0.000000
0.497162 0.230713 0.000000
0.525665 0.220947 0.000000
0.556122 0.210938 0.000000
0.588470 0.200775 0.000000
0.622040 0.190491 0.000000
0.656708 0.180145 0.000000
0.691895 0.169678 0.000000
0.727142 0.159271 0.000000
0.762238 0.148926 0.000000
0.795349 0.139069 0.000000
0.827606 0.129364 0.000000
0.859131 0.119690 0.000000
0.889648 0.110168 0.000000
0.919067 0.100739 0.000000
0.947357 0.091492 0.000000
0.974335 0.082336 0.000000
1.000000 0.073364 0.000000
0.000000 0.313721 0.000000
0.025024 0.313721 0.000000
0.052429 0.313721 0.000000
0.081909 0.313721 0.000000
0.113098 0.313721 0.000000
0.145569 0.313721 0.000000
0.178986 0.313721 0.000000
0.213013 0.313721 0.000000
0.247192 0.313721 0.000000
0.281342 0.313721 0.000000
0.315582 0.313354 0.000000
0.359344 0.304260 0.000000
0.399933 0.294769 0.000000
0.436920 0.284943 0.000000
0.470184 0.274811 0.000000
0.499817 0.264374 0.000000
0.528748 0.253662 0.000000
0.559601 0.242737 0.000000
0.592224 0.231659 0.000000
0.626129 0.220459 0.000000
0.660736 0.209198 0.000000
0.695984 0.197845 0.000000
0.729553 0.187042 0.000000
0.762939 0.176270 0.000000
0.795807 0.165619 0.000000
0.828003 0.155060 0.000000
0.859375 0.144531 0.000000
0.889801 0.134186 0.000000
0.919159 0.123932 0.000000
0.947357 0.113861 0.000000
0.974304 0.103912 0.000000
1.000000 0.094147 0.000000
0.000000 0.346283 0.000000
0.026794 0.346283 0.000000
0.055817 0.346283 0.000000
0.086670 0.346283 0.000000
0.119049 0.346283 0.000000
0.152618 0.346283 0.000000
0.186829 0.346283 0.000000
0.221497 0.346283 0.000000
0.256165 0.346283 0.000000
0.290588 0.346283 0.000000
0.324402 0.346283 0.000000
0.360901 0.342957 0.000000
0.401978 0.332794 0.000000
0.439331 0.322235 0.000000
0.472656 0.311371 0.000000
0.502319 0.300110 0.000000
0.531677 0.288635 0.000000
0.562866 0.276947 0.000000
0.595825 0.265045 0.000000
0.629822 0.253082 0.000000
0.663239 0.241425 0.000000
0.696808 0.229828 0.000000
0.730255 0.218323 0.000000
0.763489 0.206818 0.000000
0.796265 0.195374 0.000000
0.828308 0.184052 0.000000
0.859589 0.172791 0.000000
0.889893 0.161652 0.000000
0.919159 0.150665 0.000000
0.947357 0.139801 0.000000
0.974304 0.129150 0.000000
1.000000 0.118622 0.000000
0.000000 0.378876 0.000000
0.028564 0.378876 0.000000
0.059174 0.378876 0.000000
0.091431 0.378876 0.000000
0.125122 0.378876 0.000000
0.159576 0.378876 0.000000
0.194641 0.378876 0.000000
0.230042 0.378876 0.000000
0.265045 0.378876 0.000000
0.299774 0.378876 0.000000
0.333679 0.378876 0.000000
0.366394 0.378876 0.000000
0.403809 0.372314 0.000000
0.441437 0.361176 0.000000
0.474915 0.349731 0.000000
0.504639 0.337891 0.000000
0.534454 0.325745 0.000000
0.566071 0.313385 0.000000
0.598114 0.301239 0.000000
0.630829 0.289124 0.000000
0.664032 0.276917 0.000000
0.697510 0.264740 0.000000
0.730835 0.252563 0.000000
0.763947 0.240479 0.000000
0.796600 0.228363 0.000000
0.828491 0.216400 0.000000
0.859680 0.204498 0.000000
0.889923 0.192688 0.000000
0.919159 0.181061 0.000000
0.947266 0.169556 0.000000
0.974243 0.158234 0.000000
1.000000 0.147064 0.000000
0.000000 0.411163 0.000000
0.030365 0.411163 0.000000
0.062622 0.411163 0.000000
0.096313 0.411163 0.000000
0.131165 0.411163 0.000000
0.166656 0.411163 0.000000
0.202576 0.411163 0.000000
0.238495 0.411163 0.000000
0.273956 0.411163 0.000000
0.308899 0.411163 0.000000
0.342834 0.411163 0.000000
0.375458 0.411163 0.000000
0.406677 0.411163 0.000000
0.443329 0.401367 0.000000
0.477020 0.389496 0.000000
0.506866 0.377258 0.000000
0.536224 0.365021 0.000000
0.567047 0.352661 0.000000
0.598969 0.340179 0.000000
0.631531 0.327667 0.000000
0.664734 0.315063 0.000000
0.698059 0.302429 0.000000
0.731262 0.289825 0.000000
0.764252 0.277191 0.000000
0.796783 0.264648 0.000000
0.828613 0.252136 0.000000
0.859711 0.239746 0.000000
0.889923 0.227448 0.000000
0.919098 0.215240 0.000000
0.947235 0.203217 0.000000
0.974182 0.191345 0.000000
1.000000 0.179626 0.000000
0.000000 0.442749 0.000000
0.032227 0.442749 0.000000
0.066071 0.442749 0.000000
0.101166 0.442749 0.000000
0.137238 0.442749 0.000000
0.173706 0.442749 0.000000
0.210419 0.442749 0.000000
0.246918 0.442749 0.000000
0.282776 0.442749 0.000000
0.317932 0.442749 0.000000
0.351898 0.442749 0.000000
0.384399 0.442749 0.000000
0.415344 0.442749 0.000000
0.444885 0.442139 0.000000
0.478485 0.431610 0.000000
0.507721 0.420929 0.000000
0.537018 0.410126 0.000000
0.567780 0.399170 0.000000
0.599640 0.388123 0.000000
0.632172 0.377045 0.000000
0.665222 0.365845 0.000000
0.698456 0.354645 0.000000
0.731567 0.343475 0.000000
0.764435 0.332275 0.000000
0.796875 0.321106 0.000000
0.828644 0.309998 0.000000
0.859680 0.298981 0.000000
0.889801 0.288086 0.000000
0.919006 0.277252 0.000000
0.947144 0.266602 0.000000
0.974121 0.256042 0.000000
1.000000 0.245697 0.000000
0.000000 0.473267 0.000000
0.034058 0.473267 0.000000
0.069519 0.473267 0.000000
0.106110 0.473267 0.000000
0.143341 0.473267 0.000000
0.180756 0.473267 0.000000
0.218262 0.473267 0.000000
0.255341 0.473267 0.000000
0.291565 0.473267 0.000000
0.326843 0.473267 0.000000
0.360840 0.473267 0.000000
0.393158 0.473267 0.000000
0.423828 0.473267 0.000000
0.451996 0.473267 0.000000
0.479156 0.471619 0.000000
0.508301 0.462891 0.000000
0.537598 0.454071 0.000000
0.568329 0.445129 0.000000
0.600128 0.436096 0.000000
0.632599 0.427032 0.000000
0.665588 0.417938 0.000000
0.698730 0.408783 0.000000
0.731750 0.399689 0.000000
0.764557 0.390564 0.000000
0.796844 0.381500 0.000000
0.828613 0.372498 0.000000
0.859589 0.363525 0.000000
0.889709 0.354645 0.000000
0.918854 0.345886 0.000000
0.947021 0.337219 0.000000
0.974030 0.328674 0.000000
1.000000 0.320251 0.000000
0.000000 0.502289 0.000000
0.035889 0.502289 0.000000
0.072998 0.502289 0.000000
0.110992 0.502289 0.000000
0.149414 0.502289 0.000000
0.187805 0.502289 0.000000
0.226044 0.502289 0.000000
0.263641 0.502289 0.000000
0.300201 0.502289 0.000000
0.335632 0.502289 0.000000
0.369934 0.502289 0.000000
0.402191 0.502289 0.000000
0.432037 0.502289 0.000000
0.459381 0.502289 0.000000
0.484497 0.502289 0.000000
0.508759 0.500671 0.000000
0.538025 0.493652 0.000000
0.568726 0.486542 0.000000
0.600525 0.479370 0.000000
0.632904 0.472198 0.000000
0.665833 0.464935 0.000000
0.698914 0.457703 0.000000
0.731812 0.450470 0.000000
0.764557 0.443268 0.000000
0.796783 0.436096 0.000000
0.828491 0.428925 0.000000
0.859436 0.421844 0.000000
0.889496 0.414825 0.000000
0.918701 0.407867 0.000000
0.946838 0.401031 0.000000
0.973969 0.394287 0.000000
1.000000 0.387634 0.000000
0.000000 0.533234 0.000000
0.037781 0.533234 0.000000
0.076508 0.533234 0.000000
0.115875 0.533234 0.000000
0.155487 0.533234 0.000000
0.194824 0.533234 0.000000
0.233765 0.533234 0.000000
0.271881 0.533234 0.000000
0.309753 0.533234 0.000000
0.345886 0.533234 0.000000
0.379608 0.533234 0.000000
0.411011 0.533234 0.000000
0.440063 0.533234 0.000000
0.466614 0.533234 0.000000
0.490875 0.533234 0.000000
0.513580 0.533234 0.000000
0.538330 0.532043 0.000000
0.569031 0.525269 0.000000
0.600739 0.518799 0.000000
0.633087 0.512543 0.000000
0.665924 0.506561 0.000000
0.698822 0.500885 0.000000
0.731781 0.495300 0.000000
0.764465 0.489777 0.000000
0.796600 0.484283 0.000000
0.828308 0.478790 0.000000
0.859192 0.473389 0.000000
0.889282 0.468018 0.000000
0.918488 0.462677 0.000000
0.946686 0.457458 0.000000
0.973877 0.452271 0.000000
1.000000 0.447235 0.000000
0.000000 0.569153 0.000000
0.039642 0.569153 0.000000
0.080017 0.569153 0.000000
0.120758 0.569153 0.000000
0.161530 0.569153 0.000000
0.201813 0.569153 0.000000
0.243073 0.569153 0.000000
0.283051 0.569153 0.000000
0.320679 0.569153 0.000000
0.356110 0.569153 0.000000
0.389069 0.569153 0.000000
0.419678 0.569153 0.000000
0.447876 0.569153 0.000000
0.473602 0.569153 0.000000
0.497070 0.569153 0.000000
0.519745 0.569153 0.000000
0.543732 0.569153 0.000000
0.569153 0.569153 0.000000
0.600830 0.562653 0.000000
0.633118 0.556396 0.000000
0.665863 0.550385 0.000000
0.698761 0.544617 0.000000
0.731628 0.539062 0.000000
0.764252 0.533691 0.000000
0.796417 0.528595 0.000000
0.828003 0.523682 0.000000
0.858917 0.519012 0.000000
0.889008 0.514526 0.000000
0.918213 0.510254 0.000000
0.946533 0.506165 0.000000
0.973785 0.502258 0.000000
1.000000 0.498505 0.000000
0.000000 0.610413 0.000000
0.041534 0.610413 0.000000
0.083527 0.610413 0.000000
0.125671 0.610413 0.000000
0.169617 0.610413 0.000000
0.213196 0.610413 0.000000
0.254974 0.610413 0.000000
0.294281 0.610413 0.000000
0.331390 0.610413 0.000000
0.366150 0.610413 0.000000
0.398285 0.610413 0.000000
0.428131 0.610413 0.000000
0.455505 0.610413 0.000000
0.480408 0.610413 0.000000
0.503143 0.610413 0.000000
0.525970 0.610413 0.000000
0.550140 0.610413 0.000000
0.575623 0.610413 0.000000
0.602142 0.610413 0.000000
0.632996 0.606201 0.000000
0.665741 0.600372 0.000000
0.698547 0.594788 0.000000
0.731384 0.589325 0.000000
0.763977 0.584137 0.000000
0.796082 0.579102 0.000000
0.827698 0.574280 0.000000
0.858612 0.569641 0.000000
0.888733 0.565216 0.000000
0.917969 0.560913 0.000000
0.946320 0.556854 0.000000
0.973663 0.552917 0.000000
1.000000 0.549164 0.000000
0.000000 0.657593 0.000000
0.043396 0.657593 0.000000
0.088684 0.657593 0.000000
0.135376 0.657593 0.000000
0.181274 0.657593 0.000000
0.225128 0.657593 0.000000
0.266693 0.657593 0.000000
0.305481 0.657593 0.000000
0.341919 0.657593 0.000000
0.375885 0.657593 0.000000
0.407288 0.657593 0.000000
0.436279 0.657593 0.000000
0.462891 0.657593 0.000000
0.487000 0.657593 0.000000
0.509247 0.657593 0.000000
0.532288 0.657593 0.000000
0.556580 0.657593 0.000000
0.582092 0.657593 0.000000
0.608612 0.657593 0.000000
0.636108 0.657593 0.000000
0.665466 0.656311 0.000000
0.698242 0.651062 0.000000
0.731049 0.645996 0.000000
0.763611 0.641113 0.000000
0.795715 0.636444 0.000000
0.827271 0.631897 0.000000
0.858246 0.627502 0.000000
0.888367 0.623322 0.000000
0.917664 0.619293 0.000000
0.946045 0.615387 0.000000
0.973541 0.611664 0.000000
1.000000 0.608063 0.000000
0.000000 0.711151 0.000000
0.047943 0.711151 0.000000
0.097168 0.711151 0.000000
0.145935 0.711151 0.000000
0.192657 0.711151 0.000000
0.236877 0.711151 0.000000
0.278137 0.711151 0.000000
0.316345 0.711151 0.000000
0.352112 0.711151 0.000000
0.385376 0.711151 0.000000
0.415985 0.711151 0.000000
0.444214 0.711151 0.000000
0.470001 0.711151 0.000000
0.493347 0.711151 0.000000
0.515411 0.711151 0.000000
