Avant Garde/Striped Purple - Polaroid Mint Cream.cube
#Created by: Adobe Photoshop Export Color Lookup Plugin
#Copyright: (C) Copyright 2019 Polaroid Mint Cream by Striped Purple - © Austin Barrett All Rights Reserved.
TITLE "Striped Purple - Polaroid Mint Cream"
#LUT size
LUT_3D_SIZE 8
#data domain
#LUT data points
DOMAIN_MIN 0.000000 0.000000 0.000000
DOMAIN_MAX 0.903226 0.903226 0.903226
0.333954 0.319550 0.326660
0.352997 0.320770 0.327698
0.407898 0.326141 0.332214
0.527374 0.346100 0.348999
0.679535 0.381866 0.378998
0.810608 0.418732 0.409821
0.890503 0.443054 0.430084
0.932007 0.456116 0.440887
0.337494 0.336456 0.329132
0.355652 0.337341 0.330078
0.409363 0.341370 0.334412
0.528015 0.357483 0.350525
0.679840 0.389374 0.379944
0.810791 0.424103 0.410492
0.890656 0.447571 0.430634
0.932129 0.460236 0.441437
0.352264 0.384399 0.339294
0.367249 0.384857 0.340088
0.415955 0.387024 0.343506
0.530914 0.396667 0.357422
0.681274 0.419098 0.384491
0.811676 0.446991 0.413696
0.891357 0.467224 0.433350
0.932770 0.478455 0.443878
0.397919 0.490112 0.370819
0.407104 0.490326 0.371246
0.442749 0.491302 0.373322
0.544037 0.495850 0.382416
0.687897 0.507629 0.402924
0.815857 0.524445 0.427643
0.894653 0.537842 0.445160
0.935699 0.545685 0.454773
0.468170 0.635437 0.419800
0.473511 0.635529 0.420074
0.496399 0.636078 0.421295
0.575623 0.638580 0.426758
0.705017 0.645294 0.440369
0.826874 0.655365 0.458710
0.903442 0.663757 0.472656
0.943665 0.668793 0.480591
0.535095 0.775940 0.467316
0.538635 0.776031 0.467499
0.554657 0.776398 0.468292
0.616272 0.778137 0.472076
0.729248 0.782776 0.481873
0.843079 0.789825 0.495789
0.916595 0.795776 0.506836
0.955597 0.799408 0.513245
0.577454 0.867310 0.497986
0.580322 0.867371 0.498138
0.593353 0.867706 0.498810
0.645935 0.869110 0.501892
0.748444 0.872925 0.510071
0.856384 0.878754 0.521881
0.927521 0.883667 0.531433
0.965546 0.886688 0.537079
0.599609 0.915833 0.514252
0.602173 0.915894 0.514374
0.614014 0.916168 0.515015
0.662415 0.917450 0.517822
0.759552 0.920929 0.525299
0.864319 0.926239 0.536194
0.934082 0.930725 0.545105
0.971527 0.933472 0.550354
0.333954 0.319550 0.339020
0.352997 0.320770 0.339783
0.407898 0.326141 0.343292
0.527374 0.346100 0.357178
0.679535 0.381866 0.384369
0.810608 0.418732 0.413635
0.890503 0.443054 0.433258
0.932007 0.456116 0.443817
0.337494 0.336456 0.340912
0.355652 0.337341 0.341614
0.409363 0.341370 0.345001
0.528015 0.357483 0.358551
0.679840 0.389374 0.385284
0.810791 0.424103 0.414276
0.890656 0.447571 0.433807
0.932129 0.460236 0.444305
0.352264 0.384399 0.348999
0.367249 0.384857 0.349640
0.415955 0.387024 0.352539
0.530914 0.396667 0.364624
0.681274 0.419098 0.389496
0.811676 0.446991 0.417389
0.891357 0.467224 0.436432
0.932770 0.478455 0.446716
0.397919 0.490112 0.376770
0.407104 0.490326 0.377197
0.442749 0.491302 0.379120
0.544037 0.495850 0.387573
0.687897 0.507629 0.406982
0.815857 0.524445 0.430908
0.894653 0.537842 0.447937
0.935699 0.545685 0.457367
0.468170 0.635437 0.423309
0.473511 0.635529 0.423584
0.496399 0.636078 0.424683
0.575623 0.638580 0.429993
0.705017 0.645294 0.443298
0.826874 0.655365 0.461243
0.903442 0.663757 0.474945
0.943665 0.668793 0.482758
0.535095 0.775940 0.469696
0.538635 0.776031 0.469849
0.554657 0.776398 0.470642
0.616272 0.778137 0.474396
0.729248 0.782776 0.484009
0.843079 0.789825 0.497742
0.916595 0.795776 0.508667
0.955597 0.799408 0.515045
0.577454 0.867310 0.499939
0.580322 0.867371 0.500061
0.593353 0.867706 0.500732
0.645935 0.869110 0.503815
0.748444 0.872925 0.511871
0.856384 0.878754 0.523590
0.927521 0.883667 0.533051
0.965546 0.886688 0.538635
0.599609 0.915833 0.516052
0.602173 0.915894 0.516144
0.614014 0.916168 0.516754
0.662415 0.917450 0.519562
0.759552 0.920929 0.526978
0.864319 0.926239 0.537750
0.934082 0.930725 0.546600
0.971527 0.933472 0.551819
0.333954 0.319550 0.375366
0.352997 0.320770 0.375824
0.407898 0.326141 0.377777
0.527374 0.346100 0.386353
0.679535 0.381866 0.406036
0.810608 0.418732 0.430084
0.890503 0.443054 0.447296
0.932007 0.456116 0.456726
0.337494 0.336456 0.376404
0.355652 0.337341 0.376831
0.409363 0.341370 0.378754
0.528015 0.357483 0.387268
0.679840 0.389374 0.406738
0.810791 0.424103 0.430664
0.890656 0.447571 0.447784
0.932129 0.460236 0.457214
0.352264 0.384399 0.381134
0.367249 0.384857 0.381500
0.415955 0.387024 0.383331
0.530914 0.396667 0.391388
0.681274 0.419098 0.410126
0.811676 0.446991 0.433350
0.891357 0.467224 0.450104
0.932770 0.478455 0.459381
0.397919 0.490112 0.400238
0.407104 0.490326 0.400543
0.442749 0.491302 0.401978
0.544037 0.495850 0.408569
0.687897 0.507629 0.424469
0.815857 0.524445 0.445190
0.894653 0.537842 0.460510
0.935699 0.545685 0.469116
0.468170 0.635437 0.438477
0.473511 0.635529 0.438721
0.496399 0.636078 0.439728
0.575623 0.638580 0.444397
0.705017 0.645294 0.456268
0.826874 0.655365 0.472656
0.903442 0.663757 0.485382
0.943665 0.668793 0.492706
0.535095 0.775940 0.480499
0.538635 0.776031 0.480652
0.554657 0.776398 0.481384
0.616272 0.778137 0.484863
0.729248 0.782776 0.493896
0.843079 0.789825 0.506836
0.916595 0.795776 0.517212
0.955597 0.799408 0.523254
0.577454 0.867310 0.508881
0.580322 0.867371 0.509033
0.593353 0.867706 0.509674
0.645935 0.869110 0.512573
0.748444 0.872925 0.520264
0.856384 0.878754 0.531464
0.927521 0.883667 0.540558
0.965546 0.886688 0.545929
0.599609 0.915833 0.524231
0.602173 0.915894 0.524323
0.614014 0.916168 0.524933
0.662415 0.917450 0.527618
0.759552 0.920929 0.534698
0.864319 0.926239 0.545105
0.934082 0.930725 0.553619
0.971527 0.933472 0.558685
0.333954 0.319550 0.456635
0.352997 0.320770 0.456818
0.407898 0.326141 0.457703
0.527374 0.346100 0.461792
0.679535 0.381866 0.472260
0.810608 0.418732 0.487030
0.890503 0.443054 0.498657
0.932007 0.456116 0.505402
0.337494 0.336456 0.457092
0.355652 0.337341 0.457275
0.409363 0.341370 0.458191
0.528015 0.357483 0.462250
0.679840 0.389374 0.472687
0.810791 0.424103 0.487396
0.890656 0.447571 0.499023
0.932129 0.460236 0.505737
0.352264 0.384399 0.459290
0.367249 0.384857 0.459473
0.415955 0.387024 0.460327
0.530914 0.396667 0.464325
0.681274 0.419098 0.474609
0.811676 0.446991 0.489166
0.891357 0.467224 0.500641
0.932770 0.478455 0.507294
0.397919 0.490112 0.469025
0.407104 0.490326 0.469208
0.442749 0.491302 0.470001
0.544037 0.495850 0.473724
0.687897 0.507629 0.483429
0.815857 0.524445 0.497192
0.894653 0.537842 0.508148
0.935699 0.545685 0.514526
0.468170 0.635437 0.492615
0.473511 0.635529 0.492767
0.496399 0.636078 0.493439
0.575623 0.638580 0.496643
0.705017 0.645294 0.505066
0.826874 0.655365 0.517212
0.903442 0.663757 0.527008
0.943665 0.668793 0.532776
0.535095 0.775940 0.523193
0.538635 0.776031 0.523346
0.554657 0.776398 0.523895
0.616272 0.778137 0.526611
0.729248 0.782776 0.533722
0.843079 0.789825 0.544189
0.916595 0.795776 0.552734
0.955597 0.799408 0.557800
0.577454 0.867310 0.545868
0.580322 0.867371 0.545959
0.593353 0.867706 0.546478
0.645935 0.869110 0.548889
0.748444 0.872925 0.555298
0.856384 0.878754 0.564728
0.927521 0.883667 0.572479
0.965546 0.886688 0.577118
0.599609 0.915833 0.558624
0.602173 0.915894 0.558716
0.614014 0.916168 0.559204
0.662415 0.917450 0.561432
0.759552 0.920929 0.567474
0.864319 0.926239 0.576385
0.934082 0.930725 0.583771
0.971527 0.933472 0.588196
0.333954 0.319550 0.566071
0.352997 0.320770 0.566162
0.407898 0.326141 0.566650
0.527374 0.346100 0.568817
0.679535 0.381866 0.574615
0.810608 0.418732 0.583282
0.890503 0.443054 0.590454
0.932007 0.456116 0.594757
0.337494 0.336456 0.566315
0.355652 0.337341 0.566406
0.409363 0.341370 0.566864
0.528015 0.357483 0.569061
0.679840 0.389374 0.574860
0.810791 0.424103 0.583496
0.890656 0.447571 0.590668
0.932129 0.460236 0.594971
0.352264 0.384399 0.567474
0.367249 0.384857 0.567566
0.415955 0.387024 0.568024
0.530914 0.396667 0.570190
0.681274 0.419098 0.575958
0.811676 0.446991 0.584595
0.891357 0.467224 0.591736
0.932770 0.478455 0.595978
0.397919 0.490112 0.572815
0.407104 0.490326 0.572906
0.442749 0.491302 0.573364
0.544037 0.495850 0.575470
0.687897 0.507629 0.581116
0.815857 0.524445 0.589539
0.894653 0.537842 0.596527
0.935699 0.545685 0.600708
0.468170 0.635437 0.586700
0.473511 0.635529 0.586761
0.496399 0.636078 0.587189
0.575623 0.638580 0.589203
0.705017 0.645294 0.594513
0.826874 0.655365 0.602478
0.903442 0.663757 0.609100
0.943665 0.668793 0.613068
0.535095 0.775940 0.606506
0.538635 0.776031 0.606598
0.554657 0.776398 0.606995
0.616272 0.778137 0.608826
0.729248 0.782776 0.613739
0.843079 0.789825 0.621124
0.916595 0.795776 0.627258
0.955597 0.799408 0.630981
0.577454 0.867310 0.622345
0.580322 0.867371 0.622406
0.593353 0.867706 0.622772
0.645935 0.869110 0.624512
0.748444 0.872925 0.629150
0.856384 0.878754 0.636108
0.927521 0.883667 0.641937
0.965546 0.886688 0.645447
0.599609 0.915833 0.631561
0.602203 0.915894 0.631622
0.614014 0.916168 0.631989
0.662415 0.917450 0.633667
0.759552 0.920929 0.638153
0.864319 0.926239 0.644897
0.934082 0.930725 0.650543
0.971527 0.933472 0.653961
0.333954 0.319550 0.668396
0.352997 0.320770 0.668457
0.407898 0.326141 0.668762
0.527374 0.346100 0.670258
0.679535 0.381866 0.674164
0.810608 0.418732 0.680115
0.890503 0.443054 0.685120
0.932007 0.456116 0.688141
0.337494 0.336456 0.668579
0.355652 0.337341 0.668640
0.409363 0.341370 0.668945
0.528015 0.357483 0.670410
0.679840 0.389374 0.674316
0.810791 0.424103 0.680267
0.890656 0.447571 0.685272
0.932129 0.460236 0.688324
0.352264 0.384399 0.669342
0.367249 0.384857 0.669403
0.415955 0.387024 0.669708
0.530914 0.396667 0.671173
0.681274 0.419098 0.675079
0.811676 0.446991 0.681000
0.891357 0.467224 0.686005
0.932770 0.478455 0.689026
0.397919 0.490112 0.672913
0.407104 0.490326 0.672974
0.442749 0.491302 0.673309
0.544037 0.495850 0.674744
0.687897 0.507629 0.678619
0.815857 0.524445 0.684479
0.894653 0.537842 0.689423
0.935699 0.545685 0.692413
0.468170 0.635437 0.682495
0.473511 0.635529 0.682556
0.496399 0.636078 0.682831
0.575623 0.638580 0.684235
0.705017 0.645294 0.688019
0.826874 0.655365 0.693695
0.903442 0.663757 0.698486
0.943665 0.668793 0.701385
0.535095 0.775940 0.696625
0.538635 0.776031 0.696655
0.554657 0.776398 0.696960
0.616272 0.778137 0.698303
0.729248 0.782776 0.701874
0.843079 0.789825 0.707306
0.916595 0.795776 0.711914
0.955597 0.799408 0.714691
0.577454 0.867310 0.708221
0.580322 0.867371 0.708282
0.593353 0.867706 0.708557
0.645935 0.869110 0.709839
0.748444 0.872925 0.713287
0.856384 0.878754 0.718567
0.927521 0.883667 0.722992
0.965546 0.886688 0.725677
0.599609 0.915833 0.715149
0.602203 0.915894 0.715210
0.614014 0.916168 0.715454
0.662415 0.917450 0.716736
0.759552 0.920929 0.720123
0.864319 0.926239 0.725281
0.934082 0.930725 0.729614
0.971527 0.933472 0.732269
0.333954 0.319550 0.733887
0.352997 0.320770 0.733948
0.407898 0.326141 0.734161
0.527374 0.346100 0.735382
0.679535 0.381866 0.738586
0.810608 0.418732 0.743469
0.890503 0.443054 0.747620
0.932007 0.456116 0.750122
0.337494 0.336456 0.734009
0.355652 0.337341 0.734070
0.409363 0.341370 0.734314
0.528015 0.357483 0.735535
0.679840 0.389374 0.738739
0.810791 0.424103 0.743622
0.890656 0.447571 0.747711
0.932129 0.460236 0.750214
0.352264 0.384399 0.734650
0.367249 0.384857 0.734711
0.415955 0.387024 0.734924
0.530914 0.396667 0.736115
0.681274 0.419098 0.739349
0.811676 0.446991 0.744202
0.891357 0.467224 0.748322
0.932770 0.478455 0.750824
0.397919 0.490112 0.737579
0.407104 0.490326 0.737640
0.442749 0.491302 0.737885
0.544037 0.495850 0.739075
0.687897 0.507629 0.742218
0.815857 0.524445 0.747070
0.894653 0.537842 0.751160
0.935699 0.545685 0.753632
0.468170 0.635437 0.745422
0.473511 0.635529 0.745483
0.496399 0.636078 0.745728
0.575623 0.638580 0.746857
0.705017 0.645294 0.749969
0.826874 0.655365 0.754700
0.903442 0.663757 0.758698
0.943665 0.668793 0.761108
0.535095 0.775940 0.757111
0.538635 0.776031 0.757172
0.554657 0.776398 0.757416
0.616272 0.778137 0.758514
0.729248 0.782776 0.761536
0.843079 0.789825 0.766113
0.916595 0.795776 0.769989
0.955597 0.799408 0.772339
0.577454 0.867310 0.766876
0.580322 0.867371 0.766907
0.593353 0.867706 0.767151
0.645935 0.869110 0.768219
0.748444 0.872925 0.771179
0.856384 0.878754 0.775604
0.927521 0.883667 0.779388
0.965546 0.886688 0.781677
0.599609 0.915833 0.772705
0.602203 0.915894 0.772766
0.614014 0.916168 0.772980
0.662415 0.917450 0.774048
0.759552 0.920929 0.776947
0.864319 0.926239 0.781311
0.934082 0.930725 0.785065
0.971527 0.933472 0.787292
0.333954 0.319550 0.768494
0.352997 0.320770 0.768524
0.407898 0.326141 0.768768
0.527374 0.346100 0.769836
0.679535 0.381866 0.772766
0.810608 0.418732 0.777191
0.890503 0.443054 0.780945
0.932007 0.456146 0.783234
0.337494 0.336456 0.768585
0.355652 0.337341 0.768646
0.409363 0.341370 0.768890
0.528015 0.357483 0.769989
0.679840 0.389374 0.772888
0.810791 0.424103 0.777313
0.890656 0.447571 0.781097
0.932129 0.460236 0.783356
0.352264 0.384399 0.769196
0.367249 0.384857 0.769226
0.415955 0.387024 0.769440
0.530914 0.396667 0.770538
0.681274 0.419098 0.773438
0.811676 0.446991 0.777863
0.891357 0.467224 0.781616
0.932770 0.478455 0.783905
0.397919 0.490112 0.771820
0.407104 0.490326 0.771881
0.442749 0.491302 0.772125
0.544037 0.495850 0.773193
0.687897 0.507629 0.776062
0.815857 0.524445 0.780457
0.894653 0.537842 0.784210
0.935699 0.545685 0.786469
0.468170 0.635437 0.778961
0.473511 0.635529 0.779022
0.496399 0.636078 0.779236
0.575623 0.638580 0.780304
0.705017 0.645294 0.783142
0.826874 0.655365 0.787445
0.903442 0.663757 0.791107
0.943665 0.668793 0.793335
0.535095 0.775940 0.789642
0.538635 0.776031 0.789703
0.554657 0.776398 0.789917
0.616272 0.778137 0.790955
0.729248 0.782776 0.793701
0.843079 0.789825 0.797882
0.916595 0.795776 0.801453
0.955597 0.799408 0.803619
0.577454 0.867310 0.798584
0.580322 0.867371 0.798645
0.593353 0.867706 0.798859
0.645935 0.869110 0.799835
0.748444 0.872925 0.802551
0.856384 0.878754 0.806641
0.927521 0.883667 0.810120
0.965546 0.886688 0.812256
0.599609 0.915833 0.803955
0.602203 0.915894 0.804016
0.614014 0.916168 0.804230
0.662415 0.917450 0.805206
0.759552 0.920929 0.807861
0.864319 0.926239 0.811920
0.934082 0.930725 0.815338
0.971527 0.933472 0.817444
