Avant Garde/Striped Purple - Veggie Crisps.cube
#Created by: Adobe Photoshop Export Color Lookup Plugin
#Copyright: (C) Copyright 2019 Veggie Crisps by Striped Purple - © Austin Barrett All Rights Reserved.
TITLE "Veggie Crisps"
#LUT size
LUT_3D_SIZE 5
#data domain
#LUT data points
DOMAIN_MIN 0.000000 0.000000 0.000000
DOMAIN_MAX 0.903226 0.903226 0.903226
0.164703 0.164703 0.164703
0.238678 0.140472 0.140472
0.389435 0.110901 0.110901
0.639038 0.115204 0.115204
0.950348 0.111267 0.111267
0.085754 0.259827 0.085754
0.159302 0.242157 0.056274
0.297363 0.216949 0.027191
0.515198 0.223663 0.026215
0.853882 0.229523 0.022583
0.054932 0.455170 0.054932
0.112579 0.447723 0.036652
0.250458 0.430237 0.005951
0.639618 0.456665 0.014160
0.901428 0.458984 0.000031
0.079834 0.732697 0.079834
0.219666 0.707977 0.039154
0.509705 0.713226 0.028564
0.757568 0.736725 0.037445
0.936005 0.720062 0.012451
0.037811 0.943237 0.037811
0.288849 0.882660 0.000031
0.535522 0.895935 0.000031
0.747223 0.901642 0.000031
0.893494 0.875122 0.000031
0.152802 0.152802 0.288116
0.226135 0.125458 0.295258
0.373718 0.094788 0.290833
0.620667 0.098694 0.299927
0.931305 0.094849 0.303131
0.067505 0.247803 0.263062
0.141327 0.227051 0.240906
0.273682 0.202545 0.217834
0.494690 0.207947 0.233734
0.848297 0.212128 0.235413
0.038422 0.442383 0.245636
0.093475 0.435211 0.245422
0.273224 0.415009 0.219086
0.669220 0.449005 0.225128
0.890076 0.448608 0.211212
0.061920 0.720245 0.296509
0.233154 0.691406 0.242340
0.507446 0.701477 0.245117
0.745850 0.722198 0.260559
0.919678 0.702301 0.226593
0.019104 0.926270 0.252502
0.271606 0.873138 0.203461
0.525299 0.882568 0.202515
0.734894 0.885864 0.192627
0.882263 0.862091 0.165497
0.144043 0.144043 0.483582
0.221588 0.118866 0.508606
0.369141 0.090637 0.504974
0.614075 0.094696 0.512695
0.923706 0.092407 0.528564
0.061920 0.246124 0.475983
0.135529 0.224487 0.453796
0.256592 0.202728 0.442688
0.491791 0.208496 0.462677
0.863312 0.210693 0.450897
0.035400 0.443451 0.469788
0.091949 0.438477 0.476013
0.329926 0.418854 0.438263
0.686523 0.454926 0.450836
0.891724 0.455933 0.438629
0.060669 0.724854 0.517578
0.254456 0.691376 0.463745
0.518921 0.706238 0.472839
0.752258 0.723785 0.482269
0.919617 0.700531 0.444061
0.017029 0.925964 0.478882
0.282990 0.872345 0.424896
0.533630 0.881592 0.420929
0.737823 0.883484 0.411682
0.880890 0.860107 0.387726
0.148071 0.148071 0.743256
0.226990 0.123138 0.757690
0.372192 0.095154 0.741364
0.614990 0.098877 0.749725
0.924408 0.097229 0.769958
0.065613 0.251953 0.711761
0.137360 0.230682 0.690765
0.248352 0.210510 0.684204
0.514862 0.216461 0.690918
0.883179 0.214844 0.671967
0.040009 0.452240 0.711182
0.106110 0.445526 0.702118
0.395020 0.431702 0.665771
0.702881 0.467560 0.682678
0.898254 0.467529 0.666718
0.064789 0.735413 0.743591
0.276703 0.698486 0.692749
0.534119 0.715607 0.701324
0.762909 0.728668 0.704620
0.925140 0.704651 0.668579
0.020264 0.930847 0.706360
0.298767 0.876099 0.647156
0.547058 0.886169 0.646149
0.747406 0.887726 0.641907
0.885803 0.864838 0.621002
0.145416 0.145416 1.000000
0.220734 0.117584 1.000000
0.363220 0.088531 0.979553
0.598633 0.091217 0.986511
0.916565 0.089386 0.993286
0.058380 0.246002 0.949371
0.124420 0.227020 0.928802
0.239502 0.204865 0.907135
0.553802 0.214447 0.906647
0.885468 0.209076 0.884796
0.032501 0.449158 0.936127
0.125824 0.436371 0.908875
0.435699 0.434814 0.885468
0.704803 0.468719 0.899902
0.892822 0.465546 0.878845
0.057098 0.734894 0.960510
0.283417 0.694763 0.908081
0.537689 0.712128 0.913910
0.761139 0.720947 0.916687
0.918976 0.697937 0.887665
0.011719 0.923615 0.917969
0.301941 0.868195 0.859253
0.548553 0.879303 0.865723
0.744995 0.880310 0.864105
0.878418 0.857849 0.840973
