Avant Garde/Striped Purple - Caramel Plum Cake.cube
#Created by: Adobe Photoshop Export Color Lookup Plugin
#Copyright: (C) Copyright 2019 Caramel Plum Cake by Striped Purple © Austin Barrett All rights reserved.
TITLE "Caramel Plum Cake"
#LUT size
LUT_3D_SIZE 32
#data domain
DOMAIN_MIN 0.0 0.0 0.0
DOMAIN_MAX 1.0 1.0 1.0
#LUT data points
0.113739 0.113739 0.113739
0.121368 0.114136 0.114258
0.129517 0.114532 0.114746
0.138336 0.114960 0.115326
0.147858 0.115417 0.115906
0.158112 0.115906 0.116486
0.169281 0.116425 0.117157
0.181396 0.117004 0.117828
0.194702 0.117584 0.118591
0.209442 0.118225 0.119354
0.225830 0.118927 0.120178
0.244324 0.119690 0.121124
0.265472 0.120544 0.122101
0.289795 0.121460 0.123169
0.317963 0.122437 0.124298
0.350403 0.123535 0.125549
0.387390 0.124725 0.126862
0.428986 0.126007 0.128235
0.474548 0.127289 0.129639
0.523224 0.128632 0.131073
0.571045 0.129883 0.132385
0.618835 0.131104 0.133636
0.666992 0.132263 0.134857
0.715118 0.133423 0.136017
0.762482 0.134521 0.137115
0.808899 0.135620 0.138184
0.853882 0.136627 0.139160
0.897400 0.137573 0.140106
0.918396 0.140472 0.143158
0.918457 0.145233 0.148163
0.918488 0.149994 0.153107
0.918579 0.154755 0.158020
0.113770 0.116302 0.113739
0.122772 0.118744 0.115204
0.131012 0.119202 0.115723
0.139923 0.119659 0.116272
0.149506 0.120178 0.116882
0.159912 0.120728 0.117493
0.171204 0.121307 0.118164
0.183533 0.121948 0.118866
0.196960 0.122589 0.119598
0.211914 0.123322 0.120392
0.228851 0.124115 0.121277
0.247437 0.124939 0.122223
0.268982 0.125885 0.123199
0.293854 0.126923 0.124268
0.322662 0.128052 0.125458
0.355682 0.129272 0.126709
0.394379 0.130646 0.128082
0.435852 0.132019 0.129456
0.482056 0.133484 0.130890
0.531342 0.134949 0.132324
0.579376 0.136322 0.133667
0.629425 0.137756 0.134979
0.676392 0.139008 0.136169
0.724945 0.140289 0.137329
0.772766 0.141541 0.138489
0.819427 0.142670 0.139526
0.864777 0.143799 0.140564
0.908569 0.144897 0.141541
0.924225 0.148560 0.145325
0.927124 0.153687 0.150757
0.924377 0.158630 0.155914
0.924408 0.163696 0.161194
0.113770 0.119141 0.113739
0.121521 0.122345 0.114288
0.132629 0.124542 0.116760
0.141632 0.125092 0.117340
0.151367 0.125641 0.117950
0.161804 0.126251 0.118591
0.173248 0.126892 0.119232
0.185883 0.127594 0.119965
0.199402 0.128296 0.120697
0.214600 0.129120 0.121552
0.231537 0.130035 0.122406
0.251099 0.131012 0.123383
0.273224 0.132050 0.124420
0.298737 0.133240 0.125519
0.328217 0.134491 0.126740
0.361450 0.135834 0.127991
0.400909 0.137390 0.129395
0.444122 0.138947 0.130859
0.489990 0.140533 0.132263
0.539886 0.142151 0.133698
0.589752 0.143768 0.135101
0.637024 0.145172 0.136353
0.688202 0.146759 0.137665
0.737457 0.148193 0.138824
0.783447 0.149475 0.139923
0.833038 0.150879 0.141083
0.878815 0.152130 0.142120
0.923065 0.153381 0.143097
0.932922 0.157867 0.147827
0.930145 0.163147 0.153473
0.933044 0.168701 0.159241
0.930237 0.173920 0.164734
0.113770 0.122253 0.113739
0.120453 0.126099 0.113739
0.131409 0.128754 0.115875
0.143402 0.131226 0.118439
0.153229 0.131866 0.119080
0.163879 0.132538 0.119720
0.175568 0.133301 0.120422
0.188110 0.134064 0.121155
0.202209 0.134918 0.121948
0.217682 0.135834 0.122772
0.234711 0.136780 0.123657
0.254669 0.137909 0.124634
0.276825 0.139038 0.125671
0.303375 0.140442 0.126862
0.333557 0.141846 0.128082
0.367462 0.143341 0.129364
0.406952 0.145020 0.130768
0.450714 0.146759 0.132233
0.498322 0.148590 0.133698
0.550323 0.150513 0.135223
0.599091 0.152191 0.136597
0.646851 0.153778 0.137848
0.696594 0.155426 0.139099
0.746033 0.157013 0.140350
0.794647 0.158539 0.141510
0.844574 0.160126 0.142670
0.888000 0.161407 0.143677
0.932404 0.162811 0.144684
0.935944 0.168304 0.150543
0.935974 0.174072 0.156647
0.936035 0.179810 0.162720
0.936096 0.185577 0.168762
0.113770 0.125732 0.113739
0.120026 0.129944 0.113739
0.129913 0.133301 0.114777
0.142273 0.136200 0.117554
0.155365 0.139038 0.120300
0.166168 0.139801 0.120972
0.177948 0.140625 0.121704
0.190826 0.141510 0.122437
0.204956 0.142426 0.123230
0.220734 0.143433 0.124084
0.238403 0.144592 0.125000
0.258148 0.145721 0.125977
0.281189 0.147064 0.127045
0.307800 0.148560 0.128235
0.338654 0.150146 0.129456
0.374817 0.152008 0.130890
0.414429 0.153778 0.132294
0.458862 0.155762 0.133759
0.508362 0.157867 0.135315
0.559509 0.159912 0.136841
0.607178 0.161682 0.138153
0.657227 0.163544 0.139496
0.709503 0.165527 0.140839
0.759674 0.167328 0.142090
0.806427 0.168915 0.143219
0.854126 0.170532 0.144318
0.903076 0.172333 0.145477
0.941742 0.174133 0.146912
0.941833 0.180389 0.153656
0.941864 0.186584 0.160278
0.944763 0.192963 0.166931
0.941956 0.198944 0.173340
0.113770 0.129639 0.113739
0.119751 0.134125 0.113739
0.128448 0.138397 0.113739
0.140686 0.141449 0.116425
0.154144 0.144714 0.119385
0.168427 0.147980 0.122314
0.180267 0.148865 0.122986
0.193542 0.149963 0.123810
0.207764 0.150940 0.124603
0.223785 0.152100 0.125458
0.241730 0.153320 0.126404
0.262268 0.154724 0.127441
0.285889 0.156219 0.128540
0.313202 0.157898 0.129730
0.344727 0.159698 0.131042
0.381104 0.161682 0.132416
0.422272 0.163818 0.133881
0.468689 0.166168 0.135468
0.517731 0.168427 0.136993
0.569153 0.170685 0.138519
0.617493 0.172668 0.139862
0.669983 0.174927 0.141296
0.718933 0.176819 0.142548
0.769287 0.178833 0.143829
0.821167 0.180969 0.145111
0.866699 0.182648 0.146210
0.916077 0.184753 0.147400
0.947601 0.187592 0.149902
0.947662 0.194305 0.157227
0.950562 0.201263 0.164551
0.947723 0.207672 0.171539
0.947784 0.214325 0.178619
0.113770 0.133942 0.113739
0.119598 0.138855 0.113739
0.127777 0.143433 0.113739
0.139099 0.147339 0.115204
0.152588 0.150848 0.118164
0.167358 0.154663 0.121399
0.183044 0.158417 0.124451
0.196320 0.159546 0.125244
0.210938 0.160736 0.126099
0.227295 0.162048 0.126984
0.245697 0.163452 0.127960
0.266693 0.165009 0.128998
0.290894 0.166748 0.130127
0.318939 0.168640 0.131378
0.351410 0.170715 0.132690
0.388702 0.172943 0.134125
0.430725 0.175354 0.135651
0.476562 0.177795 0.137207
0.526337 0.180298 0.138763
0.577942 0.182800 0.140289
0.628387 0.185242 0.141754
0.679657 0.187653 0.143127
0.733185 0.190216 0.144592
0.784180 0.192505 0.145874
0.834137 0.194702 0.147125
0.880066 0.196716 0.148254
0.926880 0.198914 0.149384
0.953461 0.203217 0.153412
0.953522 0.210541 0.161407
0.953583 0.217773 0.169250
0.953613 0.225006 0.177032
0.953674 0.232239 0.184753
0.113770 0.138763 0.113739
0.119507 0.143951 0.113739
0.127289 0.149017 0.113739
0.137360 0.153961 0.113922
0.150909 0.157715 0.116882
0.165771 0.161804 0.120087
0.182129 0.166290 0.123566
0.199646 0.170776 0.126862
0.214386 0.171936 0.127686
0.231079 0.173431 0.128601
0.249939 0.175049 0.129608
0.271912 0.177032 0.130707
0.296844 0.178986 0.131897
0.325195 0.180969 0.133148
0.358704 0.183350 0.134521
0.397766 0.186096 0.136047
0.440704 0.188812 0.137634
0.486328 0.191345 0.139099
0.537048 0.194214 0.140747
0.588959 0.197052 0.142303
0.641876 0.200104 0.143860
0.691986 0.202576 0.145203
0.743896 0.205261 0.146606
0.795135 0.207916 0.147949
0.845367 0.210480 0.149231
0.896790 0.213440 0.150574
0.944061 0.215973 0.151733
0.959320 0.221558 0.157562
0.959351 0.229492 0.166290
0.959442 0.237396 0.174927
0.959473 0.245361 0.183472
0.959503 0.253296 0.191956
0.113770 0.144135 0.113739
0.119415 0.149658 0.113739
0.126953 0.155212 0.113739
0.136475 0.160736 0.113770
0.149170 0.165436 0.115509
0.164093 0.169861 0.118713
0.180389 0.174500 0.122192
0.198761 0.179901 0.125977
0.218140 0.184845 0.129425
0.235168 0.186554 0.130371
0.254517 0.188416 0.131409
0.276672 0.190491 0.132538
0.302307 0.192780 0.133759
0.332123 0.195251 0.135071
0.366669 0.197998 0.136505
0.405762 0.200867 0.138031
0.449280 0.203949 0.139618
0.496948 0.207062 0.141205
0.548676 0.210388 0.142883
0.600708 0.213623 0.144470
0.652679 0.216827 0.145996
0.705109 0.219971 0.147491
0.757629 0.223145 0.148926
0.809357 0.226196 0.150299
0.857300 0.228973 0.151550
0.908997 0.232513 0.152924
0.956299 0.235443 0.154114
0.965179 0.243134 0.162384
0.965210 0.251831 0.172028
0.962341 0.260101 0.181427
0.965271 0.269257 0.191040
0.965302 0.278046 0.200470
0.113770 0.150177 0.113739
0.119354 0.155975 0.113739
0.126709 0.162109 0.113770
0.135895 0.168213 0.113770
0.147339 0.174164 0.114105
0.162323 0.178925 0.117279
0.178864 0.184113 0.120758
0.197205 0.189758 0.124512
0.217773 0.196014 0.128601
0.239685 0.201782 0.132294
0.259552 0.203949 0.133362
0.281921 0.206024 0.134491
0.308899 0.208984 0.135803
0.339966 0.211914 0.137177
0.375397 0.215057 0.138672
0.415314 0.218384 0.140228
0.458557 0.221558 0.141785
0.508484 0.225525 0.143524
0.561310 0.229370 0.145233
0.613495 0.233124 0.146851
0.666138 0.236847 0.148438
0.719269 0.240570 0.149963
0.772278 0.244232 0.151459
0.824402 0.247986 0.152863
0.875366 0.251770 0.154297
0.924591 0.255341 0.155579
0.968079 0.258484 0.157013
0.971039 0.268585 0.168091
0.971069 0.278168 0.178925
0.968201 0.287231 0.189362
0.971130 0.297424 0.200104
0.971130 0.307129 0.210602
0.113770 0.156860 0.113739
0.119324 0.163208 0.113770
0.126526 0.169861 0.113770
0.135406 0.176361 0.113770
0.146210 0.183228 0.113770
0.160461 0.189270 0.115753
0.176941 0.194641 0.119202
0.195343 0.200775 0.122955
0.216034 0.207581 0.127045
0.239532 0.215057 0.131531
0.264679 0.221771 0.135437
0.288818 0.224945 0.136719
0.316528 0.228058 0.138031
0.347809 0.231140 0.139404
0.384033 0.234772 0.140961
0.424561 0.238525 0.142548
0.470001 0.242615 0.144226
0.519775 0.246918 0.145966
0.573547 0.251434 0.147736
0.625610 0.255768 0.149384
0.678711 0.260162 0.151001
0.732269 0.264557 0.152618
0.785522 0.268951 0.154114
0.837952 0.273499 0.155609
0.888916 0.277771 0.157043
0.941040 0.282440 0.158508
0.973938 0.287506 0.162537
0.973999 0.298035 0.174835
0.973999 0.308594 0.186890
0.976929 0.319824 0.198975
0.976929 0.330444 0.210846
0.976959 0.341156 0.222717
0.113770 0.164581 0.113770
0.119324 0.171387 0.113770
0.126404 0.178497 0.113770
0.135071 0.185822 0.113770
0.145599 0.193359 0.113770
0.158356 0.200928 0.114105
0.175049 0.207062 0.117554
0.193665 0.213776 0.121338
0.214539 0.221161 0.125427
0.238434 0.229401 0.129944
0.266174 0.238678 0.134949
0.295807 0.246613 0.139069
0.324371 0.250275 0.140472
0.357086 0.254211 0.141937
0.394073 0.258362 0.143494
0.435852 0.262878 0.145172
0.482513 0.267731 0.146912
0.533569 0.272858 0.148712
0.587585 0.278076 0.150543
0.640472 0.283264 0.152252
0.694183 0.288391 0.153931
0.748291 0.293701 0.155548
0.802002 0.299072 0.157166
0.854645 0.304199 0.158691
0.905792 0.309143 0.160126
0.955231 0.313812 0.161530
0.979767 0.321777 0.169159
0.979797 0.333282 0.182983
0.979797 0.344757 0.196564
0.979828 0.356201 0.210022
0.979828 0.367767 0.223450
0.979858 0.379364 0.236816
0.113770 0.173248 0.113770
0.119354 0.180634 0.113770
0.126343 0.188507 0.113770
0.134796 0.196381 0.113770
0.145050 0.204712 0.113770
0.157227 0.213440 0.113770
0.173248 0.221497 0.115875
0.192200 0.228912 0.119629
0.213593 0.237183 0.123810
0.237885 0.246307 0.128357
0.265717 0.256165 0.133392
0.299072 0.268066 0.139008
0.333313 0.277039 0.143127
0.366180 0.281097 0.144592
0.404358 0.286072 0.146210
0.447296 0.291443 0.147949
0.495117 0.297241 0.149780
0.548584 0.303925 0.151733
0.602692 0.310089 0.153595
0.654541 0.315491 0.155273
0.710693 0.322418 0.157104
0.765350 0.328735 0.158813
0.819214 0.334808 0.160431
0.872040 0.340637 0.162018
0.920563 0.345337 0.163361
0.972717 0.351257 0.164886
0.985565 0.361694 0.177032
0.985596 0.374023 0.192719
0.985596 0.386261 0.208160
0.985626 0.398621 0.223480
0.982788 0.409882 0.238403
0.982819 0.422241 0.253632
0.113770 0.183319 0.113770
0.119354 0.191162 0.113770
0.126373 0.199860 0.113770
0.134827 0.208771 0.113770
0.144958 0.218170 0.113770
0.157043 0.227997 0.113770
0.171600 0.238098 0.114105
0.190765 0.246307 0.117889
0.212311 0.255432 0.122070
0.237000 0.265594 0.126648
0.265350 0.276825 0.131683
0.298492 0.289429 0.137238
0.337402 0.303528 0.143372
0.377075 0.313934 0.147583
0.416565 0.319946 0.149261
0.460968 0.326416 0.151093
0.510071 0.333221 0.152985
0.563385 0.340424 0.154938
0.617218 0.347565 0.156830
0.671234 0.354767 0.158630
0.726044 0.362030 0.160431
0.778534 0.368164 0.162048
0.834625 0.375793 0.163818
0.887299 0.382141 0.165375
0.938324 0.388092 0.166870
0.987671 0.393616 0.168304
0.988495 0.406403 0.186279
0.988495 0.419220 0.204224
0.988525 0.432007 0.221802
0.988525 0.444916 0.239288
0.988525 0.457916 0.256805
0.988556 0.471008 0.274353
0.113770 0.194733 0.113770
0.119476 0.203552 0.113770
0.126495 0.212921 0.113770
0.134918 0.222839 0.113770
0.144958 0.233276 0.113770
0.156891 0.244232 0.113770
0.170898 0.255890 0.113770
0.189026 0.266327 0.116028
0.211029 0.276978 0.120209
0.235962 0.288269 0.124786
0.264832 0.300934 0.129852
0.298004 0.314392 0.135406
0.338074 0.330872 0.141602
0.383423 0.347565 0.148224
0.429077 0.359680 0.152527
0.475769 0.368225 0.154510
0.524872 0.375336 0.156372
0.579071 0.383575 0.158356
0.632446 0.391815 0.160278
0.686951 0.400055 0.162140
0.741760 0.407990 0.163940
0.796448 0.415649 0.165680
0.852722 0.423950 0.167480
0.905273 0.430664 0.169037
0.956299 0.436890 0.170532
0.991364 0.443207 0.176483
0.994293 0.457336 0.197632
0.991364 0.469086 0.217957
0.991364 0.482330 0.238220
0.991394 0.495636 0.258423
0.994293 0.510712 0.279205
0.991394 0.523071 0.299164
0.113770 0.207947 0.113770
0.119537 0.217377 0.113770
0.126617 0.227997 0.113770
0.135040 0.239044 0.113770
0.145050 0.250671 0.113770
0.156769 0.262573 0.113770
0.170654 0.275787 0.113770
0.187378 0.290070 0.114044
0.209320 0.300934 0.118225
0.234558 0.313660 0.122833
0.264099 0.328491 0.127960
0.298248 0.344391 0.133545
0.338348 0.362000 0.139709
0.385010 0.381378 0.146393
0.438690 0.402618 0.153687
0.490479 0.416565 0.158051
0.540497 0.424591 0.159973
0.596191 0.435181 0.162109
0.649994 0.444275 0.164032
0.704834 0.453125 0.165924
0.759857 0.461609 0.167755
0.814514 0.469635 0.169495
0.868134 0.477081 0.171112
0.920563 0.483978 0.172699
0.968597 0.488831 0.174042
0.997131 0.499176 0.186798
0.997131 0.511871 0.211060
0.994293 0.523376 0.234680
0.994293 0.536804 0.258209
0.997131 0.552246 0.282349
0.997131 0.566437 0.306335
0.994324 0.579254 0.329865
0.113770 0.222321 0.113770
0.119659 0.233063 0.113770
0.126770 0.244873 0.113770
0.135193 0.256714 0.113770
0.145172 0.269775 0.113770
0.156860 0.283722 0.113770
0.170776 0.299316 0.113770
0.187073 0.315399 0.113770
0.208099 0.330200 0.116211
0.233765 0.344543 0.120850
0.263153 0.359711 0.125946
0.298187 0.378265 0.131592
0.338654 0.397766 0.137726
0.385773 0.419098 0.144409
0.439819 0.442261 0.151672
0.500793 0.467072 0.159393
0.558197 0.482819 0.163910
0.612030 0.492828 0.165924
0.664215 0.501038 0.167755
0.718750 0.510162 0.169586
0.775635 0.520386 0.171539
0.829956 0.528503 0.173248
0.883453 0.535889 0.174896
0.935425 0.542542 0.176422
0.983124 0.546814 0.177704
1.000000 0.558289 0.199066
1.000000 0.570526 0.227600
1.000000 0.583466 0.255707
1.000000 0.597107 0.283783
1.000000 0.611298 0.311981
0.997131 0.623840 0.339600
0.997131 0.638550 0.367950
0.113770 0.238190 0.113770
0.119751 0.250000 0.113770
0.126923 0.263153 0.113770
0.135406 0.276794 0.113770
0.145386 0.291473 0.113770
0.157104 0.307220 0.113770
0.170807 0.324127 0.113770
0.186920 0.342255 0.113770
0.206329 0.361359 0.114136
0.232300 0.377228 0.118774
0.262238 0.394928 0.123871
0.297028 0.414337 0.129486
0.337677 0.435516 0.135620
0.384735 0.458557 0.142242
0.438477 0.483307 0.149384
0.498932 0.509491 0.157013
0.565674 0.536926 0.165039
0.624359 0.553528 0.169556
0.677917 0.563232 0.171478
0.732147 0.572479 0.173309
0.784088 0.579224 0.174927
0.837555 0.586945 0.176605
0.892700 0.595703 0.178345
0.944244 0.601929 0.179840
0.994507 0.607758 0.181305
0.997131 0.617340 0.213806
0.997131 0.628632 0.247406
0.994324 0.639038 0.280304
0.994324 0.651947 0.313416
0.997131 0.667694 0.347229
0.997131 0.682007 0.380524
0.994324 0.694458 0.412598
0.113770 0.255768 0.113770
0.119843 0.268829 0.113770
0.127075 0.282928 0.113770
0.135620 0.298035 0.113770
0.145569 0.314362 0.113770
0.157318 0.332581 0.113770
0.170868 0.350739 0.113770
0.186859 0.370911 0.113770
0.205963 0.393707 0.113770
0.230713 0.413422 0.116699
0.260803 0.432526 0.121796
0.295227 0.452271 0.127350
0.336365 0.476288 0.133484
0.382446 0.499268 0.139984
0.435486 0.525208 0.147003
0.496063 0.554077 0.154541
0.559387 0.580292 0.162140
0.625702 0.607605 0.169800
0.686890 0.625946 0.174927
0.740234 0.634033 0.176666
0.793335 0.641296 0.178345
0.846008 0.647949 0.179932
0.900604 0.656128 0.181610
0.951904 0.661896 0.183136
0.994324 0.667511 0.190765
0.991455 0.672943 0.230957
0.994324 0.684814 0.271210
0.991486 0.693939 0.310333
0.991486 0.706604 0.349823
0.991486 0.720215 0.389099
0.994354 0.736938 0.429230
0.991486 0.749146 0.466492
0.113770 0.275024 0.113770
0.119965 0.289490 0.113770
0.127258 0.304993 0.113770
0.135864 0.321869 0.113770
0.145874 0.339905 0.113770
0.157532 0.359253 0.113770
0.171143 0.380035 0.113770
0.187073 0.402344 0.113770
0.205811 0.426270 0.113770
0.228729 0.450439 0.114655
0.258881 0.470551 0.119720
0.293671 0.492401 0.125275
0.333984 0.515900 0.131317
0.380280 0.540955 0.137817
0.432739 0.567383 0.144745
0.491028 0.595001 0.152039
0.553223 0.622650 0.159515
0.617981 0.649872 0.166962
0.685455 0.676880 0.174530
0.748230 0.695923 0.179871
0.800659 0.702728 0.181519
0.853027 0.709106 0.183105
0.904846 0.714996 0.184631
0.956024 0.720734 0.186127
0.988647 0.724823 0.204315
0.988647 0.729553 0.252777
0.988678 0.737854 0.300934
0.985840 0.745911 0.348145
0.985840 0.758209 0.395538
0.988678 0.774170 0.443237
0.988708 0.788330 0.488953
0.988708 0.803040 0.533722
0.113770 0.294922 0.113770
0.120056 0.309906 0.113770
0.127472 0.327393 0.113770
0.136108 0.344727 0.113770
0.146118 0.364166 0.113770
0.157837 0.385864 0.113770
0.171448 0.408264 0.113770
0.187286 0.432190 0.113770
0.205902 0.457733 0.113770
0.227875 0.484924 0.113770
0.257141 0.507599 0.117859
0.291229 0.528809 0.123352
0.331635 0.554810 0.129333
0.377258 0.580688 0.135681
0.427490 0.605743 0.142395
0.484406 0.633759 0.149506
0.545837 0.663574 0.156830
0.607056 0.688660 0.163940
0.672455 0.715698 0.171265
0.742340 0.744720 0.178802
0.804504 0.762665 0.184418
0.859100 0.771393 0.186157
0.908478 0.774750 0.187500
0.959503 0.779938 0.188965
0.983032 0.780487 0.221710
0.983032 0.782349 0.281067
0.985840 0.791443 0.340942
0.983063 0.798553 0.398712
0.983063 0.810333 0.455750
0.985870 0.826233 0.512665
0.985870 0.840240 0.566406
0.985870 0.855011 0.618713
0.113770 0.313171 0.113770
0.120148 0.330017 0.113770
0.127625 0.348083 0.113770
0.136230 0.366638 0.113770
0.146240 0.387421 0.113770
0.157959 0.410736 0.113770
0.171417 0.434540 0.113770
0.187134 0.460083 0.113770
0.205536 0.487152 0.113770
0.227112 0.515961 0.113770
0.254333 0.542572 0.115997
0.288208 0.566010 0.121368
0.327362 0.591034 0.127228
0.371918 0.617371 0.133453
0.421753 0.644714 0.140015
0.476685 0.672699 0.146912
0.535065 0.700592 0.153931
0.596130 0.728149 0.160980
0.660187 0.755493 0.168121
0.726929 0.782715 0.175415
0.795746 0.809479 0.182739
0.862061 0.831390 0.188965
0.914001 0.836761 0.190460
0.965515 0.842194 0.191986
0.980194 0.836456 0.245789
0.980225 0.834717 0.320648
0.980225 0.839417 0.394867
0.980225 0.848083 0.466949
0.980255 0.859406 0.535858
0.980255 0.872162 0.601471
0.980255 0.886108 0.664001
0.980316 0.901001 0.724243
0.113770 0.331390 0.113770
0.120178 0.349304 0.113770
0.127686 0.368530 0.113770
0.136322 0.389130 0.113770
0.146301 0.411194 0.113770
0.157928 0.436096 0.113770
0.171204 0.460052 0.113770
0.186615 0.486694 0.113770
0.204620 0.515167 0.113770
0.225708 0.545288 0.113770
0.250610 0.576202 0.114044
0.284271 0.602112 0.119354
0.321777 0.625488 0.125000
0.364777 0.651947 0.131042
0.413757 0.681610 0.137482
0.467102 0.710022 0.144196
0.523163 0.736115 0.151001
0.582855 0.764008 0.157898
0.645721 0.791840 0.164978
0.711578 0.819397 0.172119
0.779755 0.846497 0.179382
0.849579 0.873322 0.186768
0.919464 0.899231 0.193390
0.971344 0.904785 0.194916
0.974579 0.885284 0.280365
0.977478 0.882507 0.378204
0.977478 0.885223 0.472290
0.977509 0.893005 0.560822
0.977509 0.903748 0.643616
0.974701 0.913330 0.718445
0.977539 0.930420 0.793152
0.977539 0.945435 0.861023
0.113770 0.350281 0.113770
0.120209 0.369171 0.113770
0.127655 0.388458 0.113770
0.136292 0.411102 0.113770
0.146179 0.434326 0.113770
0.157471 0.457764 0.113770
0.170715 0.485474 0.113770
0.185913 0.513550 0.113770
0.203522 0.543152 0.113770
0.223999 0.574310 0.113770
0.247437 0.604889 0.113770
0.278503 0.634430 0.117188
0.314758 0.657867 0.122681
0.356262 0.684570 0.128571
0.403687 0.714722 0.134827
0.455444 0.743378 0.141357
0.512207 0.772766 0.148224
0.569641 0.798523 0.154938
0.631805 0.826721 0.161926
0.698853 0.857635 0.169128
0.764618 0.882599 0.176208
0.834015 0.909973 0.183472
0.904083 0.936951 0.190796
0.969025 0.958038 0.203674
0.969025 0.926514 0.334747
0.969055 0.916779 0.463104
0.971893 0.920776 0.583466
0.969086 0.924927 0.689819
0.969086 0.935455 0.786621
0.969116 0.948242 0.873413
0.971985 0.965790 0.955444
0.969116 0.964783 0.963104
0.113770 0.367981 0.113770
0.120148 0.387695 0.113770
0.127563 0.408722 0.113770
0.136047 0.431213 0.113770
0.145782 0.455200 0.113770
0.156921 0.480804 0.113770
0.169769 0.507965 0.113770
0.184540 0.536865 0.113770
0.201599 0.567322 0.113770
0.221344 0.599365 0.113770
0.244171 0.632690 0.113770
0.271881 0.664948 0.115021
0.307526 0.690948 0.120361
0.347931 0.718079 0.126129
0.393372 0.746429 0.132202
0.443909 0.775482 0.138641
0.499695 0.805206 0.145386
0.557159 0.831757 0.152161
0.618652 0.860626 0.159058
0.685181 0.892334 0.166199
0.752747 0.920929 0.173370
0.821991 0.949066 0.180634
0.886749 0.961212 0.215790
0.936218 0.961334 0.295410
0.966309 0.959198 0.429382
0.966339 0.945831 0.603577
0.966339 0.946198 0.753662
0.966370 0.953674 0.880402
0.966370 0.961639 0.959778
0.966370 0.961639 0.959778
0.966370 0.961639 0.959778
0.966370 0.961639 0.959778
0.113770 0.385284 0.113770
0.120056 0.405457 0.113770
0.127350 0.427124 0.113770
0.135681 0.451508 0.113770
0.145233 0.476288 0.113770
0.156067 0.501038 0.113770
0.168671 0.530609 0.113770
0.182831 0.558533 0.113770
0.199371 0.589783 0.113770
0.218445 0.622589 0.113770
0.240753 0.658966 0.113770
0.266388 0.694641 0.113770
0.299683 0.720459 0.118103
0.339111 0.748108 0.123749
0.383484 0.776672 0.129730
0.433044 0.806183 0.136078
0.488098 0.836639 0.142761
0.547089 0.867157 0.149658
0.608337 0.896759 0.156494
0.672852 0.926331 0.163513
0.740265 0.954529 0.171814
0.808807 0.954681 0.220947
0.868317 0.954865 0.292145
0.915771 0.955017 0.402771
0.947784 0.955170 0.578308
0.960754 0.955048 0.846497
0.963562 0.958435 0.956421
0.963562 0.958435 0.956421
0.963562 0.958435 0.956421
0.960785 0.955261 0.953156
0.963562 0.958435 0.956421
0.960785 0.955261 0.953156
0.113770 0.402191 0.113770
0.119965 0.423859 0.113770
0.127075 0.444763 0.113770
0.135193 0.468323 0.113770
0.144470 0.493439 0.113770
0.155151 0.521790 0.113770
0.167297 0.550323 0.113770
0.181091 0.578857 0.113770
0.197296 0.612793 0.113770
0.215790 0.646576 0.113770
0.237122 0.681702 0.113770
0.261902 0.718323 0.113770
0.292389 0.748840 0.115967
0.330963 0.776947 0.121552
0.374481 0.806061 0.127441
0.424377 0.839111 0.133789
0.477722 0.867340 0.140350
0.536896 0.898834 0.147278
0.599396 0.932251 0.154205
0.667084 0.951141 0.172485
0.736969 0.948151 0.217346
0.803406 0.948364 0.280396
0.864075 0.951721 0.374573
0.911041 0.951874 0.515594
0.943909 0.951996 0.726685
0.955231 0.948944 0.946503
0.955231 0.948944 0.946503
0.958008 0.952087 0.949799
0.958008 0.952087 0.949799
0.955231 0.948944 0.946503
0.955231 0.948944 0.946503
0.958008 0.952087 0.949799
0.113770 0.418488 0.113770
0.119812 0.439392 0.113770
0.126770 0.461670 0.113770
0.134735 0.487091 0.113770
0.143829 0.512726 0.113770
0.154053 0.538422 0.113770
0.165863 0.567291 0.113770
0.179535 0.600128 0.113770
0.195160 0.632904 0.113770
0.213104 0.667267 0.113770
0.233582 0.700989 0.113770
0.257996 0.740997 0.113770
0.285828 0.776398 0.114014
0.323639 0.804993 0.119507
