Avant Garde/Striped Purple - Sugar Plums.cube
#Created by: Adobe Photoshop Export Color Lookup Plugin
#Copyright: (C) Copyright 2019 Sugar Plums by Striped Purple © Austin Barrett All Rights Reserved.
TITLE "Sugar Plums"
#LUT size
LUT_3D_SIZE 32
#data domain
DOMAIN_MIN 0.0 0.0 0.0
DOMAIN_MAX 1.0 1.0 1.0
#LUT data points
0.000000 0.000000 0.000000
0.019409 0.000000 0.000000
0.039764 0.000000 0.000000
0.061096 0.000000 0.000000
0.083374 0.000000 0.000000
0.106628 0.000000 0.000000
0.130859 0.000000 0.000000
0.156006 0.000000 0.000000
0.182098 0.000000 0.000000
0.209106 0.000000 0.000000
0.237000 0.000000 0.000000
0.265747 0.000000 0.000000
0.295288 0.000000 0.000000
0.325623 0.000000 0.000000
0.356720 0.000000 0.000000
0.388580 0.000000 0.000000
0.421143 0.000000 0.000000
0.454346 0.000000 0.000000
0.488251 0.000000 0.000000
0.522705 0.000000 0.000000
0.557678 0.000000 0.000000
0.593231 0.000000 0.000000
0.633820 0.000000 0.000000
0.675293 0.000000 0.000000
0.716949 0.000000 0.000000
0.758728 0.000000 0.000000
0.801392 0.000000 0.000000
0.844086 0.000000 0.000000
0.885651 0.000000 0.000000
0.925751 0.000000 0.000000
0.964050 0.000000 0.000000
1.000000 0.000000 0.000000
0.000000 0.019623 0.000000
0.019501 0.019867 0.000000
0.039978 0.020142 0.000000
0.061462 0.020477 0.000000
0.083893 0.020844 0.000000
0.107269 0.021179 0.000000
0.131592 0.021576 0.000000
0.156891 0.021912 0.000000
0.183044 0.022217 0.000000
0.210114 0.022522 0.000000
0.238007 0.022736 0.000000
0.266693 0.022919 0.000000
0.296173 0.022980 0.000000
0.326416 0.022980 0.000000
0.357361 0.022858 0.000000
0.389008 0.022614 0.000000
0.421356 0.022217 0.000000
0.454254 0.021698 0.000000
0.487610 0.021057 0.000000
0.521515 0.020294 0.000000
0.560791 0.020081 0.000000
0.601135 0.019958 0.000000
0.642090 0.019775 0.000000
0.683319 0.019592 0.000000
0.725677 0.019409 0.000000
0.768982 0.019409 0.000000
0.811371 0.019409 0.000000
0.852722 0.019409 0.000000
0.892792 0.019409 0.000000
0.930817 0.019409 0.000000
0.966675 0.019409 0.000000
1.000000 0.019409 0.000000
0.000000 0.041077 0.000000
0.019653 0.041718 0.000000
0.040253 0.042389 0.000000
0.061859 0.043091 0.000000
0.084442 0.043793 0.000000
0.107941 0.044495 0.000000
0.132385 0.045105 0.000000
0.157715 0.045654 0.000000
0.183929 0.046112 0.000000
0.210968 0.046417 0.000000
0.238831 0.046570 0.000000
0.267456 0.046570 0.000000
0.296814 0.046326 0.000000
0.326843 0.045868 0.000000
0.357605 0.045135 0.000000
0.388916 0.044159 0.000000
0.420715 0.042908 0.000000
0.453003 0.041443 0.000000
0.490631 0.041016 0.000000
0.529938 0.040741 0.000000
0.569946 0.040375 0.000000
0.610260 0.040039 0.000000
0.652313 0.039673 0.000000
0.695770 0.039673 0.000000
0.738556 0.039673 0.000000
0.780945 0.039673 0.000000
0.822266 0.039673 0.000000
0.862183 0.039673 0.000000
0.900146 0.039673 0.000000
0.935699 0.039673 0.000000
0.968506 0.039673 0.000000
1.000000 0.039673 0.000000
0.000000 0.064697 0.000000
0.019806 0.065735 0.000000
0.040558 0.066742 0.000000
0.062317 0.067749 0.000000
0.084991 0.068634 0.000000
0.108582 0.069458 0.000000
0.133087 0.070099 0.000000
0.158478 0.070557 0.000000
0.184662 0.070801 0.000000
0.211670 0.070770 0.000000
0.239410 0.070465 0.000000
0.267883 0.069794 0.000000
0.297058 0.068726 0.000000
0.326782 0.067322 0.000000
0.356995 0.065521 0.000000
0.387726 0.063477 0.000000
0.423706 0.062775 0.000000
0.461700 0.062347 0.000000
0.500366 0.061859 0.000000
0.539856 0.061340 0.000000
0.581238 0.060822 0.000000
0.624329 0.060791 0.000000
0.667480 0.060791 0.000000
0.710449 0.060791 0.000000
0.752777 0.060791 0.000000
0.794067 0.060791 0.000000
0.833649 0.060791 0.000000
0.871307 0.060791 0.000000
0.905457 0.060791 0.000000
0.938263 0.060791 0.000000
0.969757 0.060791 0.000000
1.000000 0.060791 0.000000
0.000000 0.090393 0.000000
0.019928 0.091644 0.000000
0.040863 0.092834 0.000000
0.062744 0.093872 0.000000
0.085510 0.094696 0.000000
0.109161 0.095337 0.000000
0.133698 0.095642 0.000000
0.159058 0.095642 0.000000
0.185181 0.095215 0.000000
0.212067 0.094360 0.000000
0.239655 0.093048 0.000000
0.267822 0.091217 0.000000
0.296509 0.088989 0.000000
0.325623 0.086304 0.000000
0.359802 0.085327 0.000000
0.396149 0.084778 0.000000
0.433685 0.084167 0.000000
0.471985 0.083527 0.000000
0.512238 0.082825 0.000000
0.555054 0.082764 0.000000
0.598083 0.082764 0.000000
0.641022 0.082764 0.000000
0.684204 0.082764 0.000000
0.726318 0.082764 0.000000
0.767487 0.082764 0.000000
0.806854 0.082764 0.000000
0.842194 0.082764 0.000000
0.876343 0.082764 0.000000
0.909149 0.082764 0.000000
0.940643 0.082764 0.000000
0.970917 0.082764 0.000000
1.000000 0.082764 0.000000
0.000000 0.117676 0.000000
0.020081 0.118896 0.000000
0.041138 0.119965 0.000000
0.063110 0.120697 0.000000
0.085938 0.121063 0.000000
0.109619 0.121063 0.000000
0.134125 0.120605 0.000000
0.159393 0.119598 0.000000
0.185394 0.118011 0.000000
0.212036 0.115814 0.000000
0.239136 0.113159 0.000000
0.266724 0.109924 0.000000
0.298920 0.108704 0.000000
0.333710 0.108032 0.000000
0.369690 0.107300 0.000000
0.406525 0.106506 0.000000
0.445770 0.105682 0.000000
0.487762 0.105591 0.000000
0.530090 0.105591 0.000000
0.573151 0.105591 0.000000
0.616608 0.105591 0.000000
0.659332 0.105591 0.000000
0.701538 0.105591 0.000000
0.742188 0.105591 0.000000
0.778870 0.105591 0.000000
0.814240 0.105591 0.000000
0.848236 0.105591 0.000000
0.881012 0.105591 0.000000
0.912537 0.105591 0.000000
0.942444 0.105591 0.000000
0.971527 0.105591 0.000000
1.000000 0.106262 0.000000
0.000000 0.145813 0.000000
0.020233 0.146667 0.000000
0.041382 0.147156 0.000000
0.063385 0.147156 0.000000
0.086243 0.146637 0.000000
0.109894 0.145508 0.000000
0.134308 0.143677 0.000000
0.159393 0.141235 0.000000
0.184967 0.138092 0.000000
0.211060 0.134491 0.000000
0.241272 0.132874 0.000000
0.274200 0.132111 0.000000
0.308350 0.131287 0.000000
0.343811 0.130371 0.000000
0.381622 0.129425 0.000000
0.422241 0.129272 0.000000
0.464020 0.129272 0.000000
0.506592 0.129272 0.000000
0.549744 0.129272 0.000000
0.593048 0.129272 0.000000
0.635620 0.129272 0.000000
0.677582 0.129272 0.000000
0.715424 0.129272 0.000000
0.751862 0.129272 0.000000
0.787170 0.129272 0.000000
0.821167 0.129272 0.000000
0.853760 0.129272 0.000000
0.884613 0.129272 0.000000
0.914398 0.129272 0.000000
0.943481 0.129944 0.000000
0.972015 0.132233 0.000000
1.000000 0.134888 0.000000
0.000000 0.173828 0.000000
0.020325 0.173859 0.000000
0.041534 0.173309 0.000000
0.063568 0.172028 0.000000
0.086395 0.170074 0.000000
0.109894 0.167297 0.000000
0.133972 0.163788 0.000000
0.158569 0.159760 0.000000
0.186707 0.157867 0.000000
0.217529 0.157074 0.000000
0.249939 0.156128 0.000000
0.283691 0.155090 0.000000
0.319641 0.154022 0.000000
0.359009 0.153809 0.000000
0.399689 0.153809 0.000000
0.441162 0.153809 0.000000
0.484161 0.153809 0.000000
0.527374 0.153809 0.000000
0.570221 0.153809 0.000000
0.612915 0.153809 0.000000
0.651642 0.153809 0.000000
0.689392 0.153809 0.000000
0.725830 0.153809 0.000000
0.760895 0.153809 0.000000
0.794769 0.153809 0.000000
0.826477 0.153809 0.000000
0.856903 0.153809 0.000000
0.886658 0.154510 0.000000
0.915771 0.157074 0.000000
0.944336 0.160034 0.000000
0.972412 0.163513 0.000000
1.000000 0.167328 0.000000
0.000000 0.200562 0.000000
0.020386 0.199249 0.000000
0.041595 0.197083 0.000000
0.063568 0.194061 0.000000
0.086151 0.190338 0.000000
0.109283 0.185852 0.000000
0.135223 0.183716 0.000000
0.163971 0.182800 0.000000
0.194305 0.181763 0.000000
0.226074 0.180664 0.000000
0.260284 0.179504 0.000000
0.297913 0.179230 0.000000
0.336884 0.179230 0.000000
0.377472 0.179230 0.000000
0.419617 0.179230 0.000000
0.462128 0.179230 0.000000
0.505188 0.179230 0.000000
0.548157 0.179230 0.000000
0.587921 0.179230 0.000000
0.626709 0.179230 0.000000
0.664093 0.179230 0.000000
0.700409 0.179230 0.000000
0.735382 0.179230 0.000000
0.767914 0.179230 0.000000
0.799103 0.179230 0.000000
0.829468 0.179932 0.000000
0.859161 0.182617 0.000000
0.888336 0.185944 0.000000
0.916962 0.189758 0.000000
0.945099 0.193878 0.000000
0.972778 0.198547 0.000000
1.000000 0.203430 0.000000
0.000000 0.224792 0.000000
0.020386 0.221619 0.000000
0.041473 0.217590 0.000000
0.063171 0.212769 0.000000
0.087006 0.210327 0.000000
0.113373 0.209351 0.000000
0.141418 0.208282 0.000000
0.171204 0.207062 0.000000
0.203339 0.205811 0.000000
0.238708 0.205475 0.000000
0.276123 0.205475 0.000000
0.315216 0.205475 0.000000
0.355927 0.205475 0.000000
0.397888 0.205475 0.000000
0.440491 0.205475 0.000000
0.483063 0.205475 0.000000
0.524048 0.205475 0.000000
0.563568 0.205475 0.000000
0.602203 0.205475 0.000000
0.639587 0.205475 0.000000
0.675507 0.205475 0.000000
0.709045 0.205475 0.000000
0.740906 0.205475 0.000000
0.771881 0.206116 0.000000
0.802185 0.209076 0.000000
0.831940 0.212616 0.000000
0.861145 0.216583 0.000000
0.889862 0.221161 0.000000
0.918060 0.226013 0.000000
0.945801 0.231384 0.000000
0.973114 0.237061 0.000000
1.000000 0.238831 0.000000
0.000000 0.245544 0.000000
0.020264 0.240601 0.000000
0.041901 0.237762 0.000000
0.065735 0.236755 0.000000
0.091431 0.235596 0.000000
0.118958 0.234314 0.000000
0.148651 0.233002 0.000000
0.181854 0.232605 0.000000
0.217194 0.232605 0.000000
0.254211 0.232605 0.000000
0.293671 0.232605 0.000000
0.334412 0.232605 0.000000
0.375916 0.232605 0.000000
0.418304 0.232605 0.000000
0.459717 0.232605 0.000000
0.500366 0.232605 0.000000
0.540009 0.232605 0.000000
0.578156 0.232605 0.000000
0.615326 0.232605 0.000000
0.649719 0.232605 0.000000
0.682190 0.232605 0.000000
0.713898 0.233185 0.000000
0.744781 0.236328 0.000000
0.775116 0.239960 0.000000
0.804932 0.244263 0.000000
0.834229 0.249084 0.000000
0.862946 0.254242 0.000000
0.891266 0.259918 0.000000
0.919067 0.265778 0.000000
0.946442 0.268036 0.000000
0.973419 0.266052 0.000000
1.000000 0.264099 0.000000
0.000000 0.266022 0.000000
0.021149 0.264954 0.000000
0.044281 0.263733 0.000000
0.069336 0.262451 0.000000
0.096619 0.261047 0.000000
0.127136 0.260559 0.000000
0.159912 0.260559 0.000000
0.195007 0.260559 0.000000
0.232513 0.260559 0.000000
0.271484 0.260559 0.000000
0.312042 0.260559 0.000000
0.353607 0.260559 0.000000
0.395477 0.260559 0.000000
0.436920 0.260559 0.000000
0.477112 0.260559 0.000000
0.516479 0.260559 0.000000
0.554626 0.260559 0.000000
0.589844 0.260559 0.000000
0.623077 0.260559 0.000000
0.655396 0.261108 0.000000
0.686859 0.264282 0.000000
0.717834 0.268188 0.000000
0.748230 0.272675 0.000000
0.778076 0.277588 0.000000
0.807404 0.283112 0.000000
0.836212 0.288879 0.000000
0.864563 0.295166 0.000000
0.892487 0.297729 0.000000
0.919922 0.295715 0.000000
0.946991 0.293640 0.000000
0.973663 0.291504 0.000000
1.000000 0.289459 0.000000
0.000000 0.292755 0.000000
0.022430 0.291382 0.000000
0.047058 0.289917 0.000000
0.074554 0.289398 0.000000
0.104736 0.289398 0.000000
0.137299 0.289398 0.000000
0.172394 0.289398 0.000000
0.209656 0.289398 0.000000
0.248627 0.289398 0.000000
0.288788 0.289398 0.000000
0.331085 0.289398 0.000000
0.372894 0.289398 0.000000
0.414062 0.289398 0.000000
0.454285 0.289398 0.000000
0.493134 0.289398 0.000000
0.529388 0.289398 0.000000
0.563354 0.289398 0.000000
0.596283 0.289825 0.000000
0.628448 0.293152 0.000000
0.660004 0.297180 0.000000
0.690979 0.301697 0.000000
0.721436 0.306885 0.000000
0.751373 0.312592 0.000000
0.780731 0.318573 0.000000
0.809631 0.325104 0.000000
0.838043 0.328033 0.000000
0.865997 0.325867 0.000000
0.893555 0.323700 0.000000
0.920685 0.321564 0.000000
0.947449 0.319397 0.000000
0.973877 0.317230 0.000000
1.000000 0.315155 0.000000
0.000000 0.319702 0.000000
0.024292 0.319061 0.000000
0.051392 0.319061 0.000000
0.081085 0.319061 0.000000
0.113678 0.319061 0.000000
0.148621 0.319061 0.000000
0.185516 0.319061 0.000000
0.224304 0.319061 0.000000
0.266510 0.319061 0.000000
0.308716 0.319061 0.000000
0.350525 0.319061 0.000000
0.391266 0.319061 0.000000
0.431183 0.319061 0.000000
0.468323 0.319061 0.000000
0.502869 0.319061 0.000000
0.536560 0.319427 0.000000
0.569366 0.322845 0.000000
0.601532 0.326843 0.000000
0.633148 0.331573 0.000000
0.664246 0.336884 0.000000
0.694702 0.342590 0.000000
0.724701 0.348877 0.000000
0.754120 0.355377 0.000000
0.783112 0.358765 0.000000
0.811584 0.356567 0.000000
0.839630 0.354401 0.000000
0.867249 0.352173 0.000000
0.894470 0.349915 0.000000
0.921326 0.347748 0.000000
0.947845 0.345551 0.000000
0.974060 0.343414 0.000000
1.000000 0.341370 0.000000
0.000000 0.349609 0.000000
0.026642 0.349609 0.000000
0.056213 0.349609 0.000000
0.088409 0.349609 0.000000
0.123108 0.349609 0.000000
0.159973 0.349609 0.000000
0.201355 0.349609 0.000000
0.244019 0.349609 0.000000
0.286041 0.349609 0.000000
0.327698 0.349609 0.000000
0.368408 0.349609 0.000000
0.406281 0.349609 0.000000
0.441650 0.349609 0.000000
0.476044 0.349915 0.000000
0.509430 0.353241 0.000000
0.542328 0.357391 0.000000
0.574646 0.362213 0.000000
0.606293 0.367462 0.000000
0.637451 0.373383 0.000000
0.668030 0.379761 0.000000
0.698029 0.386353 0.000000
0.727570 0.390045 0.000000
0.756592 0.387878 0.000000
0.785187 0.385620 0.000000
0.813293 0.383331 0.000000
0.841003 0.381104 0.000000
0.868286 0.378845 0.000000
0.895233 0.376617 0.000000
0.921844 0.374481 0.000000
0.948151 0.372345 0.000000
0.974182 0.370300 0.000000
1.000000 0.368408 0.000000
0.000000 0.381012 0.000000
0.029236 0.381012 0.000000
0.061279 0.381012 0.000000
0.095764 0.381012 0.000000
0.135803 0.381012 0.000000
0.178467 0.381012 0.000000
0.220947 0.381012 0.000000
0.263123 0.381012 0.000000
0.304291 0.381012 0.000000
0.343292 0.381012 0.000000
0.379425 0.381012 0.000000
0.414490 0.381165 0.000000
0.448700 0.384583 0.000000
0.482269 0.388763 0.000000
0.515198 0.393463 0.000000
0.547577 0.398865 0.000000
0.579437 0.404816 0.000000
0.610596 0.411072 0.000000
0.641266 0.417908 0.000000
0.671387 0.421906 0.000000
0.700989 0.419678 0.000000
0.730133 0.417389 0.000000
0.758759 0.415131 0.000000
0.786957 0.412842 0.000000
0.814728 0.410553 0.000000
0.842102 0.408356 0.000000
0.869141 0.406158 0.000000
0.895844 0.403992 0.000000
0.922241 0.401978 0.000000
0.948364 0.400024 0.000000
0.974274 0.398193 0.000000
1.000000 0.396484 0.000000
0.000000 0.413300 0.000000
0.031860 0.413300 0.000000
0.068878 0.413300 0.000000
0.110229 0.413300 0.000000
0.153412 0.413300 0.000000
0.196747 0.413300 0.000000
0.239014 0.413300 0.000000
0.278931 0.413300 0.000000
0.315735 0.413300 0.000000
0.351776 0.413391 0.000000
0.386810 0.416809 0.000000
0.421082 0.420807 0.000000
0.454834 0.425629 0.000000
0.487976 0.431030 0.000000
0.520416 0.436798 0.000000
0.552338 0.443207 0.000000
0.583710 0.450012 0.000000
0.614441 0.454254 0.000000
0.644684 0.451996 0.000000
0.674377 0.449707 0.000000
0.703552 0.447479 0.000000
0.732269 0.445190 0.000000
0.760559 0.442932 0.000000
0.788422 0.440704 0.000000
0.815887 0.438477 0.000000
0.842987 0.436371 0.000000
0.869781 0.434326 0.000000
0.896271 0.432343 0.000000
0.922516 0.430542 0.000000
0.948517 0.428802 0.000000
0.974335 0.432190 0.000000
1.000000 0.436249 0.000000
0.000000 0.446411 0.000000
0.038086 0.446411 0.000000
0.080627 0.446411 0.000000
0.124969 0.446411 0.000000
0.169617 0.446411 0.000000
0.211975 0.446411 0.000000
0.250488 0.446411 0.000000
0.287506 0.446411 0.000000
0.323303 0.449707 0.000000
0.358612 0.453766 0.000000
0.393219 0.458496 0.000000
0.427094 0.463715 0.000000
0.460419 0.469574 0.000000
0.493103 0.475891 0.000000
0.525085 0.482483 0.000000
0.556580 0.487091 0.000000
0.587494 0.484863 0.000000
0.617798 0.482635 0.000000
0.647614 0.480377 0.000000
0.676880 0.478149 0.000000
0.705719 0.475861 0.000000
0.734070 0.473633 0.000000
0.762024 0.471497 0.000000
0.789581 0.469360 0.000000
0.816772 0.467316 0.000000
0.843658 0.465393 0.000000
0.870209 0.463562 0.000000
0.896545 0.461823 0.000000
0.922638 0.464935 0.000000
0.948547 0.469055 0.000000
0.974335 0.472626 0.000000
1.000000 0.475800 0.000000
0.000000 0.480377 0.000000
0.044617 0.480377 0.000000
0.091461 0.480377 0.000000
0.137421 0.480377 0.000000
0.179993 0.480377 0.000000
0.220093 0.480377 0.000000
0.257965 0.483521 0.000000
0.294342 0.487488 0.000000
0.329834 0.492004 0.000000
0.364807 0.497253 0.000000
0.399048 0.502991 0.000000
0.432526 0.509064 0.000000
0.465424 0.515686 0.000000
0.497650 0.520416 0.000000
0.529236 0.518280 0.000000
0.560272 0.516052 0.000000
0.590790 0.513824 0.000000
0.620667 0.511627 0.000000
0.650085 0.509399 0.000000
0.678986 0.507233 0.000000
0.707458 0.505096 0.000000
0.735504 0.502991 0.000000
0.763153 0.501038 0.000000
0.790436 0.499084 0.000000
0.817383 0.497284 0.000000
0.844055 0.495636 0.000000
0.870453 0.498474 0.000000
0.896606 0.502594 0.000000
0.922638 0.506073 0.000000
0.948517 0.509216 0.000000
0.974274 0.512268 0.000000
1.000000 0.515442 0.000000
0.000000 0.515228 0.000000
0.050140 0.515228 0.000000
0.098450 0.515228 0.000000
0.144073 0.515228 0.000000
0.186737 0.518158 0.000000
0.226654 0.521942 0.000000
0.264465 0.526428 0.000000
0.300598 0.531525 0.000000
0.335815 0.536957 0.000000
0.370422 0.542999 0.000000
0.404266 0.549438 0.000000
0.437378 0.554321 0.000000
0.469849 0.552185 0.000000
0.501678 0.550018 0.000000
0.532837 0.547882 0.000000
0.563477 0.545715 0.000000
0.593536 0.543610 0.000000
0.623047 0.541443 0.000000
0.652100 0.539337 0.000000
0.680664 0.537354 0.000000
0.708801 0.535370 0.000000
0.736542 0.533508 0.000000
0.763916 0.531769 0.000000
0.790985 0.530090 0.000000
0.817719 0.532715 0.000000
0.844177 0.536652 0.000000
0.870453 0.540192 0.000000
0.896606 0.543121 0.000000
0.922485 0.546234 0.000000
0.948273 0.549286 0.000000
0.974091 0.552582 0.000000
1.000000 0.555817 0.000000
0.000000 0.550903 0.000000
0.053070 0.550903 0.000000
0.102905 0.553589 0.000000
0.149384 0.557281 0.000000
0.192566 0.561615 0.000000
0.232666 0.566376 0.000000
0.270355 0.571747 0.000000
0.306244 0.577576 0.000000
0.341156 0.583588 0.000000
0.375427 0.588684 0.000000
0.408905 0.586639 0.000000
0.441620 0.584595 0.000000
0.473694 0.582489 0.000000
0.505066 0.580444 0.000000
0.535858 0.578339 0.000000
0.566101 0.576263 0.000000
0.595795 0.574280 0.000000
0.624969 0.572327 0.000000
0.653656 0.570404 0.000000
0.681885 0.568634 0.000000
0.709747 0.566895 0.000000
0.737213 0.565308 0.000000
0.764343 0.567596 0.000000
0.791107 0.571472 0.000000
0.817719 0.574890 0.000000
0.844147 0.577789 0.000000
0.870239 0.580719 0.000000
0.896118 0.583618 0.000000
0.921936 0.586884 0.000000
0.947754 0.590027 0.000000
0.973755 0.592865 0.000000
1.000000 0.595612 0.000000
0.000000 0.589935 0.000000
0.055420 0.593445 0.000000
0.106812 0.597443 0.000000
0.154236 0.602081 0.000000
0.197845 0.607208 0.000000
0.238068 0.612610 0.000000
0.275635 0.618500 0.000000
0.311279 0.623566 0.000000
0.345886 0.621674 0.000000
0.379791 0.619659 0.000000
0.412933 0.617645 0.000000
0.445251 0.615692 0.000000
0.476929 0.613678 0.000000
0.507935 0.611755 0.000000
0.538330 0.609802 0.000000
0.568176 0.607910 0.000000
0.597534 0.606140 0.000000
0.626373 0.604401 0.000000
0.654724 0.602753 0.000000
0.682678 0.601288 0.000000
0.710266 0.603302 0.000000
0.737396 0.606995 0.000000
0.764343 0.610199 0.000000
0.791107 0.613037 0.000000
0.817444 0.615814 0.000000
0.843445 0.618591 0.000000
0.869293 0.621704 0.000000
0.895111 0.624634 0.000000
0.921021 0.627441 0.000000
0.947052 0.630096 0.000000
0.973358 0.632538 0.000000
1.000000 0.634857 0.000000
0.000000 0.634186 0.000000
0.057556 0.638550 0.000000
0.110352 0.643219 0.000000
0.158600 0.648438 0.000000
0.202606 0.653992 0.000000
0.242889 0.658997 0.000000
0.280334 0.657135 0.000000
0.315704 0.655273 0.000000
0.349976 0.653412 0.000000
0.383575 0.651520 0.000000
0.416290 0.649658 0.000000
0.448273 0.647797 0.000000
0.479584 0.645966 0.000000
0.510193 0.644226 0.000000
0.540253 0.642517 0.000000
0.569733 0.640869 0.000000
0.598755 0.639374 0.000000
0.627258 0.637909 0.000000
0.655334 0.639709 0.000000
0.682922 0.643127 0.000000
0.710266 0.646240 0.000000
0.737396 0.648865 0.000000
0.764008 0.651489 0.000000
0.790192 0.654144 0.000000
0.816162 0.657013 0.000000
0.841980 0.659851 0.000000
0.867798 0.662476 0.000000
0.893738 0.664948 0.000000
0.919830 0.667297 0.000000
0.946228 0.669495 0.000000
0.972931 0.671539 0.000000
1.000000 0.673492 0.000000
0.000000 0.680054 0.000000
0.059479 0.684906 0.000000
0.113525 0.689911 0.000000
0.162506 0.694855 0.000000
0.206818 0.693146 0.000000
0.247131 0.691437 0.000000
0.284393 0.689697 0.000000
0.319489 0.687927 0.000000
0.353455 0.686218 0.000000
0.386688 0.684479 0.000000
0.419067 0.682831 0.000000
0.450684 0.681152 0.000000
0.481628 0.679565 0.000000
0.511871 0.678070 0.000000
0.541565 0.676636 0.000000
0.570740 0.675262 0.000000
0.599426 0.676697 0.000000
0.627533 0.679993 0.000000
0.655334 0.682922 0.000000
0.682892 0.685303 0.000000
0.709839 0.687805 0.000000
0.736328 0.690125 0.000000
0.762421 0.692932 0.000000
0.788300 0.695557 0.000000
0.814148 0.697968 0.000000
0.839966 0.700287 0.000000
0.865906 0.702454 0.000000
0.892090 0.704498 0.000000
0.918549 0.706451 0.000000
0.945312 0.708252 0.000000
0.972443 0.709930 0.000000
1.000000 0.711578 0.000000
0.000000 0.726562 0.000000
0.061188 0.731262 0.000000
0.116333 0.729736 0.000000
0.165924 0.728149 0.000000
0.210480 0.726532 0.000000
0.250763 0.724976 0.000000
0.287842 0.723358 0.000000
0.322632 0.721771 0.000000
0.356293 0.720245 0.000000
0.389191 0.718750 0.000000
0.421204 0.717316 0.000000
0.452484 0.715912 0.000000
0.483032 0.714600 0.000000
0.512970 0.713379 0.000000
0.542328 0.714569 0.000000
0.571045 0.717590 0.000000
0.599457 0.720184 0.000000
0.627533 0.722443 0.000000
0.654877 0.724731 0.000000
0.681671 0.726837 0.000000
0.707977 0.729401 0.000000
0.734039 0.731750 0.000000
0.759888 0.733978 0.000000
0.785675 0.736115 0.000000
0.811554 0.738098 0.000000
0.837555 0.739960 0.000000
0.863770 0.741730 0.000000
0.890289 0.743378 0.000000
0.917145 0.744934 0.000000
0.944397 0.746429 0.000000
0.972015 0.747772 0.000000
1.000000 0.749115 0.000000
0.000000 0.766785 0.000000
0.062714 0.765381 0.000000
0.118774 0.763977 0.000000
0.168854 0.762512 0.000000
0.213562 0.761078 0.000000
0.253815 0.759705 0.000000
0.290649 0.758331 0.000000
0.325134 0.756989 0.000000
0.358490 0.755707 0.000000
0.391052 0.754456 0.000000
0.422699 0.753296 0.000000
0.453613 0.752197 0.000000
0.483856 0.753143 0.000000
0.513306 0.755768 0.000000
0.542358 0.758148 0.000000
0.571045 0.760193 0.000000
0.598969 0.762177 0.000000
0.626160 0.764099 0.000000
0.652832 0.766327 0.000000
0.679047 0.768463 0.000000
0.704987 0.770508 0.000000
0.730865 0.772369 0.000000
0.756653 0.774170 0.000000
0.782532 0.775848 0.000000
0.808624 0.777405 0.000000
0.834930 0.778900 0.000000
0.861511 0.780304 0.000000
0.888489 0.781616 0.000000
0.915833 0.782837 0.000000
0.943542 0.783997 0.000000
0.971680 0.785400 0.000000
1.000000 0.787170 0.000000
0.000000 0.801910 0.000000
0.063995 0.800690 0.000000
0.120880 0.799469 0.000000
0.171295 0.798248 0.000000
0.216095 0.797028 0.000000
0.256226 0.795898 0.000000
0.292816 0.794739 0.000000
0.326996 0.793701 0.000000
0.360046 0.792664 0.000000
0.392242 0.791718 0.000000
0.423584 0.792419 0.000000
0.454010 0.794708 0.000000
0.483887 0.796814 0.000000
0.513306 0.798553 0.000000
0.541870 0.800323 0.000000
0.569580 0.801971 0.000000
0.596680 0.803894 0.000000
0.623199 0.805725 0.000000
0.649414 0.807465 0.000000
0.675323 0.809113 0.000000
0.701141 0.810669 0.000000
0.727020 0.812103 0.000000
0.752960 0.813507 0.000000
0.779114 0.814789 0.000000
0.805542 0.815979 0.000000
0.832245 0.817139 0.000000
0.859314 0.818237 0.000000
0.886780 0.819214 0.000000
0.914825 0.820435 0.000000
0.943268 0.821899 0.000000
0.971680 0.823334 0.000000
1.000000 0.824646 0.000000
0.000000 0.838409 0.000000
0.065094 0.837372 0.000000
0.122559 0.836395 0.000000
0.173248 0.835419 0.000000
0.218048 0.834503 0.000000
0.258026 0.833588 0.000000
0.294373 0.832733 0.000000
0.328247 0.831970 0.000000
0.360931 0.832458 0.000000
0.392639 0.834412 0.000000
0.423615 0.836090 0.000000
0.454010 0.837585 0.000000
0.483398 0.839020 0.000000
0.511780 0.840363 0.000000
