Avant Garde/Striped Purple - Caramel Plum Cake.cube
#Created by: Adobe Photoshop Export Color Lookup Plugin
#Copyright: (C) Copyright 2019 Caramel Plum Cake by Striped Purple © Austin Barrett All rights reserved.
TITLE "Caramel Plum Cake"
#LUT size
LUT_3D_SIZE 8
#data domain
#LUT data points
DOMAIN_MIN 0.000000 0.000000 0.000000
DOMAIN_MAX 0.903226 0.903226 0.903226
0.113739 0.113739 0.113739
0.147858 0.115417 0.115906
0.194702 0.117584 0.118591
0.265472 0.120544 0.122101
0.387390 0.124725 0.126862
0.571045 0.129883 0.132385
0.762482 0.134521 0.137115
0.918396 0.140472 0.143158
0.113770 0.125732 0.113739
0.155365 0.139038 0.120300
0.204956 0.142426 0.123230
0.281189 0.147064 0.127045
0.414429 0.153778 0.132294
0.607178 0.161682 0.138153
0.806427 0.168915 0.143219
0.941833 0.180389 0.153656
0.113770 0.144135 0.113739
0.149170 0.165436 0.115509
0.218140 0.184845 0.129425
0.302307 0.192780 0.133759
0.449280 0.203949 0.139618
0.652679 0.216827 0.145996
0.857300 0.228973 0.151550
0.965210 0.251831 0.172028
0.113770 0.173248 0.113770
0.145050 0.204712 0.113770
0.213593 0.237183 0.123810
0.333313 0.277039 0.143127
0.495117 0.297241 0.149780
0.710693 0.322418 0.157104
0.920563 0.345337 0.163361
0.985596 0.386261 0.208160
0.113770 0.222321 0.113770
0.145172 0.269775 0.113770
0.208099 0.330200 0.116211
0.338654 0.397766 0.137726
0.558197 0.482819 0.163910
0.775635 0.520386 0.171539
0.983124 0.546814 0.177704
1.000000 0.597107 0.283783
0.113770 0.294922 0.113770
0.146118 0.364166 0.113770
0.205902 0.457733 0.113770
0.331635 0.554810 0.129333
0.545837 0.663574 0.156830
0.804504 0.762665 0.184418
0.983032 0.780487 0.221710
0.983063 0.810333 0.455750
0.113770 0.367981 0.113770
0.145782 0.455200 0.113770
0.201599 0.567322 0.113770
0.307526 0.690948 0.120361
0.499695 0.805206 0.145386
0.752747 0.920929 0.173370
0.966309 0.959198 0.429382
0.966370 0.961639 0.959778
0.113770 0.434357 0.113770
0.143158 0.529999 0.113770
0.193085 0.649933 0.113770
0.282104 0.802887 0.113770
0.461761 0.926514 0.136322
0.746490 0.935516 0.314209
0.946838 0.939392 0.936615
0.944122 0.936279 0.933350
0.116302 0.115143 0.137421
0.157104 0.120300 0.144867
0.206024 0.122742 0.148315
0.282532 0.126160 0.152985
0.414001 0.130951 0.159119
0.601837 0.136566 0.166016
0.795197 0.141602 0.172089
0.918579 0.151520 0.182037
0.113770 0.129242 0.132324
0.146088 0.132843 0.136230
0.195007 0.136017 0.139618
0.271240 0.140472 0.144043
0.403778 0.146851 0.150146
0.589600 0.154114 0.156830
0.778595 0.160614 0.162506
0.944611 0.168030 0.169037
0.113770 0.148956 0.130676
0.139862 0.157990 0.131256
0.208099 0.176819 0.147003
0.292572 0.184570 0.152069
0.438171 0.195404 0.158875
0.633087 0.207733 0.166168
0.831482 0.219727 0.172668
0.968048 0.237122 0.186676
0.113770 0.180206 0.130310
0.131744 0.199982 0.124542
0.204315 0.228485 0.141327
0.323700 0.267578 0.163269
0.486267 0.288635 0.171265
0.690613 0.312500 0.179535
0.893829 0.334015 0.186707
0.985596 0.366882 0.219971
0.113770 0.232605 0.130341
0.122314 0.274994 0.116302
0.198914 0.320099 0.133331
0.329834 0.387909 0.158173
0.545685 0.471161 0.187744
0.751831 0.504822 0.196167
0.954193 0.528931 0.203094
1.000000 0.572510 0.287048
0.113770 0.307983 0.130371
0.120300 0.372803 0.113770
0.191071 0.447144 0.124847
0.320099 0.534515 0.148956
0.525848 0.638031 0.179230
0.776306 0.733734 0.209747
0.977448 0.755066 0.216522
0.983063 0.784088 0.430054
0.113770 0.382355 0.130341
0.119812 0.461456 0.113770
0.177124 0.567200 0.116699
0.293427 0.660950 0.138519
0.480804 0.772888 0.166504
0.727539 0.886963 0.197479
0.966309 0.958649 0.330536
0.966370 0.948639 0.865387
0.113770 0.451477 0.130157
0.117767 0.533386 0.113770
0.165894 0.656311 0.113770
0.268646 0.770050 0.129730
0.447205 0.892670 0.156830
0.714355 0.935394 0.285309
0.936493 0.939362 0.848969
0.944122 0.936279 0.933350
0.119446 0.116974 0.171875
0.161316 0.122589 0.181854
0.220886 0.129822 0.193970
0.304626 0.133942 0.200836
0.448212 0.139557 0.209564
0.643433 0.145966 0.219757
0.840485 0.151733 0.228943
0.921692 0.168274 0.243378
0.113922 0.132538 0.167999
0.149567 0.135162 0.171631
0.209076 0.144073 0.183624
0.292664 0.149261 0.190125
0.436676 0.156464 0.198792
0.626373 0.164307 0.208160
0.819550 0.171478 0.216797
0.944794 0.184296 0.229248
0.113770 0.154358 0.159943
0.142700 0.160706 0.166016
0.195587 0.166962 0.171753
0.280121 0.174530 0.178223
0.423218 0.184937 0.186890
0.605713 0.196014 0.195709
0.792938 0.207031 0.203949
0.965149 0.216553 0.211365
0.113770 0.188324 0.157227
0.134430 0.204315 0.158691
0.192322 0.217224 0.166321
0.310577 0.255341 0.192261
0.470032 0.275879 0.202484
0.659424 0.297150 0.212463
0.852966 0.315948 0.221619
0.982727 0.336914 0.240723
0.113770 0.244476 0.156372
0.124146 0.281433 0.149261
0.186859 0.305359 0.158173
0.316406 0.372406 0.187988
0.523468 0.451447 0.222626
0.714630 0.478119 0.232452
0.909698 0.499023 0.241302
0.997131 0.530396 0.295624
0.113770 0.323700 0.156067
0.113770 0.389191 0.139648
0.178162 0.421844 0.149231
0.302582 0.505035 0.177551
0.495331 0.599854 0.211914
0.739532 0.695160 0.248230
0.931824 0.711487 0.256866
0.985840 0.745728 0.405914
0.113770 0.402863 0.156036
0.113770 0.478241 0.138733
0.162262 0.529022 0.139771
0.273560 0.618286 0.165222
0.452393 0.725739 0.197876
0.690033 0.838379 0.234314
0.950989 0.940704 0.271515
0.966339 0.922607 0.722961
0.113770 0.473572 0.155548
0.113770 0.553986 0.139221
0.146637 0.625793 0.131714
0.252045 0.724396 0.156128
0.423553 0.844208 0.187897
0.664795 0.935242 0.256470
0.904449 0.936127 0.660095
0.944122 0.936279 0.933350
0.123383 0.119263 0.224060
0.165955 0.125153 0.237701
0.228973 0.133606 0.257141
0.335297 0.145081 0.282440
0.494690 0.152069 0.298279
0.696594 0.159546 0.315704
0.897858 0.166412 0.332703
0.922058 0.194672 0.346497
0.117859 0.135559 0.220825
0.154297 0.138397 0.226593
0.216949 0.148682 0.245453
0.323944 0.162689 0.270355
0.482391 0.171356 0.285736
0.679962 0.180573 0.302551
0.877228 0.189056 0.318634
0.945038 0.213684 0.336884
0.113770 0.160431 0.212006
0.147491 0.165192 0.221497
0.201447 0.171326 0.229675
0.307129 0.189362 0.253235
0.462219 0.201111 0.267700
0.650726 0.213806 0.283264
0.836273 0.225067 0.296783
0.965271 0.242706 0.314117
0.113770 0.197998 0.203217
0.139465 0.211395 0.214600
0.195526 0.221161 0.222351
0.292877 0.239380 0.237030
0.443237 0.258423 0.251312
0.619324 0.276642 0.265259
0.796356 0.290436 0.277069
0.966217 0.301270 0.287415
0.113770 0.259766 0.199890
0.129150 0.292603 0.204895
0.188477 0.309967 0.213135
0.296326 0.348877 0.234344
0.489685 0.420959 0.277618
0.664825 0.440063 0.290131
0.846558 0.454590 0.301819
0.997131 0.473633 0.324066
0.113770 0.344482 0.198517
0.118164 0.404175 0.194122
0.177948 0.422852 0.202606
0.276123 0.462128 0.221008
0.455200 0.550476 0.263367
0.684998 0.637146 0.309052
0.871582 0.654907 0.321747
0.983002 0.684570 0.396149
0.113770 0.427979 0.198090
0.113770 0.502045 0.188354
0.162048 0.531403 0.192352
0.248779 0.566956 0.207092
0.416260 0.667267 0.247284
0.639496 0.772552 0.292328
0.892090 0.874023 0.342316
0.963470 0.877136 0.585907
0.113770 0.502167 0.197113
0.113770 0.581635 0.186890
0.148682 0.631439 0.184326
0.230438 0.665894 0.196869
0.391937 0.780914 0.236267
0.612000 0.895233 0.284637
0.850494 0.932709 0.481689
0.941315 0.933105 0.930023
0.128326 0.122284 0.310089
0.172272 0.128693 0.332916
0.237854 0.137817 0.363983
0.355194 0.152069 0.409760
0.554382 0.169769 0.465363
0.764984 0.178650 0.496216
0.922150 0.194580 0.511810
0.922455 0.233978 0.501953
0.122894 0.139496 0.309143
0.160400 0.142670 0.319580
0.225800 0.153809 0.350464
0.344818 0.171509 0.397461
0.543945 0.192627 0.452576
0.748413 0.203156 0.481445
0.947998 0.213806 0.508606
0.945374 0.257080 0.501984
0.115784 0.166595 0.305603
0.153778 0.171295 0.316711
0.210724 0.178070 0.330811
0.327087 0.200684 0.375244
0.520508 0.227997 0.428253
0.715698 0.242706 0.454773
0.906464 0.255585 0.477600
0.968353 0.291748 0.489685
0.113770 0.209473 0.288116
0.145813 0.220428 0.310181
0.204681 0.231354 0.324188
0.305237 0.249329 0.346436
0.482819 0.285980 0.392181
0.660461 0.303802 0.413879
0.841827 0.318024 0.433167
0.988495 0.339447 0.454865
0.113770 0.278656 0.277161
0.135559 0.307373 0.300049
0.197784 0.326782 0.315308
0.296204 0.349884 0.334106
0.445465 0.380371 0.361969
0.605682 0.394806 0.377380
0.780060 0.408417 0.393921
0.947937 0.420654 0.408081
0.113770 0.369873 0.271393
0.124237 0.421478 0.286163
0.185242 0.440460 0.300201
0.273987 0.461182 0.315948
0.408722 0.491821 0.340393
0.625916 0.575134 0.400970
0.803650 0.593597 0.417816
0.972168 0.610779 0.434601
0.113770 0.456787 0.267700
0.113770 0.529541 0.272827
0.168121 0.550110 0.284790
0.250488 0.570953 0.299255
0.377441 0.605011 0.320831
0.588226 0.705353 0.381226
0.824280 0.798553 0.445740
0.963379 0.816162 0.514252
0.113770 0.534912 0.264679
0.113770 0.611664 0.265289
0.155029 0.652191 0.272095
0.235626 0.675720 0.285950
0.361115 0.712952 0.309113
0.567200 0.821503 0.372406
0.780487 0.909973 0.431763
0.941284 0.933044 0.868896
0.134430 0.126160 0.461151
0.179871 0.133057 0.495697
0.248657 0.143005 0.543030
0.374084 0.158539 0.610474
0.589935 0.180695 0.699463
0.838867 0.201324 0.775574
0.925446 0.234924 0.723877
0.925720 0.283325 0.672516
0.129059 0.144653 0.464325
0.167938 0.148102 0.481201
0.237335 0.160309 0.529205
0.363007 0.179199 0.597168
0.578156 0.205505 0.683838
0.821594 0.229919 0.755646
0.945435 0.256561 0.731903
0.948486 0.310883 0.682831
0.121887 0.173615 0.462891
0.161560 0.178650 0.479797
0.221649 0.186340 0.503052
0.345673 0.210876 0.569397
0.553040 0.244385 0.648804
0.781281 0.275421 0.711487
0.968384 0.289459 0.732452
0.968475 0.350433 0.682190
0.113770 0.222046 0.449982
0.153412 0.231750 0.474121
0.215302 0.243469 0.494354
0.322052 0.263458 0.527344
0.511993 0.307434 0.595337
0.721649 0.344543 0.651093
0.905457 0.357971 0.670776
0.985687 0.402496 0.665497
0.113770 0.299866 0.415527
0.142853 0.324432 0.458923
0.207336 0.343750 0.478546
0.308990 0.367126 0.502808
0.451721 0.388397 0.527069
0.646729 0.430969 0.580505
0.828674 0.447784 0.601990
0.997131 0.466705 0.620300
0.113770 0.396301 0.393250
0.130707 0.440094 0.432495
0.192291 0.458588 0.449585
0.282745 0.478424 0.468475
0.411591 0.496948 0.488098
0.573059 0.521088 0.512024
0.743713 0.541626 0.531250
0.911316 0.565918 0.552551
0.113770 0.486908 0.377228
0.117371 0.550049 0.405151
0.174500 0.569061 0.420990
0.259216 0.590179 0.438721
0.384583 0.614746 0.458710
0.545807 0.646240 0.486237
0.767883 0.735596 0.561768
0.926880 0.753723 0.581085
0.113770 0.569794 0.366577
0.113770 0.642883 0.382843
0.161713 0.672913 0.396851
0.245300 0.696747 0.414001
0.374542 0.726044 0.439117
0.528107 0.756866 0.468353
0.728363 0.844513 0.534546
0.933380 0.923553 0.598175
0.140900 0.130432 0.683502
0.187866 0.137787 0.724365
0.260864 0.148499 0.781189
0.392700 0.164856 0.856415
0.601593 0.191956 0.912262
0.793671 0.231354 0.912598
0.925812 0.277710 0.899689
0.923218 0.334900 0.808044
0.135345 0.149994 0.686157
0.175873 0.153809 0.705780
0.248596 0.166718 0.760223
0.380676 0.186493 0.835999
0.600555 0.213531 0.929199
0.806580 0.253876 0.939148
0.948547 0.303589 0.925476
0.948730 0.368225 0.830780
0.127991 0.180969 0.685059
0.169067 0.186005 0.699005
0.232025 0.194275 0.723053
0.362549 0.220184 0.796906
0.572540 0.254761 0.882904
0.806061 0.289215 0.957031
0.971405 0.340576 0.951935
0.968628 0.413361 0.844360
0.117828 0.233215 0.668732
0.160400 0.242310 0.682251
0.225128 0.255035 0.702271
0.336517 0.276062 0.737396
0.527344 0.320007 0.813660
0.740936 0.359436 0.880066
0.960571 0.395660 0.941101
0.988586 0.472321 0.852478
0.113770 0.319305 0.605530
0.149231 0.340149 0.652893
0.215698 0.359589 0.672577
0.318878 0.380463 0.696777
0.463165 0.401550 0.725189
0.665405 0.448059 0.793152
0.882141 0.493225 0.853882
0.997131 0.538666 0.837189
0.113770 0.419464 0.548248
0.136017 0.456238 0.608063
0.198090 0.472778 0.624298
0.290527 0.493286 0.647919
0.423035 0.512360 0.669708
0.584747 0.534698 0.693481
0.790741 0.590546 0.751282
0.956299 0.613464 0.770081
0.113770 0.513489 0.513641
0.122192 0.566833 0.564697
0.180176 0.585693 0.582794
0.267151 0.605469 0.601471
0.397217 0.632660 0.626617
0.560089 0.661469 0.652588
0.720367 0.683533 0.673737
0.873596 0.701508 0.691040
0.113770 0.599182 0.489868
0.113770 0.669037 0.528442
0.168060 0.691254 0.545502
0.255096 0.715607 0.566071
0.390167 0.742767 0.591675
0.539307 0.769806 0.617126
0.685730 0.790833 0.637115
0.884521 0.868317 0.706940
0.146149 0.134033 0.911102
0.195526 0.143066 0.911591
0.268921 0.157166 0.911774
0.391388 0.181610 0.912048
0.564636 0.221252 0.912384
0.723969 0.270050 0.912689
0.844788 0.325867 0.912933
0.926300 0.389374 0.911041
0.140442 0.154572 0.913635
0.182343 0.158539 0.930359
0.258118 0.174011 0.938599
0.387268 0.201202 0.938782
0.570160 0.244598 0.942352
0.735046 0.297058 0.939240
0.864868 0.358582 0.942719
0.948914 0.426941 0.937469
0.132874 0.186981 0.908264
0.175323 0.192505 0.923279
0.240906 0.201141 0.944336
0.375549 0.232147 0.962402
0.564301 0.280792 0.965973
0.736511 0.337463 0.962708
0.873688 0.402435 0.962799
0.971619 0.479645 0.964508
0.122345 0.242279 0.884979
0.166260 0.251892 0.896149
0.233734 0.265839 0.918213
0.348755 0.287018 0.951141
0.534851 0.334839 0.982941
0.719727 0.391876 0.983002
0.878632 0.461121 0.986450
0.988647 0.543732 0.985046
0.113770 0.335388 0.815521
0.154419 0.352997 0.852692
0.222473 0.372986 0.874847
0.327423 0.392487 0.899567
0.473267 0.413116 0.929932
0.677338 0.461823 0.996582
0.864166 0.529572 0.996582
0.997162 0.614624 0.995544
0.113770 0.438568 0.721466
0.140289 0.468781 0.791656
0.203430 0.486053 0.810760
0.297241 0.504974 0.834412
0.433533 0.526215 0.860474
0.597778 0.549347 0.885681
0.808075 0.610504 0.950317
0.983063 0.674835 0.978455
0.113770 0.535400 0.664581
0.126404 0.581055 0.735413
0.185303 0.598389 0.753387
0.275543 0.622528 0.778839
0.410614 0.649353 0.804901
0.573853 0.675629 0.827026
0.735199 0.700165 0.850555
0.917786 0.748108 0.901337
0.113770 0.621399 0.623260
0.115692 0.688080 0.688202
0.173950 0.707031 0.705536
0.265839 0.732391 0.728882
0.404419 0.759155 0.753967
0.551666 0.785034 0.778748
0.695068 0.801453 0.794647
0.842438 0.821106 0.814117
