Avant Garde/Striped Purple - Turquoise.cube
#Created by: Adobe Photoshop Export Color Lookup Plugin
#Copyright: (C) Copyright 2019 Turquoise by Striped Purple - © Austin Barrett All Rights Reserved.
TITLE "Striped Purple - Turquoise"
#LUT size
LUT_3D_SIZE 8
#data domain
#LUT data points
DOMAIN_MIN 0.000000 0.000000 0.000000
DOMAIN_MAX 0.903226 0.903226 0.903226
0.176910 0.330597 0.445709
0.261322 0.330597 0.445709
0.348724 0.330597 0.445709
0.441589 0.330597 0.445709
0.542633 0.330597 0.445709
0.653564 0.330597 0.445709
0.772583 0.330597 0.445709
0.897034 0.330597 0.445709
0.176910 0.418793 0.445709
0.261322 0.418793 0.445709
0.348724 0.418793 0.445709
0.441589 0.418793 0.445709
0.542633 0.418793 0.445709
0.653564 0.418793 0.445709
0.772583 0.418793 0.445709
0.897034 0.418793 0.445709
0.176910 0.503906 0.445709
0.261322 0.503906 0.445709
0.348724 0.503906 0.445709
0.441589 0.503906 0.445709
0.542633 0.503906 0.445709
0.653564 0.503906 0.445709
0.772583 0.503906 0.445709
0.897034 0.503906 0.445709
0.176910 0.584381 0.445709
0.261322 0.584381 0.445709
0.348724 0.584381 0.445709
0.441589 0.584381 0.445709
0.542633 0.584381 0.445709
0.653564 0.584381 0.445709
0.772583 0.584381 0.445709
0.897034 0.584381 0.445709
0.176910 0.659058 0.445709
0.261322 0.659058 0.445709
0.348724 0.659058 0.445709
0.441589 0.659058 0.445709
0.542633 0.659058 0.445709
0.653564 0.659058 0.445709
0.772583 0.659058 0.445709
0.897034 0.659058 0.445709
0.176910 0.728027 0.445709
0.261322 0.728027 0.445709
0.348724 0.728027 0.445709
0.441589 0.728027 0.445709
0.542633 0.728027 0.445709
0.653564 0.728027 0.445709
0.772583 0.728027 0.445709
0.897034 0.728027 0.445709
0.176910 0.792877 0.445709
0.261322 0.792877 0.445709
0.348724 0.792877 0.445709
0.441589 0.792877 0.445709
0.542633 0.792877 0.445709
0.653564 0.792877 0.445709
0.772583 0.792877 0.445709
0.897034 0.792877 0.445709
0.176910 0.855042 0.445709
0.261322 0.855042 0.445709
0.348724 0.855042 0.445709
0.441589 0.855042 0.445709
0.542633 0.855042 0.445709
0.653564 0.855042 0.445709
0.772583 0.855042 0.445709
0.897034 0.855042 0.445709
0.176910 0.330597 0.462677
0.261322 0.330597 0.462677
0.348724 0.330597 0.462677
0.441589 0.330597 0.462677
0.542633 0.330597 0.462677
0.653564 0.330597 0.462677
0.772583 0.330597 0.462677
0.897034 0.330597 0.462677
0.176910 0.418793 0.462677
0.261322 0.418793 0.462677
0.348724 0.418793 0.462677
0.441589 0.418793 0.462677
0.542633 0.418793 0.462677
0.653564 0.418793 0.462677
0.772583 0.418793 0.462677
0.897034 0.418793 0.462677
0.176910 0.503906 0.462677
0.261322 0.503906 0.462677
0.348724 0.503906 0.462677
0.441589 0.503906 0.462677
0.542633 0.503906 0.462677
0.653564 0.503906 0.462677
0.772583 0.503906 0.462677
0.897034 0.503906 0.462677
0.176910 0.584381 0.462677
0.261322 0.584381 0.462677
0.348724 0.584381 0.462677
0.441589 0.584381 0.462677
0.542633 0.584381 0.462677
0.653564 0.584381 0.462677
0.772583 0.584381 0.462677
0.897034 0.584381 0.462677
0.176910 0.659058 0.462677
0.261322 0.659058 0.462677
0.348724 0.659058 0.462677
0.441589 0.659058 0.462677
0.542633 0.659058 0.462677
0.653564 0.659058 0.462677
0.772583 0.659058 0.462677
0.897034 0.659058 0.462677
0.176910 0.728027 0.462677
0.261322 0.728027 0.462677
0.348724 0.728027 0.462677
0.441589 0.728027 0.462677
0.542633 0.728027 0.462677
0.653564 0.728027 0.462677
0.772583 0.728027 0.462677
0.897034 0.728027 0.462677
0.176910 0.792877 0.462677
0.261322 0.792877 0.462677
0.348724 0.792877 0.462677
0.441589 0.792877 0.462677
0.542633 0.792877 0.462677
0.653564 0.792877 0.462677
0.772583 0.792877 0.462677
0.897034 0.792877 0.462677
0.176910 0.855042 0.462677
0.261322 0.855042 0.462677
0.348724 0.855042 0.462677
0.441589 0.855042 0.462677
0.542633 0.855042 0.462677
0.653564 0.855042 0.462677
0.772583 0.855042 0.462677
0.897034 0.855042 0.462677
0.176910 0.330597 0.480835
0.261322 0.330597 0.480835
0.348724 0.330597 0.480835
0.441589 0.330597 0.480835
0.542633 0.330597 0.480835
0.653564 0.330597 0.480835
0.772583 0.330597 0.480835
0.897034 0.330597 0.480835
0.176910 0.418793 0.480835
0.261322 0.418793 0.480835
0.348724 0.418793 0.480835
0.441589 0.418793 0.480835
0.542633 0.418793 0.480835
0.653564 0.418793 0.480835
0.772583 0.418793 0.480835
0.897034 0.418793 0.480835
0.176910 0.503906 0.480835
0.261322 0.503906 0.480835
0.348724 0.503906 0.480835
0.441589 0.503906 0.480835
0.542633 0.503906 0.480835
0.653564 0.503906 0.480835
0.772583 0.503906 0.480835
0.897034 0.503906 0.480835
0.176910 0.584381 0.480835
0.261322 0.584381 0.480835
0.348724 0.584381 0.480835
0.441589 0.584381 0.480835
0.542633 0.584381 0.480835
0.653564 0.584381 0.480835
0.772583 0.584381 0.480835
0.897034 0.584381 0.480835
0.176910 0.659058 0.480835
0.261322 0.659058 0.480835
0.348724 0.659058 0.480835
0.441589 0.659058 0.480835
0.542633 0.659058 0.480835
0.653564 0.659058 0.480835
0.772583 0.659058 0.480835
0.897034 0.659058 0.480835
0.176910 0.728027 0.480835
0.261322 0.728027 0.480835
0.348724 0.728027 0.480835
0.441589 0.728027 0.480835
0.542633 0.728027 0.480835
0.653564 0.728027 0.480835
0.772583 0.728027 0.480835
0.897034 0.728027 0.480835
0.176910 0.792877 0.480835
0.261322 0.792877 0.480835
0.348724 0.792877 0.480835
0.441589 0.792877 0.480835
0.542633 0.792877 0.480835
0.653564 0.792877 0.480835
0.772583 0.792877 0.480835
0.897034 0.792877 0.480835
0.176910 0.855042 0.480835
0.261322 0.855042 0.480835
0.348724 0.855042 0.480835
0.441589 0.855042 0.480835
0.542633 0.855042 0.480835
0.653564 0.855042 0.480835
0.772583 0.855042 0.480835
0.897034 0.855042 0.480835
0.176910 0.330597 0.500946
0.261322 0.330597 0.500946
0.348724 0.330597 0.500946
0.441589 0.330597 0.500946
0.542633 0.330597 0.500946
0.653564 0.330597 0.500946
0.772583 0.330597 0.500946
0.897034 0.330597 0.500946
0.176910 0.418793 0.500946
0.261322 0.418793 0.500946
0.348724 0.418793 0.500946
0.441589 0.418793 0.500946
0.542633 0.418793 0.500946
0.653564 0.418793 0.500946
0.772583 0.418793 0.500946
0.897034 0.418793 0.500946
0.176910 0.503906 0.500946
0.261322 0.503906 0.500946
0.348724 0.503906 0.500946
0.441589 0.503906 0.500946
0.542633 0.503906 0.500946
0.653564 0.503906 0.500946
0.772583 0.503906 0.500946
0.897034 0.503906 0.500946
0.176910 0.584381 0.500946
0.261322 0.584381 0.500946
0.348724 0.584381 0.500946
0.441589 0.584381 0.500946
0.542633 0.584381 0.500946
0.653564 0.584381 0.500946
0.772583 0.584381 0.500946
0.897034 0.584381 0.500946
0.176910 0.659058 0.500946
0.261322 0.659058 0.500946
0.348724 0.659058 0.500946
0.441589 0.659058 0.500946
0.542633 0.659058 0.500946
0.653564 0.659058 0.500946
0.772583 0.659058 0.500946
0.897034 0.659058 0.500946
0.176910 0.728027 0.500946
0.261322 0.728027 0.500946
0.348724 0.728027 0.500946
0.441589 0.728027 0.500946
0.542633 0.728027 0.500946
0.653564 0.728027 0.500946
0.772583 0.728027 0.500946
0.897034 0.728027 0.500946
0.176910 0.792877 0.500946
0.261322 0.792877 0.500946
0.348724 0.792877 0.500946
0.441589 0.792877 0.500946
0.542633 0.792877 0.500946
0.653564 0.792877 0.500946
0.772583 0.792877 0.500946
0.897034 0.792877 0.500946
0.176910 0.855042 0.500946
0.261322 0.855042 0.500946
0.348724 0.855042 0.500946
0.441589 0.855042 0.500946
0.542633 0.855042 0.500946
0.653564 0.855042 0.500946
0.772583 0.855042 0.500946
0.897034 0.855042 0.500946
0.176910 0.330597 0.523987
0.261322 0.330597 0.523987
0.348724 0.330597 0.523987
0.441589 0.330597 0.523987
0.542633 0.330597 0.523987
0.653564 0.330597 0.523987
0.772583 0.330597 0.523987
0.897034 0.330597 0.523987
0.176910 0.418793 0.523987
0.261322 0.418793 0.523987
0.348724 0.418793 0.523987
0.441589 0.418793 0.523987
0.542633 0.418793 0.523987
0.653564 0.418793 0.523987
0.772583 0.418793 0.523987
0.897034 0.418793 0.523987
0.176910 0.503906 0.523987
0.261322 0.503906 0.523987
0.348724 0.503906 0.523987
0.441589 0.503906 0.523987
0.542633 0.503906 0.523987
0.653564 0.503906 0.523987
0.772583 0.503906 0.523987
0.897034 0.503906 0.523987
0.176910 0.584381 0.523987
0.261322 0.584381 0.523987
0.348724 0.584381 0.523987
0.441589 0.584381 0.523987
0.542633 0.584381 0.523987
0.653564 0.584381 0.523987
0.772583 0.584381 0.523987
0.897034 0.584381 0.523987
0.176910 0.659058 0.523987
0.261322 0.659058 0.523987
0.348724 0.659058 0.523987
0.441589 0.659058 0.523987
0.542633 0.659058 0.523987
0.653564 0.659058 0.523987
0.772583 0.659058 0.523987
0.897034 0.659058 0.523987
0.176910 0.728027 0.523987
0.261322 0.728027 0.523987
0.348724 0.728027 0.523987
0.441589 0.728027 0.523987
0.542633 0.728027 0.523987
0.653564 0.728027 0.523987
0.772583 0.728027 0.523987
0.897034 0.728027 0.523987
0.176910 0.792877 0.523987
0.261322 0.792877 0.523987
0.348724 0.792877 0.523987
0.441589 0.792877 0.523987
0.542633 0.792877 0.523987
0.653564 0.792877 0.523987
0.772583 0.792877 0.523987
0.897034 0.792877 0.523987
0.176910 0.855042 0.523987
0.261322 0.855042 0.523987
0.348724 0.855042 0.523987
0.441589 0.855042 0.523987
0.542633 0.855042 0.523987
0.653564 0.855042 0.523987
0.772583 0.855042 0.523987
0.897034 0.855042 0.523987
0.176910 0.330597 0.550537
0.261322 0.330597 0.550537
0.348724 0.330597 0.550537
0.441589 0.330597 0.550537
0.542633 0.330597 0.550537
0.653564 0.330597 0.550537
0.772583 0.330597 0.550537
0.897034 0.330597 0.550537
0.176910 0.418793 0.550537
0.261322 0.418793 0.550537
0.348724 0.418793 0.550537
0.441589 0.418793 0.550537
0.542633 0.418793 0.550537
0.653564 0.418793 0.550537
0.772583 0.418793 0.550537
0.897034 0.418793 0.550537
0.176910 0.503906 0.550537
0.261322 0.503906 0.550537
0.348724 0.503906 0.550537
0.441589 0.503906 0.550537
0.542633 0.503906 0.550537
0.653564 0.503906 0.550537
0.772583 0.503906 0.550537
0.897034 0.503906 0.550537
0.176910 0.584381 0.550537
0.261322 0.584381 0.550537
0.348724 0.584381 0.550537
0.441589 0.584381 0.550537
0.542633 0.584381 0.550537
0.653564 0.584381 0.550537
0.772583 0.584381 0.550537
0.897034 0.584381 0.550537
0.176910 0.659058 0.550537
0.261322 0.659058 0.550537
0.348724 0.659058 0.550537
0.441589 0.659058 0.550537
0.542633 0.659058 0.550537
0.653564 0.659058 0.550537
0.772583 0.659058 0.550537
0.897034 0.659058 0.550537
0.176910 0.728027 0.550537
0.261322 0.728027 0.550537
0.348724 0.728027 0.550537
0.441589 0.728027 0.550537
0.542633 0.728027 0.550537
0.653564 0.728027 0.550537
0.772583 0.728027 0.550537
0.897034 0.728027 0.550537
0.176910 0.792877 0.550537
0.261322 0.792877 0.550537
0.348724 0.792877 0.550537
0.441589 0.792877 0.550537
0.542633 0.792877 0.550537
0.653564 0.792877 0.550537
0.772583 0.792877 0.550537
0.897034 0.792877 0.550537
0.176910 0.855042 0.550537
0.261322 0.855042 0.550537
0.348724 0.855042 0.550537
0.441589 0.855042 0.550537
0.542633 0.855042 0.550537
0.653564 0.855042 0.550537
0.772583 0.855042 0.550537
0.897034 0.855042 0.550537
0.176910 0.330597 0.580231
0.261322 0.330597 0.580231
0.348724 0.330597 0.580231
0.441589 0.330597 0.580231
0.542633 0.330597 0.580231
0.653564 0.330597 0.580231
0.772583 0.330597 0.580231
0.897034 0.330597 0.580231
0.176910 0.418793 0.580231
0.261322 0.418793 0.580231
0.348724 0.418793 0.580231
0.441589 0.418793 0.580231
0.542633 0.418793 0.580231
0.653564 0.418793 0.580231
0.772583 0.418793 0.580231
0.897034 0.418793 0.580231
0.176910 0.503906 0.580231
0.261322 0.503906 0.580231
0.348724 0.503906 0.580231
0.441589 0.503906 0.580231
0.542633 0.503906 0.580231
0.653564 0.503906 0.580231
0.772583 0.503906 0.580231
0.897034 0.503906 0.580231
0.176910 0.584381 0.580231
0.261322 0.584381 0.580231
0.348724 0.584381 0.580231
0.441589 0.584381 0.580231
0.542633 0.584381 0.580231
0.653564 0.584381 0.580231
0.772583 0.584381 0.580231
0.897034 0.584381 0.580231
0.176910 0.659058 0.580231
0.261322 0.659058 0.580231
0.348724 0.659058 0.580231
0.441589 0.659058 0.580231
0.542633 0.659058 0.580231
0.653564 0.659058 0.580231
0.772583 0.659058 0.580231
0.897034 0.659058 0.580231
0.176910 0.728027 0.580231
0.261322 0.728027 0.580231
0.348724 0.728027 0.580231
0.441589 0.728027 0.580231
0.542633 0.728027 0.580231
0.653564 0.728027 0.580231
0.772583 0.728027 0.580231
0.897034 0.728027 0.580231
0.176910 0.792877 0.580231
0.261322 0.792877 0.580231
0.348724 0.792877 0.580231
0.441589 0.792877 0.580231
0.542633 0.792877 0.580231
0.653564 0.792877 0.580231
0.772583 0.792877 0.580231
0.897034 0.792877 0.580231
0.176910 0.855042 0.580231
0.261322 0.855042 0.580231
0.348724 0.855042 0.580231
0.441589 0.855042 0.580231
0.542633 0.855042 0.580231
0.653564 0.855042 0.580231
0.772583 0.855042 0.580231
0.897034 0.855042 0.580231
0.176910 0.330597 0.612274
0.261322 0.330597 0.612274
0.348724 0.330597 0.612274
0.441589 0.330597 0.612274
0.542633 0.330597 0.612274
0.653564 0.330597 0.612274
0.772583 0.330597 0.612274
0.897034 0.330597 0.612274
0.176910 0.418793 0.612274
0.261322 0.418793 0.612274
0.348724 0.418793 0.612274
0.441589 0.418793 0.612274
0.542633 0.418793 0.612274
0.653564 0.418793 0.612274
0.772583 0.418793 0.612274
0.897034 0.418793 0.612274
0.176910 0.503906 0.612274
0.261322 0.503906 0.612274
0.348724 0.503906 0.612274
0.441589 0.503906 0.612274
0.542633 0.503906 0.612274
0.653564 0.503906 0.612274
0.772583 0.503906 0.612274
0.897034 0.503906 0.612274
0.176910 0.584381 0.612274
0.261322 0.584381 0.612274
0.348724 0.584381 0.612274
0.441589 0.584381 0.612274
0.542633 0.584381 0.612274
0.653564 0.584381 0.612274
0.772583 0.584381 0.612274
0.897034 0.584381 0.612274
0.176910 0.659058 0.612274
0.261322 0.659058 0.612274
0.348724 0.659058 0.612274
0.441589 0.659058 0.612274
0.542633 0.659058 0.612274
0.653564 0.659058 0.612274
0.772583 0.659058 0.612274
0.897034 0.659058 0.612274
0.176910 0.728027 0.612274
0.261322 0.728027 0.612274
0.348724 0.728027 0.612274
0.441589 0.728027 0.612274
0.542633 0.728027 0.612274
0.653564 0.728027 0.612274
0.772583 0.728027 0.612274
0.897034 0.728027 0.612274
0.176910 0.792877 0.612274
0.261322 0.792877 0.612274
0.348724 0.792877 0.612274
0.441589 0.792877 0.612274
0.542633 0.792877 0.612274
0.653564 0.792877 0.612274
0.772583 0.792877 0.612274
0.897034 0.792877 0.612274
0.176910 0.855042 0.612274
0.261322 0.855042 0.612274
0.348724 0.855042 0.612274
0.441589 0.855042 0.612274
0.542633 0.855042 0.612274
0.653564 0.855042 0.612274
0.772583 0.855042 0.612274
0.897034 0.855042 0.612274
