Avant Garde/Striped Purple - Arcade Dayz.cube
#Created by: Adobe Photoshop Export Color Lookup Plugin
#Copyright: (C) Copyright 2018 Striped Purple - Austin Barrett
TITLE "Arcade Dayz"
#LUT size
LUT_3D_SIZE 5
#data domain
#LUT data points
DOMAIN_MIN 0.000000 0.000000 0.000000
DOMAIN_MAX 0.903226 0.903226 0.903226
0.000000 0.000000 0.000000
0.089447 0.000000 0.000000
0.264587 0.000000 0.000000
0.513763 0.000000 0.000000
0.852081 0.000000 0.000000
0.000000 0.287109 0.000000
0.110565 0.298737 0.000000
0.374542 0.288452 0.000000
0.664337 0.269745 0.000000
0.915100 0.248871 0.000000
0.000000 0.488983 0.000000
0.261383 0.475372 0.000000
0.549347 0.459930 0.000000
0.771637 0.445770 0.000000
0.921814 0.437469 0.000000
0.000000 0.656067 0.000000
0.437164 0.642303 0.000000
0.577698 0.634033 0.000000
0.710266 0.634033 0.000000
0.902710 0.636902 0.000000
0.000000 0.878113 0.000000
0.346283 0.878113 0.000000
0.509155 0.879181 0.000000
0.700653 0.891937 0.000000
0.914001 0.903900 0.000000
0.000000 0.000000 0.262329
0.089447 0.000000 0.303711
0.264587 0.000000 0.346069
0.534271 0.000000 0.364563
0.867615 0.000000 0.379150
0.000000 0.296234 0.344849
0.131989 0.296356 0.364075
0.410278 0.282288 0.378662
0.688049 0.261963 0.388062
0.922241 0.243958 0.388062
0.000000 0.484497 0.378265
0.303467 0.469696 0.388062
0.575470 0.454071 0.388062
0.780884 0.442505 0.388062
0.916687 0.437469 0.276184
0.000000 0.650452 0.388062
0.450928 0.639069 0.388062
0.559296 0.634033 0.277954
0.700653 0.634033 0.238739
0.902710 0.647003 0.239868
0.000000 0.878113 0.279755
0.329712 0.878113 0.239380
0.509155 0.883820 0.239014
0.708435 0.896118 0.297363
0.917053 0.908325 0.365570
0.000000 0.000000 0.479095
0.089447 0.000000 0.512360
0.277466 0.000000 0.539062
0.559601 0.000000 0.551117
0.883881 0.000000 0.562408
0.000000 0.299255 0.538727
0.157623 0.292267 0.550720
0.446899 0.275208 0.562134
0.711090 0.254120 0.566071
0.928253 0.239685 0.566071
0.000000 0.479370 0.561768
0.342133 0.463989 0.566071
0.597778 0.448914 0.566071
0.769836 0.437469 0.524445
0.911774 0.437469 0.465729
0.000000 0.645386 0.566071
0.441071 0.634033 0.529510
0.541809 0.634033 0.466858
0.694550 0.634033 0.441498
0.903900 0.658539 0.463776
0.000000 0.878113 0.468140
0.318817 0.878113 0.441833
0.512695 0.889191 0.462341
0.717285 0.900574 0.515808
0.920319 0.913086 0.563110
0.000000 0.000000 0.679047
0.089447 0.000000 0.705353
0.300110 0.000000 0.720184
0.588959 0.000000 0.729584
0.894989 0.000000 0.737457
0.000000 0.298279 0.719910
0.185852 0.286896 0.729279
0.480164 0.267609 0.737274
0.732391 0.247498 0.737671
0.932739 0.236237 0.737671
0.000000 0.473816 0.737061
0.377014 0.458282 0.737671
0.614716 0.444763 0.737671
0.741486 0.437469 0.678894
0.907562 0.437469 0.649597
0.000000 0.641296 0.737671
0.395844 0.634033 0.679932
0.526917 0.634033 0.650543
0.693481 0.639374 0.638489
0.906342 0.668823 0.672394
0.000000 0.878113 0.651550
0.316406 0.880280 0.638092
0.520752 0.893066 0.671082
0.726227 0.905121 0.713898
0.924255 0.918488 0.748322
0.000000 0.000000 0.900970
0.089447 0.000000 0.910004
0.328827 0.000000 0.913879
0.621094 0.000000 0.917236
0.903839 0.000000 0.919037
0.000000 0.295380 0.913788
0.216034 0.280426 0.917114
0.510376 0.259796 0.919037
0.751404 0.242706 0.919037
0.934662 0.231293 0.916260
0.000000 0.468140 0.919037
0.406708 0.452576 0.919037
0.623199 0.439545 0.917175
0.727448 0.437469 0.892883
0.904358 0.437469 0.881378
0.000000 0.636963 0.917938
0.373993 0.634033 0.893250
0.515594 0.634033 0.881653
0.693604 0.650177 0.884857
0.909424 0.680206 0.900787
0.000000 0.878113 0.881958
0.316406 0.885284 0.884308
0.531219 0.897308 0.900238
0.734558 0.909576 0.914948
0.928467 0.924133 0.927643
