Avant Garde/Striped Purple - Pendleton.cube
#Created by: Adobe Photoshop Export Color Lookup Plugin
#Copyright: (C) Copyright 2019 Pendleton by Striped Purple - © Austin Barrett All Rights Reserved.
TITLE "Striped Purple - Pendleton"
#LUT size
LUT_3D_SIZE 5
#data domain
#LUT data points
DOMAIN_MIN 0.000000 0.000000 0.000000
DOMAIN_MAX 0.903226 0.903226 0.903226
0.062439 0.059784 0.060852
0.149750 0.072510 0.104309
0.313202 0.073395 0.131805
0.539429 0.067017 0.194397
0.771637 0.077881 0.271057
0.109070 0.186554 0.112976
0.222961 0.217590 0.140015
0.409607 0.138000 0.064056
0.473602 0.087708 0.067932
0.633392 0.107269 0.117340
0.088654 0.370270 0.098389
0.237915 0.394592 0.109772
0.437286 0.418793 0.119812
0.657410 0.379883 0.069824
0.829254 0.262604 0.072876
0.166809 0.600708 0.213226
0.321808 0.661224 0.250671
0.481171 0.706696 0.226135
0.753510 0.693817 0.169708
0.951904 0.737274 0.094177
0.257446 0.907715 0.365234
0.383057 0.972137 0.383972
0.498901 0.987152 0.372955
0.870361 0.979980 0.362640
0.990814 0.987793 0.390594
0.067169 0.066986 0.156525
0.179932 0.089325 0.181763
0.338013 0.080444 0.233765
0.526886 0.070679 0.312134
0.703278 0.092224 0.406677
0.116486 0.199188 0.205444
0.235352 0.233032 0.241119
0.452148 0.233673 0.284851
0.712891 0.252625 0.347656
0.963226 0.269501 0.469330
0.084564 0.386200 0.231171
0.237762 0.420105 0.257690
0.462708 0.438782 0.261078
0.666351 0.352234 0.212402
0.832153 0.265472 0.228546
0.174622 0.628601 0.362488
0.322235 0.695099 0.390472
0.480499 0.733673 0.350525
0.764343 0.713104 0.335907
0.940155 0.676941 0.253326
0.288300 0.916962 0.476929
0.417145 0.980316 0.524933
0.513733 0.990143 0.515045
0.895966 0.987122 0.484680
0.992828 0.990417 0.501404
0.060425 0.070038 0.295105
0.183685 0.077057 0.350098
0.403534 0.089966 0.383484
0.638153 0.082306 0.434723
0.799835 0.133972 0.505951
0.100647 0.218750 0.341675
0.186249 0.270477 0.406128
0.467590 0.274323 0.441193
0.661041 0.307159 0.485382
0.814667 0.349762 0.574005
0.098267 0.402771 0.407532
0.245636 0.447144 0.452789
0.481415 0.465820 0.454987
0.686066 0.489594 0.529846
0.891418 0.516235 0.624084
0.190643 0.646698 0.509949
0.365479 0.693420 0.536804
0.508942 0.768433 0.576599
0.805542 0.754089 0.541901
0.947205 0.642426 0.403656
0.340210 0.909424 0.625397
0.466583 0.962433 0.657776
0.604706 0.981689 0.677917
0.896912 0.987183 0.630951
0.993530 0.991974 0.617737
0.059113 0.071808 0.462372
0.178375 0.087280 0.517181
0.292725 0.133881 0.551270
0.626892 0.142853 0.564087
0.878632 0.169159 0.602325
0.064148 0.247345 0.515686
0.195038 0.286041 0.553650
0.384155 0.320801 0.597717
0.704865 0.345612 0.631165
0.917877 0.397980 0.675415
0.089142 0.423828 0.591003
0.264435 0.452698 0.619812
0.484436 0.487335 0.647491
0.727539 0.511139 0.671753
0.910675 0.551605 0.740753
0.196777 0.674500 0.678253
0.377319 0.719513 0.717224
0.549133 0.749298 0.741302
0.785339 0.756165 0.717224
0.954956 0.793091 0.808990
0.314056 0.946259 0.747711
0.459656 0.973816 0.783203
0.619904 0.981781 0.818024
0.866089 0.985229 0.823700
0.989044 0.989563 0.790009
0.069489 0.088745 0.567566
0.195984 0.117279 0.580841
0.402405 0.111572 0.707611
0.650879 0.123688 0.786621
0.851410 0.224091 0.724762
0.126099 0.242401 0.594788
0.263794 0.278778 0.651245
0.465210 0.317566 0.726501
0.695557 0.381042 0.774139
0.931091 0.427856 0.820587
0.127563 0.436554 0.772858
0.285065 0.461121 0.828766
0.503021 0.495850 0.842407
0.731415 0.522583 0.867828
0.929077 0.572235 0.885773
0.230377 0.683105 0.835205
0.421875 0.740753 0.873474
0.594147 0.774292 0.892456
0.823425 0.794769 0.887695
0.961060 0.831238 0.918518
0.361603 0.942963 0.914825
0.515381 0.977203 0.955566
0.694366 0.981842 0.977936
0.950195 0.982117 0.955170
0.993500 0.990479 0.985260
