Avant Garde/Striped Purple - Pendleton.cube
#Created by: Adobe Photoshop Export Color Lookup Plugin
#Copyright: (C) Copyright 2019 Pendleton by Striped Purple - © Austin Barrett All Rights Reserved.
TITLE "Striped Purple - Pendleton"
#LUT size
LUT_3D_SIZE 8
#data domain
#LUT data points
DOMAIN_MIN 0.000000 0.000000 0.000000
DOMAIN_MAX 0.903226 0.903226 0.903226
0.062439 0.059784 0.060852
0.106354 0.071747 0.088379
0.162811 0.077240 0.111725
0.246277 0.074432 0.130188
0.399170 0.062469 0.151794
0.518585 0.066223 0.173126
0.612976 0.070221 0.234680
0.771637 0.077881 0.271057
0.073486 0.128815 0.073975
0.144073 0.139404 0.086914
0.196808 0.101898 0.073120
0.260040 0.067657 0.070862
0.335876 0.065643 0.089722
0.426086 0.072540 0.113129
0.527588 0.069489 0.152588
0.686523 0.082001 0.174988
0.102936 0.209747 0.108063
0.174408 0.225586 0.127319
0.245483 0.241638 0.136292
0.379303 0.212799 0.081238
0.450684 0.156250 0.064026
0.499695 0.116974 0.065338
0.572754 0.083710 0.071838
0.666901 0.098724 0.103241
0.101196 0.309784 0.118408
0.173035 0.325592 0.119385
0.253326 0.338379 0.115112
0.368317 0.355133 0.125763
0.521729 0.359253 0.065125
0.601807 0.282196 0.067627
0.670898 0.221313 0.068817
0.802216 0.177673 0.074219
0.101501 0.433044 0.115662
0.179718 0.447205 0.105103
0.281067 0.463348 0.131622
0.390717 0.478455 0.136597
0.496948 0.476807 0.100647
0.675476 0.502594 0.077576
0.780243 0.446320 0.074280
0.876495 0.372253 0.074585
0.166199 0.565704 0.221039
0.253235 0.599396 0.253448
0.328278 0.634491 0.258667
0.421631 0.670563 0.255981
0.582001 0.647247 0.211487
0.722290 0.656799 0.175018
0.884491 0.686829 0.099396
0.942078 0.650116 0.085968
0.198639 0.737091 0.264832
0.293182 0.773621 0.285553
0.374542 0.818512 0.290527
0.447723 0.855896 0.268463
0.601318 0.846619 0.272400
0.803040 0.835663 0.281464
0.917480 0.853058 0.274719
0.988190 0.884460 0.213623
0.257446 0.907715 0.365234
0.333374 0.944824 0.387207
0.400635 0.986267 0.412537
0.457703 0.990845 0.397217
0.599701 0.989014 0.376160
0.841370 0.979095 0.370941
0.956299 0.984375 0.385223
0.990814 0.987793 0.390594
0.066284 0.065338 0.111633
0.124939 0.077637 0.126160
0.186005 0.077393 0.150665
0.235901 0.093750 0.181915
0.332397 0.088562 0.212219
0.497833 0.070404 0.232239
0.638397 0.077698 0.264343
0.759033 0.075623 0.345459
0.075623 0.132202 0.135132
0.145569 0.140839 0.143982
0.207550 0.142059 0.168213
0.302155 0.153809 0.203552
0.405182 0.142059 0.222412
0.558289 0.155548 0.246796
0.661957 0.164795 0.305084
0.824432 0.166779 0.377197
0.105499 0.216919 0.168549
0.176941 0.234497 0.186523
0.253387 0.252411 0.201782
0.374176 0.199615 0.145477
0.453156 0.154358 0.120300
0.585541 0.165314 0.147308
0.711761 0.174103 0.188171
0.931915 0.165619 0.221771
0.140594 0.313690 0.226257
0.204926 0.342834 0.242401
0.284302 0.370331 0.257050
0.394287 0.376740 0.219727
0.548523 0.342560 0.131256
0.629822 0.277191 0.134918
0.716064 0.232819 0.137634
0.796448 0.192657 0.150299
0.094238 0.442596 0.181427
0.192169 0.463165 0.207916
0.277008 0.471375 0.189850
0.394501 0.485199 0.200409
0.522369 0.496277 0.201721
0.666077 0.503815 0.168701
0.755249 0.421417 0.162933
0.864685 0.360077 0.159363
0.178833 0.578033 0.306519
0.252625 0.615601 0.322601
0.336365 0.657074 0.343353
0.433960 0.692688 0.336578
0.594360 0.661560 0.286194
0.745026 0.676239 0.267273
0.896088 0.703979 0.191925
0.937653 0.623077 0.173309
0.212158 0.754913 0.355011
0.301178 0.792206 0.376831
0.389465 0.837677 0.406067
0.457489 0.871674 0.330170
0.593811 0.873230 0.354767
0.815765 0.851257 0.358948
0.940552 0.872223 0.372437
0.987244 0.895294 0.295135
0.266449 0.916687 0.423004
0.346405 0.955414 0.464417
0.410522 0.986816 0.474640
0.467834 0.984894 0.449860
0.584808 0.988312 0.449615
0.844940 0.983276 0.423859
0.973480 0.989868 0.462585
0.991730 0.989075 0.453156
0.065704 0.066254 0.177307
0.131348 0.071350 0.196014
0.202911 0.089111 0.206238
0.298798 0.090973 0.225586
0.418030 0.079346 0.261932
0.516144 0.069153 0.318756
0.614014 0.080627 0.368073
0.713531 0.090973 0.426331
0.077332 0.136292 0.204376
0.144287 0.141235 0.216156
0.232574 0.157166 0.231995
0.321167 0.147736 0.257538
0.419006 0.159302 0.304199
0.513794 0.164673 0.352905
0.634430 0.181671 0.402802
0.774597 0.199402 0.460938
0.115540 0.223083 0.229645
0.184113 0.241577 0.249207
0.262360 0.261475 0.269958
0.375122 0.263184 0.296783
0.528351 0.264343 0.318695
0.671082 0.281281 0.366028
0.792114 0.295197 0.428406
0.919525 0.308105 0.493958
0.121490 0.326050 0.264526
0.172852 0.354675 0.281921
0.255829 0.401337 0.348785
0.431183 0.403503 0.327271
0.631653 0.333527 0.166931
0.753113 0.279266 0.180511
0.895172 0.286102 0.243652
0.985931 0.294647 0.299988
0.114807 0.452667 0.282715
0.183533 0.471283 0.281616
0.278442 0.493439 0.302521
0.395264 0.508820 0.306641
0.534027 0.505951 0.294250
0.668182 0.484100 0.255005
0.785004 0.415771 0.245819
0.842163 0.348450 0.263641
0.163116 0.597687 0.384796
0.249634 0.635712 0.417450
0.329926 0.685059 0.432281
0.436218 0.699127 0.403778
0.595367 0.676056 0.361908
0.745605 0.685486 0.362213
0.890808 0.707733 0.297699
0.941620 0.604340 0.257660
0.214691 0.769989 0.449005
0.304260 0.807098 0.469482
0.381561 0.851074 0.485596
0.457886 0.891724 0.469574
0.545593 0.921478 0.456940
0.834320 0.865662 0.451080
0.950531 0.886078 0.462555
0.994537 0.918457 0.380768
0.301971 0.914215 0.503723
0.382416 0.947083 0.533386
0.451294 0.984558 0.552521
0.489319 0.985565 0.547913
0.556396 0.993408 0.546051
0.853180 0.984314 0.499237
0.974487 0.985168 0.514557
0.991669 0.988892 0.513245
0.063446 0.070129 0.250366
0.131714 0.066101 0.287415
0.206360 0.084351 0.292511
0.325500 0.082947 0.321869
0.485535 0.082703 0.325500
0.586212 0.092438 0.364655
0.678101 0.077759 0.447754
0.773590 0.097992 0.490051
0.077087 0.141937 0.281097
0.148956 0.158051 0.294586
0.225403 0.156006 0.324463
0.354950 0.167114 0.350433
0.494446 0.170532 0.364868
0.590942 0.189972 0.411102
0.678650 0.202393 0.465485
0.771973 0.212799 0.520233
0.111938 0.233215 0.305878
0.175720 0.251953 0.331512
0.215759 0.285797 0.375336
0.389404 0.284637 0.391296
0.516174 0.296539 0.408875
0.603699 0.314423 0.453827
0.699097 0.342590 0.505371
0.812714 0.368408 0.558624
0.132477 0.338684 0.352936
0.202393 0.366333 0.380463
0.280884 0.396820 0.412506
0.410461 0.412323 0.414337
0.565674 0.417969 0.439026
0.682861 0.433289 0.482880
0.812622 0.451263 0.538422
0.930695 0.465912 0.600983
0.113129 0.457397 0.368744
0.194824 0.473572 0.378723
0.287018 0.500183 0.405670
0.387268 0.520721 0.413757
0.550140 0.521240 0.408417
0.692261 0.473969 0.345001
0.783936 0.414062 0.363922
0.856079 0.425476 0.452545
0.177032 0.607361 0.479645
0.271820 0.634003 0.495850
0.352997 0.665985 0.494751
0.421234 0.736115 0.533234
0.593811 0.703339 0.471191
0.760590 0.703278 0.478516
0.895111 0.680420 0.363342
0.932220 0.576324 0.356750
0.256714 0.763306 0.522858
0.339508 0.801056 0.541626
0.425995 0.843536 0.583160
0.482971 0.881165 0.580078
0.542358 0.945892 0.578125
0.829376 0.877533 0.538635
0.951233 0.894897 0.553741
0.988983 0.917633 0.471222
0.302002 0.917786 0.564819
0.384308 0.946472 0.587006
0.470428 0.976776 0.624298
0.551025 0.982483 0.621185
0.622711 0.986969 0.624054
0.860138 0.987213 0.584137
0.980927 0.985870 0.594543
0.994171 0.992401 0.581573
0.058350 0.064972 0.357544
0.118683 0.084259 0.365906
0.209045 0.076630 0.410889
0.311951 0.079102 0.444458
0.490936 0.070251 0.464844
0.612427 0.117493 0.434479
0.739716 0.104828 0.494537
0.832794 0.117493 0.545288
0.056000 0.132202 0.418945
0.135284 0.150360 0.412231
0.215637 0.175537 0.424103
0.308197 0.178802 0.463318
0.510315 0.186035 0.474762
0.654541 0.219910 0.472778
0.746948 0.241241 0.519897
0.832642 0.263916 0.572113
0.084778 0.248596 0.412506
0.154755 0.272369 0.437805
0.208435 0.302734 0.475159
0.295837 0.318512 0.503418
0.547241 0.318756 0.501831
0.667694 0.334961 0.515076
0.763641 0.362946 0.562683
0.845947 0.387329 0.614258
0.106659 0.362885 0.458435
0.180115 0.390045 0.485779
0.240967 0.429352 0.521667
0.387268 0.441467 0.526764
0.571350 0.450684 0.530853
0.683990 0.472076 0.559509
0.782532 0.497375 0.608856
0.868225 0.515076 0.659729
0.093414 0.481293 0.484497
0.186646 0.503174 0.505951
0.287964 0.512787 0.511353
0.423126 0.527740 0.526825
0.560272 0.541443 0.525330
0.661621 0.541626 0.557678
0.790253 0.563843 0.612183
0.864410 0.563751 0.651642
0.177460 0.620087 0.546997
0.275391 0.641113 0.555206
0.392548 0.669678 0.582520
0.502106 0.697296 0.608765
0.583191 0.734100 0.621674
0.756958 0.715942 0.578613
0.895203 0.646210 0.472382
0.915039 0.564392 0.493591
0.278961 0.768341 0.600281
0.365692 0.804230 0.624664
0.456512 0.833496 0.648773
0.549377 0.862793 0.677979
0.623962 0.890472 0.676208
0.830444 0.897705 0.644684
0.956543 0.904358 0.655365
0.985046 0.885712 0.527344
0.340912 0.915680 0.675720
0.419586 0.940521 0.691772
0.515106 0.964172 0.732849
0.577515 0.976654 0.733856
0.679413 0.987701 0.749664
0.823059 0.978394 0.675201
0.984589 0.988068 0.686523
0.981659 0.978912 0.644196
0.056702 0.059662 0.489807
0.125092 0.076660 0.478119
0.185577 0.101227 0.488434
0.275085 0.107269 0.521179
0.407623 0.132568 0.524780
0.589142 0.140564 0.529968
0.766388 0.113098 0.585632
0.863708 0.181610 0.574249
0.056458 0.136017 0.525208
0.137848 0.139587 0.540222
0.215668 0.163849 0.542297
0.272125 0.209015 0.563049
0.460876 0.212982 0.577301
0.643005 0.233490 0.582367
0.789093 0.245361 0.602325
0.891113 0.258484 0.638763
0.067474 0.266632 0.512238
0.134705 0.287354 0.539581
0.225067 0.303467 0.557556
0.343323 0.317047 0.572968
0.507263 0.330933 0.598328
0.677887 0.360504 0.612579
0.823975 0.389343 0.628265
0.907410 0.412109 0.673096
0.091156 0.385590 0.555847
0.171967 0.415527 0.580017
0.286072 0.434662 0.592651
0.413116 0.440735 0.603394
0.549774 0.467987 0.626831
0.716187 0.492401 0.643921
0.844818 0.510345 0.669159
0.927734 0.537659 0.718597
0.090668 0.484253 0.580475
0.187500 0.493744 0.591553
0.300934 0.505554 0.603638
0.433441 0.534119 0.627747
0.546112 0.537354 0.629456
0.701080 0.563568 0.647095
0.802124 0.571960 0.681976
0.889282 0.595612 0.738312
0.178894 0.630005 0.634888
0.286316 0.661438 0.664764
0.398193 0.692108 0.695496
0.497284 0.713837 0.713165
0.610413 0.731049 0.722992
0.754425 0.724060 0.687225
0.868256 0.731903 0.730164
0.938080 0.743378 0.774658
0.287872 0.784576 0.699951
0.378693 0.818237 0.729553
0.469299 0.844696 0.755127
0.555725 0.862152 0.771698
0.674622 0.891632 0.805145
0.818756 0.910156 0.778931
0.964783 0.917389 0.768158
0.988007 0.862335 0.648987
0.327606 0.937347 0.738190
0.406342 0.962494 0.756805
0.487061 0.974274 0.778931
0.589142 0.988251 0.818787
0.687958 0.983246 0.816406
0.849457 0.990051 0.846863
0.973602 0.985474 0.784485
0.991394 0.991821 0.761078
0.062683 0.092224 0.458557
0.117371 0.098267 0.531281
0.212616 0.083832 0.615295
0.269623 0.139191 0.557434
0.406403 0.142944 0.595764
0.611511 0.114929 0.674194
0.748688 0.149536 0.671356
0.882080 0.169220 0.685944
0.056885 0.138702 0.658356
0.139557 0.143921 0.665588
0.233856 0.161713 0.655945
0.354675 0.174927 0.671936
0.483124 0.204437 0.681030
0.640320 0.233124 0.695557
0.784271 0.277039 0.698975
0.915955 0.292328 0.725281
0.089935 0.264313 0.582336
0.163788 0.282806 0.609497
0.254120 0.297852 0.640106
0.375610 0.324707 0.657227
0.516876 0.345276 0.689972
0.666565 0.365448 0.717682
0.819427 0.403473 0.732544
0.933838 0.410370 0.753296
0.121796 0.384644 0.620880
0.199554 0.408691 0.654877
0.303101 0.436401 0.676727
0.424042 0.457062 0.697571
0.561218 0.490723 0.714783
0.710297 0.513947 0.741180
0.855438 0.530060 0.762238
0.975952 0.558289 0.778625
0.103973 0.486053 0.695740
0.215668 0.510773 0.711090
0.328827 0.532135 0.730804
0.440094 0.536560 0.743805
0.554138 0.544739 0.752747
0.700592 0.572174 0.764465
0.830017 0.582336 0.776154
0.921509 0.603851 0.796906
0.204529 0.640564 0.737518
0.280457 0.657623 0.758820
0.411102 0.695160 0.790497
0.515137 0.719635 0.813110
0.613678 0.722229 0.813599
0.753784 0.730713 0.796478
0.889709 0.751160 0.811340
0.940369 0.753845 0.836731
0.285126 0.794159 0.807404
0.399231 0.825378 0.844391
0.468628 0.845367 0.857117
0.585327 0.878357 0.901001
0.678070 0.892334 0.905396
0.833405 0.917755 0.880920
0.974152 0.928986 0.861267
0.988068 0.940796 0.902496
0.335083 0.955109 0.822388
0.426086 0.978333 0.853546
0.506104 0.984528 0.871643
0.571381 0.969330 0.866455
0.700470 0.987579 0.897491
0.827240 0.980377 0.892822
0.958405 0.991577 0.882751
0.985016 0.980438 0.900421
0.069489 0.088745 0.567566
0.136871 0.100159 0.594971
0.218964 0.116638 0.600128
0.324493 0.122955 0.644257
0.461548 0.127747 0.696838
0.624756 0.106354 0.809998
0.761017 0.135284 0.799622
0.851410 0.224091 0.724762
0.065765 0.143250 0.773163
0.150696 0.153412 0.760223
0.250916 0.178406 0.721741
0.365967 0.215363 0.687714
0.497589 0.237579 0.719391
0.631500 0.268616 0.749084
0.786438 0.268585 0.815918
0.910645 0.312653 0.816956
0.115997 0.259796 0.654633
0.187317 0.273163 0.707092
0.288269 0.296234 0.719208
0.409729 0.315918 0.756104
0.537842 0.345215 0.783600
0.671600 0.383148 0.801025
0.815613 0.400146 0.831818
0.934082 0.437134 0.843842
0.135345 0.378662 0.714813
0.229584 0.406769 0.730743
0.339142 0.439667 0.743011
0.452148 0.459869 0.777557
0.585449 0.491394 0.787109
0.715088 0.512268 0.821320
0.861206 0.543060 0.839722
0.955841 0.559692 0.867859
0.118408 0.492249 0.817780
0.236725 0.518250 0.820190
0.345428 0.537537 0.838593
0.446167 0.536438 0.861176
0.570038 0.556854 0.860748
0.703125 0.571289 0.872711
0.839417 0.597290 0.879395
0.930084 0.628479 0.890533
0.226410 0.647461 0.816284
0.324127 0.678101 0.846924
0.435120 0.709137 0.865143
0.511719 0.712189 0.880920
0.635010 0.733551 0.881866
0.769348 0.743958 0.878143
0.890594 0.763092 0.892029
0.949799 0.781799 0.910034
0.332001 0.807129 0.856201
0.408569 0.838318 0.888031
0.504913 0.870544 0.910675
0.588287 0.898743 0.934235
0.731842 0.914703 0.926514
0.875458 0.918610 0.916443
0.982117 0.937408 0.926056
0.992706 0.966156 0.950195
0.361603 0.942963 0.914825
0.471313 0.967865 0.940186
0.515900 0.965179 0.952362
0.643311 0.987701 0.984283
0.748657 0.972351 0.964905
0.930878 0.987671 0.961334
0.984039 0.985687 0.968811
0.993500 0.990479 0.985260
