Avant Garde/Striped Purple - Sugar Plums.cube
#Created by: Adobe Photoshop Export Color Lookup Plugin
#Copyright: (C) Copyright 2019 Sugar Plums by Striped Purple © Austin Barrett All Rights Reserved.
TITLE "Sugar Plums"
#LUT size
LUT_3D_SIZE 5
#data domain
#LUT data points
DOMAIN_MIN 0.000000 0.000000 0.000000
DOMAIN_MAX 0.903226 0.903226 0.903226
0.000000 0.000000 0.000000
0.156006 0.000000 0.000000
0.356720 0.000000 0.000000
0.593231 0.000000 0.000000
0.885651 0.000000 0.000000
0.000000 0.173828 0.000000
0.158569 0.159760 0.000000
0.399689 0.153809 0.000000
0.689392 0.153809 0.000000
0.915771 0.157074 0.000000
0.000000 0.349609 0.000000
0.244019 0.349609 0.000000
0.509430 0.353241 0.000000
0.727570 0.390045 0.000000
0.921844 0.374481 0.000000
0.000000 0.589935 0.000000
0.311279 0.623566 0.000000
0.538330 0.609802 0.000000
0.737396 0.606995 0.000000
0.921021 0.627441 0.000000
0.000000 0.876343 0.000000
0.328644 0.874725 0.000000
0.535278 0.882996 0.000000
0.718628 0.889252 0.000000
0.914917 0.894897 0.000000
0.000000 0.000000 0.158051
0.157135 0.000000 0.180939
0.357483 0.000000 0.201935
0.603882 0.000000 0.204071
0.895050 0.000000 0.230652
0.000000 0.172668 0.201447
0.166138 0.156525 0.204071
0.425781 0.153809 0.228912
0.703583 0.153809 0.273163
0.917328 0.165619 0.271423
0.000000 0.349609 0.227356
0.268616 0.349609 0.271942
0.516846 0.365112 0.272217
0.730835 0.384308 0.227600
0.922333 0.369232 0.179565
0.000000 0.600067 0.272919
0.316895 0.618561 0.230042
0.540710 0.605133 0.181000
0.737213 0.614624 0.160614
0.919464 0.633881 0.159454
0.000000 0.874451 0.182465
0.328461 0.877838 0.160797
0.528137 0.885590 0.159454
0.713470 0.890961 0.159454
0.915436 0.897064 0.160675
0.000000 0.000000 0.365875
0.158203 0.000000 0.400848
0.357391 0.000000 0.420807
0.618195 0.000000 0.426239
0.903931 0.000000 0.471039
0.000000 0.166901 0.420807
0.176971 0.153870 0.424744
0.452789 0.153809 0.469696
0.712189 0.153809 0.498962
0.918701 0.176727 0.482666
0.000000 0.349609 0.468384
0.284332 0.349609 0.498688
0.523376 0.380585 0.483551
0.733398 0.378571 0.428497
0.922607 0.364807 0.364655
0.000000 0.613464 0.484497
0.321472 0.613434 0.430725
0.542114 0.601044 0.366272
0.735046 0.622101 0.357605
0.917694 0.639343 0.357605
0.000000 0.872833 0.368286
0.325073 0.880829 0.357605
0.520020 0.887817 0.357605
0.713196 0.893341 0.357605
0.916351 0.902863 0.379822
0.000000 0.000000 0.612854
0.159027 0.000000 0.642334
0.358978 0.000000 0.650269
0.639618 0.000000 0.670410
0.908844 0.000000 0.699646
0.000000 0.158112 0.650269
0.193695 0.153809 0.668884
0.475830 0.153809 0.698853
0.717499 0.159058 0.707184
0.919861 0.180908 0.687531
0.000000 0.349609 0.698090
0.293762 0.356110 0.707458
0.528900 0.388550 0.688904
0.735382 0.372986 0.634918
0.922638 0.375153 0.597565
0.000000 0.622253 0.690094
0.324951 0.608490 0.636841
0.542358 0.609283 0.597809
0.731140 0.629303 0.594513
0.915924 0.644073 0.594513
0.000000 0.875671 0.598053
0.318604 0.883759 0.594513
0.511688 0.889740 0.594513
0.713867 0.895386 0.594513
0.917480 0.906647 0.639465
0.000000 0.000000 0.882080
0.159424 0.000000 0.891876
0.371948 0.000000 0.892365
0.663361 0.000000 0.905029
0.913055 0.000000 0.912933
0.000000 0.155853 0.892365
0.212860 0.153809 0.904724
0.496582 0.153809 0.912842
0.722168 0.168457 0.911346
0.920837 0.176849 0.900757
0.000000 0.349609 0.912628
0.301880 0.369049 0.911530
0.533539 0.382751 0.901520
0.736725 0.367889 0.877899
0.922394 0.383240 0.870178
0.000000 0.617157 0.902313
0.327362 0.603943 0.878601
0.541473 0.616547 0.870300
0.726135 0.635406 0.870056
0.914795 0.648956 0.870056
0.000000 0.878632 0.870392
0.310150 0.886230 0.870056
0.505737 0.891632 0.870056
0.715820 0.898529 0.872284
0.918732 0.910522 0.899872
