Avant Garde/Striped Purple - Cherry Champagne.cube
#Created by: Adobe Photoshop Export Color Lookup Plugin
#Copyright: (C) Copyright 2019 Cherry Champagne by Striped Purple © Austin Barrett All rights reserved.
TITLE "Cherry Champagne"
#LUT size
LUT_3D_SIZE 8
#data domain
#LUT data points
DOMAIN_MIN 0.000000 0.000000 0.000000
DOMAIN_MAX 0.903226 0.903226 0.903226
0.176880 0.334869 0.398224
0.331451 0.334869 0.398224
0.472168 0.334869 0.398224
0.592163 0.334869 0.398224
0.689636 0.334869 0.398224
0.769348 0.334869 0.398224
0.837891 0.334869 0.398224
0.899963 0.334869 0.398224
0.176880 0.390930 0.398224
0.331451 0.390930 0.398224
0.472168 0.390930 0.398224
0.592163 0.390930 0.398224
0.689636 0.390930 0.398224
0.769348 0.390930 0.398224
0.837891 0.390930 0.398224
0.899963 0.390930 0.398224
0.176880 0.450378 0.398224
0.331451 0.450378 0.398224
0.472168 0.450378 0.398224
0.592163 0.450378 0.398224
0.689636 0.450378 0.398224
0.769348 0.450378 0.398224
0.837891 0.450378 0.398224
0.899963 0.450378 0.398224
0.176880 0.515442 0.398224
0.331451 0.515442 0.398224
0.472168 0.515442 0.398224
0.592163 0.515442 0.398224
0.689636 0.515442 0.398224
0.769348 0.515442 0.398224
0.837891 0.515442 0.398224
0.899963 0.515442 0.398224
0.176880 0.588745 0.398224
0.331451 0.588745 0.398224
0.472168 0.588745 0.398224
0.592163 0.588745 0.398224
0.689636 0.588745 0.398224
0.769348 0.588745 0.398224
0.837891 0.588745 0.398224
0.899963 0.588745 0.398224
0.176880 0.671600 0.398224
0.331451 0.671600 0.398224
0.472168 0.671600 0.398224
0.592163 0.671600 0.398224
0.689636 0.671600 0.398224
0.769348 0.671600 0.398224
0.837891 0.671600 0.398224
0.899963 0.671600 0.398224
0.176880 0.762756 0.398224
0.331451 0.762756 0.398224
0.472168 0.762756 0.398224
0.592163 0.762756 0.398224
0.689636 0.762756 0.398224
0.769348 0.762756 0.398224
0.837891 0.762756 0.398224
0.899963 0.762756 0.398224
0.176880 0.859894 0.398224
0.331451 0.859894 0.398224
0.472168 0.859894 0.398224
0.592163 0.859894 0.398224
0.689636 0.859894 0.398224
0.769348 0.859894 0.398224
0.837891 0.859894 0.398224
0.899963 0.859894 0.398224
0.176880 0.334869 0.458252
0.331451 0.334869 0.458252
0.472168 0.334869 0.458252
0.592163 0.334869 0.458252
0.689636 0.334869 0.458252
0.769348 0.334869 0.458252
0.837891 0.334869 0.458252
0.899963 0.334869 0.458252
0.176880 0.390930 0.458252
0.331451 0.390930 0.458252
0.472168 0.390930 0.458252
0.592163 0.390930 0.458252
0.689636 0.390930 0.458252
0.769348 0.390930 0.458252
0.837891 0.390930 0.458252
0.899963 0.390930 0.458252
0.176880 0.450378 0.458252
0.331451 0.450378 0.458252
0.472168 0.450378 0.458252
0.592163 0.450378 0.458252
0.689636 0.450378 0.458252
0.769348 0.450378 0.458252
0.837891 0.450378 0.458252
0.899963 0.450378 0.458252
0.176880 0.515442 0.458252
0.331451 0.515442 0.458252
0.472168 0.515442 0.458252
0.592163 0.515442 0.458252
0.689636 0.515442 0.458252
0.769348 0.515442 0.458252
0.837891 0.515442 0.458252
0.899963 0.515442 0.458252
0.176880 0.588745 0.458252
0.331451 0.588745 0.458252
0.472168 0.588745 0.458252
0.592163 0.588745 0.458252
0.689636 0.588745 0.458252
0.769348 0.588745 0.458252
0.837891 0.588745 0.458252
0.899963 0.588745 0.458252
0.176880 0.671600 0.458252
0.331451 0.671600 0.458252
0.472168 0.671600 0.458252
0.592163 0.671600 0.458252
0.689636 0.671600 0.458252
0.769348 0.671600 0.458252
0.837891 0.671600 0.458252
0.899963 0.671600 0.458252
0.176880 0.762756 0.458252
0.331451 0.762756 0.458252
0.472168 0.762756 0.458252
0.592163 0.762756 0.458252
0.689636 0.762756 0.458252
0.769348 0.762756 0.458252
0.837891 0.762756 0.458252
0.899963 0.762756 0.458252
0.176880 0.859894 0.458252
0.331451 0.859894 0.458252
0.472168 0.859894 0.458252
0.592163 0.859894 0.458252
0.689636 0.859894 0.458252
0.769348 0.859894 0.458252
0.837891 0.859894 0.458252
0.899963 0.859894 0.458252
0.176880 0.334869 0.520203
0.331451 0.334869 0.520203
0.472168 0.334869 0.520203
0.592163 0.334869 0.520203
0.689636 0.334869 0.520203
0.769348 0.334869 0.520203
0.837891 0.334869 0.520203
0.899963 0.334869 0.520203
0.176880 0.390930 0.520203
0.331451 0.390930 0.520203
0.472168 0.390930 0.520203
0.592163 0.390930 0.520203
0.689636 0.390930 0.520203
0.769348 0.390930 0.520203
0.837891 0.390930 0.520203
0.899963 0.390930 0.520203
0.176880 0.450378 0.520203
0.331451 0.450378 0.520203
0.472168 0.450378 0.520203
0.592163 0.450378 0.520203
0.689636 0.450378 0.520203
0.769348 0.450378 0.520203
0.837891 0.450378 0.520203
0.899963 0.450378 0.520203
0.176880 0.515442 0.520203
0.331451 0.515442 0.520203
0.472168 0.515442 0.520203
0.592163 0.515442 0.520203
0.689636 0.515442 0.520203
0.769348 0.515442 0.520203
0.837891 0.515442 0.520203
0.899963 0.515442 0.520203
0.176880 0.588745 0.520203
0.331451 0.588745 0.520203
0.472168 0.588745 0.520203
0.592163 0.588745 0.520203
0.689636 0.588745 0.520203
0.769348 0.588745 0.520203
0.837891 0.588745 0.520203
0.899963 0.588745 0.520203
0.176880 0.671600 0.520203
0.331451 0.671600 0.520203
0.472168 0.671600 0.520203
0.592163 0.671600 0.520203
0.689636 0.671600 0.520203
0.769348 0.671600 0.520203
0.837891 0.671600 0.520203
0.899963 0.671600 0.520203
0.176880 0.762756 0.520203
0.331451 0.762756 0.520203
0.472168 0.762756 0.520203
0.592163 0.762756 0.520203
0.689636 0.762756 0.520203
0.769348 0.762756 0.520203
0.837891 0.762756 0.520203
0.899963 0.762756 0.520203
0.176880 0.859894 0.520203
0.331451 0.859894 0.520203
0.472168 0.859894 0.520203
0.592163 0.859894 0.520203
0.689636 0.859894 0.520203
0.769348 0.859894 0.520203
0.837891 0.859894 0.520203
0.899963 0.859894 0.520203
0.176880 0.334869 0.585052
0.331451 0.334869 0.585052
0.472168 0.334869 0.585052
0.592163 0.334869 0.585052
0.689636 0.334869 0.585052
0.769348 0.334869 0.585052
0.837891 0.334869 0.585052
0.899963 0.334869 0.585052
0.176880 0.390930 0.585052
0.331451 0.390930 0.585052
0.472168 0.390930 0.585052
0.592163 0.390930 0.585052
0.689636 0.390930 0.585052
0.769348 0.390930 0.585052
0.837891 0.390930 0.585052
0.899963 0.390930 0.585052
0.176880 0.450378 0.585052
0.331451 0.450378 0.585052
0.472168 0.450378 0.585052
0.592163 0.450378 0.585052
0.689636 0.450378 0.585052
0.769348 0.450378 0.585052
0.837891 0.450378 0.585052
0.899963 0.450378 0.585052
0.176880 0.515442 0.585052
0.331451 0.515442 0.585052
0.472168 0.515442 0.585052
0.592163 0.515442 0.585052
0.689636 0.515442 0.585052
0.769348 0.515442 0.585052
0.837891 0.515442 0.585052
0.899963 0.515442 0.585052
0.176880 0.588745 0.585052
0.331451 0.588745 0.585052
0.472168 0.588745 0.585052
0.592163 0.588745 0.585052
0.689636 0.588745 0.585052
0.769348 0.588745 0.585052
0.837891 0.588745 0.585052
0.899963 0.588745 0.585052
0.176880 0.671600 0.585052
0.331451 0.671600 0.585052
0.472168 0.671600 0.585052
0.592163 0.671600 0.585052
0.689636 0.671600 0.585052
0.769348 0.671600 0.585052
0.837891 0.671600 0.585052
0.899963 0.671600 0.585052
0.176880 0.762756 0.585052
0.331451 0.762756 0.585052
0.472168 0.762756 0.585052
0.592163 0.762756 0.585052
0.689636 0.762756 0.585052
0.769348 0.762756 0.585052
0.837891 0.762756 0.585052
0.899963 0.762756 0.585052
0.176880 0.859894 0.585052
0.331451 0.859894 0.585052
0.472168 0.859894 0.585052
0.592163 0.859894 0.585052
0.689636 0.859894 0.585052
0.769348 0.859894 0.585052
0.837891 0.859894 0.585052
0.899963 0.859894 0.585052
0.176880 0.334869 0.653687
0.331451 0.334869 0.653687
0.472168 0.334869 0.653687
0.592163 0.334869 0.653687
0.689636 0.334869 0.653687
0.769348 0.334869 0.653687
0.837891 0.334869 0.653687
0.899963 0.334869 0.653687
0.176880 0.390930 0.653687
0.331451 0.390930 0.653687
0.472168 0.390930 0.653687
0.592163 0.390930 0.653687
0.689636 0.390930 0.653687
0.769348 0.390930 0.653687
0.837891 0.390930 0.653687
0.899963 0.390930 0.653687
0.176880 0.450378 0.653687
0.331451 0.450378 0.653687
0.472168 0.450378 0.653687
0.592163 0.450378 0.653687
0.689636 0.450378 0.653687
0.769348 0.450378 0.653687
0.837891 0.450378 0.653687
0.899963 0.450378 0.653687
0.176880 0.515442 0.653687
0.331451 0.515442 0.653687
0.472168 0.515442 0.653687
0.592163 0.515442 0.653687
0.689636 0.515442 0.653687
0.769348 0.515442 0.653687
0.837891 0.515442 0.653687
0.899963 0.515442 0.653687
0.176880 0.588745 0.653687
0.331451 0.588745 0.653687
0.472168 0.588745 0.653687
0.592163 0.588745 0.653687
0.689636 0.588745 0.653687
0.769348 0.588745 0.653687
0.837891 0.588745 0.653687
0.899963 0.588745 0.653687
0.176880 0.671600 0.653687
0.331451 0.671600 0.653687
0.472168 0.671600 0.653687
0.592163 0.671600 0.653687
0.689636 0.671600 0.653687
0.769348 0.671600 0.653687
0.837891 0.671600 0.653687
0.899963 0.671600 0.653687
0.176880 0.762756 0.653687
0.331451 0.762756 0.653687
0.472168 0.762756 0.653687
0.592163 0.762756 0.653687
0.689636 0.762756 0.653687
0.769348 0.762756 0.653687
0.837891 0.762756 0.653687
0.899963 0.762756 0.653687
0.176880 0.859894 0.653687
0.331451 0.859894 0.653687
0.472168 0.859894 0.653687
0.592163 0.859894 0.653687
0.689636 0.859894 0.653687
0.769348 0.859894 0.653687
0.837891 0.859894 0.653687
0.899963 0.859894 0.653687
0.176880 0.334869 0.726349
0.331451 0.334869 0.726349
0.472168 0.334869 0.726349
0.592163 0.334869 0.726349
0.689636 0.334869 0.726349
0.769348 0.334869 0.726349
0.837891 0.334869 0.726349
0.899963 0.334869 0.726349
0.176880 0.390930 0.726349
0.331451 0.390930 0.726349
0.472168 0.390930 0.726349
0.592163 0.390930 0.726349
0.689636 0.390930 0.726349
0.769348 0.390930 0.726349
0.837891 0.390930 0.726349
0.899963 0.390930 0.726349
0.176880 0.450378 0.726349
0.331451 0.450378 0.726349
0.472168 0.450378 0.726349
0.592163 0.450378 0.726349
0.689636 0.450378 0.726349
0.769348 0.450378 0.726349
0.837891 0.450378 0.726349
0.899963 0.450378 0.726349
0.176880 0.515442 0.726349
0.331451 0.515442 0.726349
0.472168 0.515442 0.726349
0.592163 0.515442 0.726349
0.689636 0.515442 0.726349
0.769348 0.515442 0.726349
0.837891 0.515442 0.726349
0.899963 0.515442 0.726349
0.176880 0.588745 0.726349
0.331451 0.588745 0.726349
0.472168 0.588745 0.726349
0.592163 0.588745 0.726349
0.689636 0.588745 0.726349
0.769348 0.588745 0.726349
0.837891 0.588745 0.726349
0.899963 0.588745 0.726349
0.176880 0.671600 0.726349
0.331451 0.671600 0.726349
0.472168 0.671600 0.726349
0.592163 0.671600 0.726349
0.689636 0.671600 0.726349
0.769348 0.671600 0.726349
0.837891 0.671600 0.726349
0.899963 0.671600 0.726349
0.176880 0.762756 0.726349
0.331451 0.762756 0.726349
0.472168 0.762756 0.726349
0.592163 0.762756 0.726349
0.689636 0.762756 0.726349
0.769348 0.762756 0.726349
0.837891 0.762756 0.726349
0.899963 0.762756 0.726349
0.176880 0.859894 0.726349
0.331451 0.859894 0.726349
0.472168 0.859894 0.726349
0.592163 0.859894 0.726349
0.689636 0.859894 0.726349
0.769348 0.859894 0.726349
0.837891 0.859894 0.726349
0.899963 0.859894 0.726349
0.176880 0.334869 0.802155
0.331451 0.334869 0.802155
0.472168 0.334869 0.802155
0.592163 0.334869 0.802155
0.689636 0.334869 0.802155
0.769348 0.334869 0.802155
0.837891 0.334869 0.802155
0.899963 0.334869 0.802155
0.176880 0.390930 0.802155
0.331451 0.390930 0.802155
0.472168 0.390930 0.802155
0.592163 0.390930 0.802155
0.689636 0.390930 0.802155
0.769348 0.390930 0.802155
0.837891 0.390930 0.802155
0.899963 0.390930 0.802155
0.176880 0.450378 0.802155
0.331451 0.450378 0.802155
0.472168 0.450378 0.802155
0.592163 0.450378 0.802155
0.689636 0.450378 0.802155
0.769348 0.450378 0.802155
0.837891 0.450378 0.802155
0.899963 0.450378 0.802155
0.176880 0.515442 0.802155
0.331451 0.515442 0.802155
0.472168 0.515442 0.802155
0.592163 0.515442 0.802155
0.689636 0.515442 0.802155
0.769348 0.515442 0.802155
0.837891 0.515442 0.802155
0.899963 0.515442 0.802155
0.176880 0.588745 0.802155
0.331451 0.588745 0.802155
0.472168 0.588745 0.802155
0.592163 0.588745 0.802155
0.689636 0.588745 0.802155
0.769348 0.588745 0.802155
0.837891 0.588745 0.802155
0.899963 0.588745 0.802155
0.176880 0.671600 0.802155
0.331451 0.671600 0.802155
0.472168 0.671600 0.802155
0.592163 0.671600 0.802155
0.689636 0.671600 0.802155
0.769348 0.671600 0.802155
0.837891 0.671600 0.802155
0.899963 0.671600 0.802155
0.176880 0.762756 0.802155
0.331451 0.762756 0.802155
0.472168 0.762756 0.802155
0.592163 0.762756 0.802155
0.689636 0.762756 0.802155
0.769348 0.762756 0.802155
0.837891 0.762756 0.802155
0.899963 0.762756 0.802155
0.176880 0.859894 0.802155
0.331451 0.859894 0.802155
0.472168 0.859894 0.802155
0.592163 0.859894 0.802155
0.689636 0.859894 0.802155
0.769348 0.859894 0.802155
0.837891 0.859894 0.802155
0.899963 0.859894 0.802155
0.176880 0.334869 0.880157
0.331451 0.334869 0.880157
0.472168 0.334869 0.880157
0.592163 0.334869 0.880157
0.689636 0.334869 0.880157
0.769348 0.334869 0.880157
0.837891 0.334869 0.880157
0.899963 0.334869 0.880157
0.176880 0.390930 0.880157
0.331451 0.390930 0.880157
0.472168 0.390930 0.880157
0.592163 0.390930 0.880157
0.689636 0.390930 0.880157
0.769348 0.390930 0.880157
0.837891 0.390930 0.880157
0.899963 0.390930 0.880157
0.176880 0.450378 0.880157
0.331451 0.450378 0.880157
0.472168 0.450378 0.880157
0.592163 0.450378 0.880157
0.689636 0.450378 0.880157
0.769348 0.450378 0.880157
0.837891 0.450378 0.880157
0.899963 0.450378 0.880157
0.176880 0.515442 0.880157
0.331451 0.515442 0.880157
0.472168 0.515442 0.880157
0.592163 0.515442 0.880157
0.689636 0.515442 0.880157
0.769348 0.515442 0.880157
0.837891 0.515442 0.880157
0.899963 0.515442 0.880157
0.176880 0.588745 0.880157
0.331451 0.588745 0.880157
0.472168 0.588745 0.880157
0.592163 0.588745 0.880157
0.689636 0.588745 0.880157
0.769348 0.588745 0.880157
0.837891 0.588745 0.880157
0.899963 0.588745 0.880157
0.176880 0.671600 0.880157
0.331451 0.671600 0.880157
0.472168 0.671600 0.880157
0.592163 0.671600 0.880157
0.689636 0.671600 0.880157
0.769348 0.671600 0.880157
0.837891 0.671600 0.880157
0.899963 0.671600 0.880157
0.176880 0.762756 0.880157
0.331451 0.762756 0.880157
0.472168 0.762756 0.880157
0.592163 0.762756 0.880157
0.689636 0.762756 0.880157
0.769348 0.762756 0.880157
0.837891 0.762756 0.880157
0.899963 0.762756 0.880157
0.176880 0.859894 0.880157
0.331451 0.859894 0.880157
0.472168 0.859894 0.880157
0.592163 0.859894 0.880157
0.689636 0.859894 0.880157
0.769348 0.859894 0.880157
0.837891 0.859894 0.880157
0.899963 0.859894 0.880157
