Avant Garde/Striped Purple - Polaroid Mint Cream.cube
#Created by: Adobe Photoshop Export Color Lookup Plugin
#Copyright: (C) Copyright 2019 Polaroid Mint Cream by Striped Purple - © Austin Barrett All Rights Reserved.
TITLE "Striped Purple - Polaroid Mint Cream"
#LUT size
LUT_3D_SIZE 5
#data domain
#LUT data points
DOMAIN_MIN 0.000000 0.000000 0.000000
DOMAIN_MAX 0.903226 0.903226 0.903226
0.333954 0.319550 0.326660
0.388794 0.323944 0.330383
0.603058 0.362762 0.362976
0.835510 0.426208 0.416046
0.932007 0.456116 0.440887
0.346497 0.367737 0.335297
0.395172 0.369873 0.338409
0.604645 0.393402 0.367493
0.836182 0.444366 0.418457
0.932495 0.471039 0.442871
0.431671 0.560303 0.394287
0.455872 0.560852 0.395538
0.624359 0.567993 0.410370
0.844604 0.588898 0.446075
0.938995 0.602600 0.465912
0.548248 0.804047 0.476776
0.560364 0.804352 0.477386
0.676178 0.807892 0.485077
0.869385 0.818726 0.506775
0.958466 0.826141 0.520416
0.599609 0.915833 0.514252
0.609131 0.916046 0.514740
0.706696 0.918884 0.520935
0.885681 0.927521 0.538788
0.971527 0.933472 0.550354
0.333954 0.319550 0.362640
0.388794 0.323944 0.364502
0.603058 0.362762 0.385315
0.835510 0.426208 0.428986
0.932007 0.456116 0.451477
0.346497 0.367737 0.367157
0.395172 0.369873 0.368927
0.604645 0.393402 0.388672
0.836182 0.444366 0.431152
0.932495 0.471039 0.453247
0.431671 0.560303 0.410156
0.455872 0.560852 0.411194
0.624359 0.567993 0.423981
0.844604 0.588898 0.456207
0.938995 0.602600 0.474731
0.548248 0.804047 0.484985
0.560364 0.804352 0.485565
0.676178 0.807892 0.492889
0.869385 0.818726 0.513611
0.958466 0.826141 0.526764
0.599609 0.915833 0.520844
0.609131 0.916046 0.521301
0.706696 0.918884 0.527252
0.885681 0.927521 0.544586
0.971527 0.933472 0.555817
0.333954 0.319550 0.509979
0.388794 0.323944 0.510468
0.603058 0.362762 0.516785
0.835510 0.426208 0.535065
0.932007 0.456116 0.546844
0.346497 0.367737 0.511200
0.395172 0.369873 0.511688
0.604645 0.393402 0.517975
0.836182 0.444366 0.536133
0.932495 0.471039 0.547821
0.431671 0.560303 0.526398
0.455872 0.560852 0.526855
0.624359 0.567993 0.532623
0.844604 0.588898 0.549500
0.938995 0.602600 0.560486
0.548248 0.804047 0.566925
0.560364 0.804352 0.567291
0.676178 0.807892 0.572052
0.869385 0.818726 0.586151
0.958466 0.826141 0.595520
0.599609 0.915833 0.591248
0.609131 0.916046 0.591553
0.706696 0.918884 0.595825
0.885681 0.927521 0.608612
0.971527 0.933472 0.617157
0.333954 0.319550 0.688629
0.388794 0.323944 0.688843
0.603058 0.362762 0.691833
0.835510 0.426208 0.700958
0.932007 0.456116 0.707153
0.346497 0.367737 0.689178
0.395172 0.369873 0.689392
0.604645 0.393402 0.692413
0.836182 0.444366 0.701508
0.932495 0.471039 0.707703
0.431671 0.560303 0.696564
0.455872 0.560852 0.696777
0.624359 0.567993 0.699707
0.844604 0.588898 0.708618
0.938995 0.602600 0.714661
0.548248 0.804047 0.718292
0.560364 0.804352 0.718506
0.676178 0.807892 0.721252
0.869385 0.818726 0.729584
0.958466 0.826141 0.735260
0.599609 0.915833 0.732666
0.609131 0.916046 0.732849
0.706696 0.918884 0.735504
0.885681 0.927521 0.743469
0.971527 0.933472 0.748932
0.333954 0.319550 0.768494
0.388794 0.323944 0.768646
0.603058 0.362762 0.771027
0.835510 0.426208 0.778290
0.932007 0.456146 0.783234
0.346497 0.367737 0.768921
0.395172 0.369873 0.769104
0.604645 0.393402 0.771484
0.836182 0.444366 0.778717
0.932495 0.471039 0.783661
0.431671 0.560303 0.774780
0.455872 0.560852 0.774963
0.624359 0.567993 0.777283
0.844604 0.588898 0.784393
0.938995 0.602600 0.789276
0.548248 0.804047 0.792236
0.560364 0.804352 0.792419
0.676178 0.807892 0.794647
0.869385 0.818726 0.801453
0.958466 0.826141 0.806122
0.599609 0.915833 0.803955
0.609131 0.916046 0.804138
0.706696 0.918884 0.806274
0.885681 0.927521 0.812897
0.971527 0.933472 0.817444
