Avant Garde/Striped Purple - Amber Haze.cube
#Created by: Adobe Photoshop Export Color Lookup Plugin
#Copyright: (C) Copyright 2019 Amber Haze by Striped Purple - © Austin Barrett All Rights Reserved.
TITLE "Striped Purple - Amber Haze"
#LUT size
LUT_3D_SIZE 32
#data domain
DOMAIN_MIN 0.0 0.0 0.0
DOMAIN_MAX 1.0 1.0 1.0
#LUT data points
0.015076 0.000000 0.000000
0.043884 0.000000 0.000000
0.072571 0.000000 0.000000
0.101227 0.000000 0.000000
0.129639 0.000000 0.000000
0.157867 0.000000 0.000000
0.185822 0.000000 0.000000
0.213470 0.000000 0.000000
0.240723 0.000000 0.000000
0.267639 0.000000 0.000000
0.294067 0.000000 0.000000
0.320007 0.000000 0.000000
0.345398 0.000000 0.000000
0.370361 0.000000 0.000000
0.394653 0.000000 0.000000
0.418365 0.000000 0.000000
0.441467 0.000000 0.000000
0.463959 0.000000 0.000000
0.485809 0.000000 0.000000
0.507111 0.000000 0.000000
0.527893 0.000000 0.000000
0.548187 0.000000 0.000000
0.568146 0.000000 0.000000
0.587646 0.000000 0.000000
0.606842 0.000000 0.000000
0.625702 0.000000 0.000000
0.644348 0.000000 0.000000
0.662689 0.000000 0.000000
0.680847 0.000000 0.000000
0.698822 0.000000 0.000000
0.716614 0.000000 0.000000
0.734283 0.000000 0.000000
0.015076 0.021515 0.000000
0.043884 0.021515 0.000000
0.072571 0.021515 0.000000
0.101227 0.021515 0.000000
0.129639 0.021515 0.000000
0.157867 0.021515 0.000000
0.185822 0.021515 0.000000
0.213470 0.021515 0.000000
0.240723 0.021515 0.000000
0.267639 0.021515 0.000000
0.294067 0.021515 0.000000
0.320007 0.021515 0.000000
0.345398 0.021515 0.000000
0.370361 0.021515 0.000000
0.394653 0.021515 0.000000
0.418365 0.021515 0.000000
0.441467 0.021515 0.000000
0.463959 0.021515 0.000000
0.485809 0.021515 0.000000
0.507111 0.021515 0.000000
0.527893 0.021515 0.000000
0.548187 0.021515 0.000000
0.568146 0.021515 0.000000
0.587646 0.021515 0.000000
0.606842 0.021515 0.000000
0.625702 0.021515 0.000000
0.644348 0.021515 0.000000
0.662689 0.021515 0.000000
0.680847 0.021515 0.000000
0.698822 0.021515 0.000000
0.716614 0.021515 0.000000
0.734283 0.021515 0.000000
0.015076 0.042999 0.000000
0.043884 0.042999 0.000000
0.072571 0.042999 0.000000
0.101227 0.042999 0.000000
0.129639 0.042999 0.000000
0.157867 0.042999 0.000000
0.185822 0.042999 0.000000
0.213470 0.042999 0.000000
0.240723 0.042999 0.000000
0.267639 0.042999 0.000000
0.294067 0.042999 0.000000
0.320007 0.042999 0.000000
0.345398 0.042999 0.000000
0.370361 0.042999 0.000000
0.394653 0.042999 0.000000
0.418365 0.042999 0.000000
0.441467 0.042999 0.000000
0.463959 0.042999 0.000000
0.485809 0.042999 0.000000
0.507111 0.042999 0.000000
0.527893 0.042999 0.000000
0.548187 0.042999 0.000000
0.568146 0.042999 0.000000
0.587646 0.042999 0.000000
0.606842 0.042999 0.000000
0.625702 0.042999 0.000000
0.644348 0.042999 0.000000
0.662689 0.042999 0.000000
0.680847 0.042999 0.000000
0.698822 0.042999 0.000000
0.716614 0.042999 0.000000
0.734283 0.042999 0.000000
0.015076 0.064545 0.000000
0.043884 0.064545 0.000000
0.072571 0.064545 0.000000
0.101227 0.064545 0.000000
0.129639 0.064545 0.000000
0.157867 0.064545 0.000000
0.185822 0.064545 0.000000
0.213470 0.064545 0.000000
0.240723 0.064545 0.000000
0.267639 0.064545 0.000000
0.294067 0.064545 0.000000
0.320007 0.064545 0.000000
0.345398 0.064545 0.000000
0.370361 0.064545 0.000000
0.394653 0.064545 0.000000
0.418365 0.064545 0.000000
0.441467 0.064545 0.000000
0.463959 0.064545 0.000000
0.485809 0.064545 0.000000
0.507111 0.064545 0.000000
0.527893 0.064545 0.000000
0.548187 0.064545 0.000000
0.568146 0.064545 0.000000
0.587646 0.064545 0.000000
0.606842 0.064545 0.000000
0.625702 0.064545 0.000000
0.644348 0.064545 0.000000
0.662689 0.064545 0.000000
0.680847 0.064545 0.000000
0.698822 0.064545 0.000000
0.716614 0.064545 0.000000
0.734283 0.064545 0.000000
0.015076 0.086182 0.000000
0.043884 0.086182 0.000000
0.072571 0.086182 0.000000
0.101227 0.086182 0.000000
0.129639 0.086182 0.000000
0.157867 0.086182 0.000000
0.185822 0.086182 0.000000
0.213470 0.086182 0.000000
0.240723 0.086182 0.000000
0.267639 0.086182 0.000000
0.294067 0.086182 0.000000
0.320007 0.086182 0.000000
0.345398 0.086182 0.000000
0.370361 0.086182 0.000000
0.394653 0.086182 0.000000
0.418365 0.086182 0.000000
0.441467 0.086182 0.000000
0.463959 0.086182 0.000000
0.485809 0.086182 0.000000
0.507111 0.086182 0.000000
0.527893 0.086182 0.000000
0.548187 0.086182 0.000000
0.568146 0.086182 0.000000
0.587646 0.086182 0.000000
0.606842 0.086182 0.000000
0.625702 0.086182 0.000000
0.644348 0.086182 0.000000
0.662689 0.086182 0.000000
0.680847 0.086182 0.000000
0.698822 0.086182 0.000000
0.716614 0.086182 0.000000
0.734283 0.086182 0.000000
0.015076 0.107849 0.000000
0.043884 0.107849 0.000000
0.072571 0.107849 0.000000
0.101227 0.107849 0.000000
0.129639 0.107849 0.000000
0.157867 0.107849 0.000000
0.185822 0.107849 0.000000
0.213470 0.107849 0.000000
0.240723 0.107849 0.000000
0.267639 0.107849 0.000000
0.294067 0.107849 0.000000
0.320007 0.107849 0.000000
0.345398 0.107849 0.000000
0.370361 0.107849 0.000000
0.394653 0.107849 0.000000
0.418365 0.107849 0.000000
0.441467 0.107849 0.000000
0.463959 0.107849 0.000000
0.485809 0.107849 0.000000
0.507111 0.107849 0.000000
0.527893 0.107849 0.000000
0.548187 0.107849 0.000000
0.568146 0.107849 0.000000
0.587646 0.107849 0.000000
0.606842 0.107849 0.000000
0.625702 0.107849 0.000000
0.644348 0.107849 0.000000
0.662689 0.107849 0.000000
0.680847 0.107849 0.000000
0.698822 0.107849 0.000000
0.716614 0.107849 0.000000
0.734283 0.107849 0.000000
0.015076 0.129578 0.000000
0.043884 0.129578 0.000000
0.072571 0.129578 0.000000
0.101227 0.129578 0.000000
0.129639 0.129578 0.000000
0.157867 0.129578 0.000000
0.185822 0.129578 0.000000
0.213470 0.129578 0.000000
0.240723 0.129578 0.000000
0.267639 0.129578 0.000000
0.294067 0.129578 0.000000
0.320007 0.129578 0.000000
0.345398 0.129578 0.000000
0.370361 0.129578 0.000000
0.394653 0.129578 0.000000
0.418365 0.129578 0.000000
0.441467 0.129578 0.000000
0.463959 0.129578 0.000000
0.485809 0.129578 0.000000
0.507111 0.129578 0.000000
0.527893 0.129578 0.000000
0.548187 0.129578 0.000000
0.568146 0.129578 0.000000
0.587646 0.129578 0.000000
0.606842 0.129578 0.000000
0.625702 0.129578 0.000000
0.644348 0.129578 0.000000
0.662689 0.129578 0.000000
0.680847 0.129578 0.000000
0.698822 0.129578 0.000000
0.716614 0.129578 0.000000
0.734283 0.129578 0.000000
0.015076 0.151489 0.000000
0.043884 0.151489 0.000000
0.072571 0.151489 0.000000
0.101227 0.151489 0.000000
0.129639 0.151489 0.000000
0.157867 0.151489 0.000000
0.185822 0.151489 0.000000
0.213470 0.151489 0.000000
0.240723 0.151489 0.000000
0.267639 0.151489 0.000000
0.294067 0.151489 0.000000
0.320007 0.151489 0.000000
0.345398 0.151489 0.000000
0.370361 0.151489 0.000000
0.394653 0.151489 0.000000
0.418365 0.151489 0.000000
0.441467 0.151489 0.000000
0.463959 0.151489 0.000000
0.485809 0.151489 0.000000
0.507111 0.151489 0.000000
0.527893 0.151489 0.000000
0.548187 0.151489 0.000000
0.568146 0.151489 0.000000
0.587646 0.151489 0.000000
0.606842 0.151489 0.000000
0.625702 0.151489 0.000000
0.644348 0.151489 0.000000
0.662689 0.151489 0.000000
0.680847 0.151489 0.000000
0.698822 0.151489 0.000000
0.716614 0.151489 0.000000
0.734283 0.151489 0.000000
0.015076 0.173492 0.000000
0.043884 0.173492 0.000000
0.072571 0.173492 0.000000
0.101227 0.173492 0.000000
0.129639 0.173492 0.000000
0.157867 0.173492 0.000000
0.185822 0.173492 0.000000
0.213470 0.173492 0.000000
0.240723 0.173492 0.000000
0.267639 0.173492 0.000000
0.294067 0.173492 0.000000
0.320007 0.173492 0.000000
0.345398 0.173492 0.000000
0.370361 0.173492 0.000000
0.394653 0.173492 0.000000
0.418365 0.173492 0.000000
0.441467 0.173492 0.000000
0.463959 0.173492 0.000000
0.485809 0.173492 0.000000
0.507111 0.173492 0.000000
0.527893 0.173492 0.000000
0.548187 0.173492 0.000000
0.568146 0.173492 0.000000
0.587646 0.173492 0.000000
0.606842 0.173492 0.000000
0.625702 0.173492 0.000000
0.644348 0.173492 0.000000
0.662689 0.173492 0.000000
0.680847 0.173492 0.000000
0.698822 0.173492 0.000000
0.716614 0.173492 0.000000
0.734283 0.173492 0.000000
0.015076 0.195648 0.000000
0.043884 0.195648 0.000000
0.072571 0.195648 0.000000
0.101227 0.195648 0.000000
0.129639 0.195648 0.000000
0.157867 0.195648 0.000000
0.185822 0.195648 0.000000
0.213470 0.195648 0.000000
0.240723 0.195648 0.000000
0.267639 0.195648 0.000000
0.294067 0.195648 0.000000
0.320007 0.195648 0.000000
0.345398 0.195648 0.000000
0.370361 0.195648 0.000000
0.394653 0.195648 0.000000
0.418365 0.195648 0.000000
0.441467 0.195648 0.000000
0.463959 0.195648 0.000000
0.485809 0.195648 0.000000
0.507111 0.195648 0.000000
0.527893 0.195648 0.000000
0.548187 0.195648 0.000000
0.568146 0.195648 0.000000
0.587646 0.195648 0.000000
0.606842 0.195648 0.000000
0.625702 0.195648 0.000000
0.644348 0.195648 0.000000
0.662689 0.195648 0.000000
0.680847 0.195648 0.000000
0.698822 0.195648 0.000000
0.716614 0.195648 0.000000
0.734283 0.195648 0.000000
0.015076 0.217957 0.000000
0.043884 0.217957 0.000000
0.072571 0.217957 0.000000
0.101227 0.217957 0.000000
0.129639 0.217957 0.000000
0.157867 0.217957 0.000000
0.185822 0.217957 0.000000
0.213470 0.217957 0.000000
0.240723 0.217957 0.000000
0.267639 0.217957 0.000000
0.294067 0.217957 0.000000
0.320007 0.217957 0.000000
0.345398 0.217957 0.000000
0.370361 0.217957 0.000000
0.394653 0.217957 0.000000
0.418365 0.217957 0.000000
0.441467 0.217957 0.000000
0.463959 0.217957 0.000000
0.485809 0.217957 0.000000
0.507111 0.217957 0.000000
0.527893 0.217957 0.000000
0.548187 0.217957 0.000000
0.568146 0.217957 0.000000
0.587646 0.217957 0.000000
0.606842 0.217957 0.000000
0.625702 0.217957 0.000000
0.644348 0.217957 0.000000
0.662689 0.217957 0.000000
0.680847 0.217957 0.000000
0.698822 0.217957 0.000000
0.716614 0.217957 0.000000
0.734283 0.217957 0.000000
0.015076 0.240448 0.000000
0.043884 0.240448 0.000000
0.072571 0.240448 0.000000
0.101227 0.240448 0.000000
0.129639 0.240448 0.000000
0.157867 0.240448 0.000000
0.185822 0.240448 0.000000
0.213470 0.240448 0.000000
0.240723 0.240448 0.000000
0.267639 0.240448 0.000000
0.294067 0.240448 0.000000
0.320007 0.240448 0.000000
0.345398 0.240448 0.000000
0.370361 0.240448 0.000000
0.394653 0.240448 0.000000
0.418365 0.240448 0.000000
0.441467 0.240448 0.000000
0.463959 0.240448 0.000000
0.485809 0.240448 0.000000
0.507111 0.240448 0.000000
0.527893 0.240448 0.000000
0.548187 0.240448 0.000000
0.568146 0.240448 0.000000
0.587646 0.240448 0.000000
0.606842 0.240448 0.000000
0.625702 0.240448 0.000000
0.644348 0.240448 0.000000
0.662689 0.240448 0.000000
0.680847 0.240448 0.000000
0.698822 0.240448 0.000000
0.716614 0.240448 0.000000
0.734283 0.240448 0.000000
0.015076 0.263184 0.000000
0.043884 0.263184 0.000000
0.072571 0.263184 0.000000
0.101227 0.263184 0.000000
0.129639 0.263184 0.000000
0.157867 0.263184 0.000000
0.185822 0.263184 0.000000
0.213470 0.263184 0.000000
0.240723 0.263184 0.000000
0.267639 0.263184 0.000000
0.294067 0.263184 0.000000
0.320007 0.263184 0.000000
0.345398 0.263184 0.000000
0.370361 0.263184 0.000000
0.394653 0.263184 0.000000
0.418365 0.263184 0.000000
0.441467 0.263184 0.000000
0.463959 0.263184 0.000000
0.485809 0.263184 0.000000
0.507111 0.263184 0.000000
0.527893 0.263184 0.000000
0.548187 0.263184 0.000000
0.568146 0.263184 0.000000
0.587646 0.263184 0.000000
0.606842 0.263184 0.000000
0.625702 0.263184 0.000000
0.644348 0.263184 0.000000
0.662689 0.263184 0.000000
0.680847 0.263184 0.000000
0.698822 0.263184 0.000000
0.716614 0.263184 0.000000
0.734283 0.263184 0.000000
0.015076 0.286133 0.000000
0.043884 0.286133 0.000000
0.072571 0.286133 0.000000
0.101227 0.286133 0.000000
0.129639 0.286133 0.000000
0.157867 0.286133 0.000000
0.185822 0.286133 0.000000
0.213470 0.286133 0.000000
0.240723 0.286133 0.000000
0.267639 0.286133 0.000000
0.294067 0.286133 0.000000
0.320007 0.286133 0.000000
0.345398 0.286133 0.000000
0.370361 0.286133 0.000000
0.394653 0.286133 0.000000
0.418365 0.286133 0.000000
0.441467 0.286133 0.000000
0.463959 0.286133 0.000000
0.485809 0.286133 0.000000
0.507111 0.286133 0.000000
0.527893 0.286133 0.000000
0.548187 0.286133 0.000000
0.568146 0.286133 0.000000
0.587646 0.286133 0.000000
0.606842 0.286133 0.000000
0.625702 0.286133 0.000000
0.644348 0.286133 0.000000
0.662689 0.286133 0.000000
0.680847 0.286133 0.000000
0.698822 0.286133 0.000000
0.716614 0.286133 0.000000
0.734283 0.286133 0.000000
0.015076 0.309326 0.000000
0.043884 0.309326 0.000000
0.072571 0.309326 0.000000
0.101227 0.309326 0.000000
0.129639 0.309326 0.000000
0.157867 0.309326 0.000000
0.185822 0.309326 0.000000
0.213470 0.309326 0.000000
0.240723 0.309326 0.000000
0.267639 0.309326 0.000000
0.294067 0.309326 0.000000
0.320007 0.309326 0.000000
0.345398 0.309326 0.000000
0.370361 0.309326 0.000000
0.394653 0.309326 0.000000
0.418365 0.309326 0.000000
0.441467 0.309326 0.000000
0.463959 0.309326 0.000000
0.485809 0.309326 0.000000
0.507111 0.309326 0.000000
0.527893 0.309326 0.000000
0.548187 0.309326 0.000000
0.568146 0.309326 0.000000
0.587646 0.309326 0.000000
0.606842 0.309326 0.000000
0.625702 0.309326 0.000000
0.644348 0.309326 0.000000
0.662689 0.309326 0.000000
0.680847 0.309326 0.000000
0.698822 0.309326 0.000000
0.716614 0.309326 0.000000
0.734283 0.309326 0.000000
0.015076 0.332794 0.000000
0.043884 0.332794 0.000000
0.072571 0.332794 0.000000
0.101227 0.332794 0.000000
0.129639 0.332794 0.000000
0.157867 0.332794 0.000000
0.185822 0.332794 0.000000
0.213470 0.332794 0.000000
0.240723 0.332794 0.000000
0.267639 0.332794 0.000000
0.294067 0.332794 0.000000
0.320007 0.332794 0.000000
0.345398 0.332794 0.000000
0.370361 0.332794 0.000000
0.394653 0.332794 0.000000
0.418365 0.332794 0.000000
0.441467 0.332794 0.000000
0.463959 0.332794 0.000000
0.485809 0.332794 0.000000
0.507111 0.332794 0.000000
0.527893 0.332794 0.000000
0.548187 0.332794 0.000000
0.568146 0.332794 0.000000
0.587646 0.332794 0.000000
0.606842 0.332794 0.000000
0.625702 0.332794 0.000000
0.644348 0.332794 0.000000
0.662689 0.332794 0.000000
0.680847 0.332794 0.000000
0.698822 0.332794 0.000000
0.716614 0.332794 0.000000
0.734283 0.332794 0.000000
0.015076 0.356628 0.000000
0.043884 0.356628 0.000000
0.072571 0.356628 0.000000
0.101227 0.356628 0.000000
0.129639 0.356628 0.000000
0.157867 0.356628 0.000000
0.185822 0.356628 0.000000
0.213470 0.356628 0.000000
0.240723 0.356628 0.000000
0.267639 0.356628 0.000000
0.294067 0.356628 0.000000
0.320007 0.356628 0.000000
0.345398 0.356628 0.000000
0.370361 0.356628 0.000000
0.394653 0.356628 0.000000
0.418365 0.356628 0.000000
0.441467 0.356628 0.000000
0.463959 0.356628 0.000000
0.485809 0.356628 0.000000
0.507111 0.356628 0.000000
0.527893 0.356628 0.000000
0.548187 0.356628 0.000000
0.568146 0.356628 0.000000
0.587646 0.356628 0.000000
0.606842 0.356628 0.000000
0.625702 0.356628 0.000000
0.644348 0.356628 0.000000
0.662689 0.356628 0.000000
0.680847 0.356628 0.000000
0.698822 0.356628 0.000000
0.716614 0.356628 0.000000
0.734283 0.356628 0.000000
0.015076 0.380768 0.000000
0.043884 0.380768 0.000000
0.072571 0.380768 0.000000
0.101227 0.380768 0.000000
0.129639 0.380768 0.000000
0.157867 0.380768 0.000000
0.185822 0.380768 0.000000
0.213470 0.380768 0.000000
0.240723 0.380768 0.000000
0.267639 0.380768 0.000000
0.294067 0.380768 0.000000
0.320007 0.380768 0.000000
0.345398 0.380768 0.000000
0.370361 0.380768 0.000000
0.394653 0.380768 0.000000
0.418365 0.380768 0.000000
0.441467 0.380768 0.000000
0.463959 0.380768 0.000000
0.485809 0.380768 0.000000
0.507111 0.380768 0.000000
0.527893 0.380768 0.000000
0.548187 0.380768 0.000000
0.568146 0.380768 0.000000
0.587646 0.380768 0.000000
0.606842 0.380768 0.000000
0.625702 0.380768 0.000000
0.644348 0.380768 0.000000
0.662689 0.380768 0.000000
0.680847 0.380768 0.000000
0.698822 0.380768 0.000000
0.716614 0.380768 0.000000
0.734283 0.380768 0.000000
0.015076 0.405151 0.000000
0.043884 0.405151 0.000000
0.072571 0.405151 0.000000
0.101227 0.405151 0.000000
0.129639 0.405151 0.000000
0.157867 0.405151 0.000000
0.185822 0.405151 0.000000
0.213470 0.405151 0.000000
0.240723 0.405151 0.000000
0.267639 0.405151 0.000000
0.294067 0.405151 0.000000
0.320007 0.405151 0.000000
0.345398 0.405151 0.000000
0.370361 0.405151 0.000000
0.394653 0.405151 0.000000
0.418365 0.405151 0.000000
0.441467 0.405151 0.000000
0.463959 0.405151 0.000000
0.485809 0.405151 0.000000
0.507111 0.405151 0.000000
0.527893 0.405151 0.000000
0.548187 0.405151 0.000000
0.568146 0.405151 0.000000
0.587646 0.405151 0.000000
0.606842 0.405151 0.000000
0.625702 0.405151 0.000000
0.644348 0.405151 0.000000
0.662689 0.405151 0.000000
0.680847 0.405151 0.000000
0.698822 0.405151 0.000000
0.716614 0.405151 0.000000
0.734283 0.405151 0.000000
0.015076 0.429932 0.000000
0.043884 0.429932 0.000000
0.072571 0.429932 0.000000
0.101227 0.429932 0.000000
0.129639 0.429932 0.000000
0.157867 0.429932 0.000000
0.185822 0.429932 0.000000
0.213470 0.429932 0.000000
0.240723 0.429932 0.000000
0.267639 0.429932 0.000000
0.294067 0.429932 0.000000
0.320007 0.429932 0.000000
0.345398 0.429932 0.000000
0.370361 0.429932 0.000000
0.394653 0.429932 0.000000
0.418365 0.429932 0.000000
0.441467 0.429932 0.000000
0.463959 0.429932 0.000000
0.485809 0.429932 0.000000
0.507111 0.429932 0.000000
0.527893 0.429932 0.000000
0.548187 0.429932 0.000000
0.568146 0.429932 0.000000
0.587646 0.429932 0.000000
0.606842 0.429932 0.000000
0.625702 0.429932 0.000000
0.644348 0.429932 0.000000
0.662689 0.429932 0.000000
0.680847 0.429932 0.000000
0.698822 0.429932 0.000000
0.716614 0.429932 0.000000
0.734283 0.429932 0.000000
0.015076 0.455017 0.000000
0.043884 0.455017 0.000000
0.072571 0.455017 0.000000
0.101227 0.455017 0.000000
0.129639 0.455017 0.000000
0.157867 0.455017 0.000000
0.185822 0.455017 0.000000
0.213470 0.455017 0.000000
0.240723 0.455017 0.000000
0.267639 0.455017 0.000000
0.294067 0.455017 0.000000
0.320007 0.455017 0.000000
0.345398 0.455017 0.000000
0.370361 0.455017 0.000000
0.394653 0.455017 0.000000
0.418365 0.455017 0.000000
0.441467 0.455017 0.000000
0.463959 0.455017 0.000000
0.485809 0.455017 0.000000
0.507111 0.455017 0.000000
0.527893 0.455017 0.000000
0.548187 0.455017 0.000000
0.568146 0.455017 0.000000
0.587646 0.455017 0.000000
0.606842 0.455017 0.000000
0.625702 0.455017 0.000000
0.644348 0.455017 0.000000
0.662689 0.455017 0.000000
0.680847 0.455017 0.000000
0.698822 0.455017 0.000000
0.716614 0.455017 0.000000
0.734283 0.455017 0.000000
0.015076 0.480499 0.000000
0.043884 0.480499 0.000000
0.072571 0.480499 0.000000
0.101227 0.480499 0.000000
0.129639 0.480499 0.000000
0.157867 0.480499 0.000000
0.185822 0.480499 0.000000
0.213470 0.480499 0.000000
0.240723 0.480499 0.000000
0.267639 0.480499 0.000000
0.294067 0.480499 0.000000
0.320007 0.480499 0.000000
0.345398 0.480499 0.000000
0.370361 0.480499 0.000000
0.394653 0.480499 0.000000
0.418365 0.480499 0.000000
0.441467 0.480499 0.000000
0.463959 0.480499 0.000000
0.485809 0.480499 0.000000
0.507111 0.480499 0.000000
0.527893 0.480499 0.000000
0.548187 0.480499 0.000000
0.568146 0.480499 0.000000
0.587646 0.480499 0.000000
0.606842 0.480499 0.000000
0.625702 0.480499 0.000000
0.644348 0.480499 0.000000
0.662689 0.480499 0.000000
0.680847 0.480499 0.000000
0.698822 0.480499 0.000000
0.716614 0.480499 0.000000
0.734283 0.480499 0.000000
0.015076 0.506226 0.000000
0.043884 0.506226 0.000000
0.072571 0.506226 0.000000
0.101227 0.506226 0.000000
0.129639 0.506226 0.000000
0.157867 0.506226 0.000000
0.185822 0.506226 0.000000
0.213470 0.506226 0.000000
0.240723 0.506226 0.000000
0.267639 0.506226 0.000000
0.294067 0.506226 0.000000
0.320007 0.506226 0.000000
0.345398 0.506226 0.000000
0.370361 0.506226 0.000000
0.394653 0.506226 0.000000
0.418365 0.506226 0.000000
0.441467 0.506226 0.000000
0.463959 0.506226 0.000000
0.485809 0.506226 0.000000
0.507111 0.506226 0.000000
0.527893 0.506226 0.000000
0.548187 0.506226 0.000000
0.568146 0.506226 0.000000
0.587646 0.506226 0.000000
0.606842 0.506226 0.000000
0.625702 0.506226 0.000000
0.644348 0.506226 0.000000
0.662689 0.506226 0.000000
0.680847 0.506226 0.000000
0.698822 0.506226 0.000000
0.716614 0.506226 0.000000
0.734283 0.506226 0.000000
0.015076 0.532227 0.000000
0.043884 0.532227 0.000000
0.072571 0.532227 0.000000
0.101227 0.532227 0.000000
0.129639 0.532227 0.000000
0.157867 0.532227 0.000000
0.185822 0.532227 0.000000
0.213470 0.532227 0.000000
0.240723 0.532227 0.000000
0.267639 0.532227 0.000000
0.294067 0.532227 0.000000
0.320007 0.532227 0.000000
0.345398 0.532227 0.000000
0.370361 0.532227 0.000000
0.394653 0.532227 0.000000
0.418365 0.532227 0.000000
0.441467 0.532227 0.000000
0.463959 0.532227 0.000000
0.485809 0.532227 0.000000
0.507111 0.532227 0.000000
0.527893 0.532227 0.000000
0.548187 0.532227 0.000000
0.568146 0.532227 0.000000
0.587646 0.532227 0.000000
0.606842 0.532227 0.000000
0.625702 0.532227 0.000000
0.644348 0.532227 0.000000
0.662689 0.532227 0.000000
0.680847 0.532227 0.000000
0.698822 0.532227 0.000000
0.716614 0.532227 0.000000
0.734283 0.532227 0.000000
0.015076 0.558533 0.000000
0.043884 0.558533 0.000000
0.072571 0.558533 0.000000
0.101227 0.558533 0.000000
0.129639 0.558533 0.000000
0.157867 0.558533 0.000000
0.185822 0.558533 0.000000
0.213470 0.558533 0.000000
0.240723 0.558533 0.000000
0.267639 0.558533 0.000000
0.294067 0.558533 0.000000
0.320007 0.558533 0.000000
0.345398 0.558533 0.000000
0.370361 0.558533 0.000000
0.394653 0.558533 0.000000
0.418365 0.558533 0.000000
0.441467 0.558533 0.000000
0.463959 0.558533 0.000000
0.485809 0.558533 0.000000
0.507111 0.558533 0.000000
0.527893 0.558533 0.000000
0.548187 0.558533 0.000000
0.568146 0.558533 0.000000
0.587646 0.558533 0.000000
0.606842 0.558533 0.000000
0.625702 0.558533 0.000000
0.644348 0.558533 0.000000
0.662689 0.558533 0.000000
0.680847 0.558533 0.000000
0.698822 0.558533 0.000000
0.716614 0.558533 0.000000
0.734283 0.558533 0.000000
0.015076 0.585052 0.000000
0.043884 0.585052 0.000000
0.072571 0.585052 0.000000
0.101227 0.585052 0.000000
0.129639 0.585052 0.000000
0.157867 0.585052 0.000000
0.185822 0.585052 0.000000
0.213470 0.585052 0.000000
0.240723 0.585052 0.000000
0.267639 0.585052 0.000000
0.294067 0.585052 0.000000
0.320007 0.585052 0.000000
0.345398 0.585052 0.000000
0.370361 0.585052 0.000000
0.394653 0.585052 0.000000
0.418365 0.585052 0.000000
0.441467 0.585052 0.000000
0.463959 0.585052 0.000000
0.485809 0.585052 0.000000
0.507111 0.585052 0.000000
0.527893 0.585052 0.000000
0.548187 0.585052 0.000000
0.568146 0.585052 0.000000
0.587646 0.585052 0.000000
0.606842 0.585052 0.000000
0.625702 0.585052 0.000000
0.644348 0.585052 0.000000
0.662689 0.585052 0.000000
0.680847 0.585052 0.000000
0.698822 0.585052 0.000000
0.716614 0.585052 0.000000
0.734283 0.585052 0.000000
0.015076 0.611816 0.000000
0.043884 0.611816 0.000000
0.072571 0.611816 0.000000
0.101227 0.611816 0.000000
0.129639 0.611816 0.000000
0.157867 0.611816 0.000000
0.185822 0.611816 0.000000
0.213470 0.611816 0.000000
0.240723 0.611816 0.000000
0.267639 0.611816 0.000000
0.294067 0.611816 0.000000
0.320007 0.611816 0.000000
0.345398 0.611816 0.000000
0.370361 0.611816 0.000000
0.394653 0.611816 0.000000
0.418365 0.611816 0.000000
0.441467 0.611816 0.000000
0.463959 0.611816 0.000000
0.485809 0.611816 0.000000
0.507111 0.611816 0.000000
0.527893 0.611816 0.000000
0.548187 0.611816 0.000000
0.568146 0.611816 0.000000
0.587646 0.611816 0.000000
0.606842 0.611816 0.000000
0.625702 0.611816 0.000000
0.644348 0.611816 0.000000
0.662689 0.611816 0.000000
0.680847 0.611816 0.000000
0.698822 0.611816 0.000000
0.716614 0.611816 0.000000
0.734283 0.611816 0.000000
0.015076 0.638763 0.000000
0.043884 0.638763 0.000000
0.072571 0.638763 0.000000
0.101227 0.638763 0.000000
0.129639 0.638763 0.000000
0.157867 0.638763 0.000000
0.185822 0.638763 0.000000
0.213470 0.638763 0.000000
0.240723 0.638763 0.000000
0.267639 0.638763 0.000000
0.294067 0.638763 0.000000
0.320007 0.638763 0.000000
0.345398 0.638763 0.000000
0.370361 0.638763 0.000000
