Avant Garde/Striped Purple - Blow Me Down.cube
#Created by: Adobe Photoshop Export Color Lookup Plugin
#Copyright: (C) Copyright 2019 Blow Me Down by Striped Purple © Austin Barrett 2018
TITLE "Blow Me Down"
#LUT size
LUT_3D_SIZE 32
#data domain
DOMAIN_MIN 0.0 0.0 0.0
DOMAIN_MAX 1.0 1.0 1.0
#LUT data points
0.136139 0.140289 0.146423
0.136963 0.140137 0.146393
0.138611 0.138763 0.146393
0.141296 0.138306 0.146149
0.145782 0.137543 0.144592
0.152679 0.136719 0.144012
0.164734 0.136444 0.144135
0.191803 0.135040 0.144226
0.231445 0.132568 0.143036
0.280762 0.129486 0.135620
0.350311 0.129608 0.125580
0.448914 0.135101 0.109650
0.553864 0.143524 0.066772
0.639526 0.145660 0.016296
0.689850 0.147614 0.015869
0.719482 0.148285 0.015137
0.759277 0.130585 0.014771
0.795044 0.109497 0.014038
0.828003 0.075195 0.013306
0.862640 0.068298 0.012604
0.889526 0.065552 0.011902
0.934265 0.057251 0.010986
0.975189 0.036865 0.009857
1.000000 0.030945 0.008545
1.000000 0.008850 0.007294
1.000000 0.003143 0.006042
1.000000 0.000427 0.004211
1.000000 0.000000 0.002411
1.000000 0.075897 0.000366
1.000000 0.090759 0.000000
1.000000 0.090759 0.000000
1.000000 0.090759 0.000000
0.136139 0.140320 0.146454
0.136169 0.140320 0.146454
0.138031 0.140930 0.147003
0.140106 0.140350 0.146271
0.143158 0.139832 0.146118
0.152466 0.137787 0.144012
0.164673 0.137665 0.143890
0.187531 0.137238 0.143433
0.226379 0.135162 0.141785
0.280457 0.131531 0.134644
0.349823 0.132385 0.124115
0.444275 0.139465 0.108398
0.546509 0.148956 0.072327
0.639496 0.151184 0.015869
0.688416 0.152283 0.015533
0.719971 0.152802 0.015137
0.759186 0.149231 0.014404
0.793152 0.146881 0.013702
0.828461 0.143829 0.013306
0.860687 0.134216 0.012329
0.889374 0.127197 0.011627
0.934082 0.109406 0.010529
0.974457 0.092316 0.009644
1.000000 0.085388 0.008545
1.000000 0.088684 0.006805
1.000000 0.088654 0.005402
1.000000 0.087524 0.003601
1.000000 0.049927 0.001465
1.000000 0.087982 0.000061
1.000000 0.090759 0.000000
1.000000 0.090759 0.000000
1.000000 0.090759 0.000000
0.135712 0.141418 0.147491
0.136383 0.141296 0.147217
0.136444 0.141266 0.147186
0.138367 0.141846 0.147705
0.142548 0.140991 0.146881
0.151001 0.139923 0.145599
0.162537 0.139771 0.143402
0.186279 0.139557 0.142426
0.225494 0.137665 0.139923
0.271027 0.135712 0.135406
0.335144 0.134979 0.125977
0.434387 0.144897 0.110413
0.543793 0.156067 0.072479
0.634583 0.159790 0.015808
0.685394 0.162567 0.015137
0.719299 0.162933 0.014801
0.754425 0.162292 0.014038
0.792847 0.159973 0.013672
0.827789 0.156067 0.012604
0.858917 0.150452 0.011902
0.889099 0.144592 0.011230
0.933624 0.125336 0.010284
0.969543 0.106567 0.009155
1.000000 0.098724 0.007874
1.000000 0.099731 0.006622
1.000000 0.101440 0.004791
1.000000 0.102509 0.003113
1.000000 0.103516 0.000732
1.000000 0.093292 0.000031
1.000000 0.090759 0.000000
1.000000 0.090759 0.000000
1.000000 0.090759 0.000000
0.136383 0.142487 0.148895
0.136444 0.142426 0.148834
0.137115 0.142365 0.148590
0.137207 0.142365 0.148560
0.139587 0.142761 0.148560
0.146332 0.142517 0.147888
0.162598 0.142029 0.141632
0.182861 0.141968 0.141022
0.218262 0.141937 0.139038
0.268188 0.140869 0.133270
0.330017 0.142426 0.125366
0.427734 0.151886 0.111084
0.529480 0.165405 0.084930
0.626984 0.172943 0.015137
0.684296 0.176575 0.014801
0.715027 0.176727 0.014343
0.753967 0.178101 0.013641
0.789764 0.176849 0.012939
0.822937 0.173798 0.012268
0.858582 0.172485 0.011597
0.886475 0.165436 0.010559
0.928375 0.160645 0.009827
0.969177 0.143005 0.008514
1.000000 0.132843 0.007233
1.000000 0.128174 0.005585
1.000000 0.121094 0.004150
1.000000 0.118500 0.002380
1.000000 0.120819 0.000336
1.000000 0.112579 0.000000
1.000000 0.099487 0.000000
1.000000 0.091064 0.000000
1.000000 0.090759 0.000000
0.136566 0.143738 0.150299
0.136658 0.143494 0.149750
0.136719 0.143494 0.149719
0.137421 0.143372 0.149414
0.138245 0.143219 0.149353
0.139771 0.144989 0.150665
0.151703 0.144623 0.147217
0.178589 0.146210 0.140320
0.215698 0.146301 0.136444
0.259705 0.146057 0.133240
0.316437 0.149536 0.125793
0.414795 0.162048 0.111755
0.520264 0.177704 0.084808
0.613251 0.186096 0.014832
0.678375 0.192963 0.014313
0.713684 0.196045 0.013611
0.748718 0.196075 0.012939
0.787262 0.196960 0.012238
0.821747 0.195953 0.011566
0.855499 0.195221 0.010895
0.884857 0.192261 0.009827
0.927948 0.186768 0.008942
0.968781 0.182190 0.007874
1.000000 0.169250 0.006165
1.000000 0.165527 0.004761
1.000000 0.158508 0.002930
1.000000 0.151367 0.000702
1.000000 0.143433 0.000031
1.000000 0.130707 0.000000
1.000000 0.122467 0.000000
1.000000 0.109283 0.000000
1.000000 0.091827 0.000000
0.136719 0.144806 0.151489
0.136780 0.144775 0.151459
0.137360 0.144623 0.151123
0.137451 0.144592 0.151093
0.138245 0.144440 0.150757
0.138641 0.145233 0.151337
0.142670 0.146942 0.152710
0.157562 0.148163 0.147614
0.200378 0.153290 0.137573
0.254181 0.157898 0.130157
0.316498 0.166656 0.123657
0.409790 0.181061 0.108185
0.515594 0.197754 0.076996
0.611176 0.207184 0.014130
0.668823 0.212677 0.013611
0.709259 0.215057 0.012909
0.747375 0.214050 0.012207
0.782074 0.215759 0.011536
0.817596 0.215790 0.010590
0.853485 0.213898 0.009827
0.883850 0.214111 0.008911
0.922241 0.209595 0.007874
0.963562 0.203735 0.006592
1.000000 0.197144 0.004913
1.000000 0.192871 0.003540
1.000000 0.189026 0.001251
1.000000 0.181061 0.000092
1.000000 0.172302 0.000000
1.000000 0.160217 0.000000
1.000000 0.148834 0.000000
1.000000 0.133820 0.000000
1.000000 0.120850 0.000000
0.136841 0.147064 0.154022
0.136841 0.147064 0.153992
0.136963 0.147064 0.153931
0.137695 0.146942 0.153656
0.138397 0.146790 0.153351
0.139343 0.146576 0.152954
0.140137 0.146667 0.153076
0.144287 0.149231 0.154602
0.166809 0.155396 0.147430
0.224640 0.165009 0.134491
0.307861 0.179962 0.122406
0.408386 0.198456 0.104523
0.511108 0.219269 0.070526
0.607422 0.228912 0.012878
0.660553 0.234009 0.012573
0.704285 0.236206 0.011871
0.741638 0.237152 0.011169
0.780365 0.237518 0.010498
0.814819 0.237061 0.009552
0.848724 0.238831 0.008514
0.880280 0.235748 0.007874
0.921509 0.236176 0.006470
0.962830 0.232635 0.004944
0.999908 0.229034 0.003418
1.000000 0.224731 0.001465
1.000000 0.217590 0.000336
1.000000 0.212189 0.000000
1.000000 0.204224 0.000000
1.000000 0.195068 0.000000
1.000000 0.185730 0.000000
1.000000 0.169159 0.000000
1.000000 0.152802 0.000000
0.137024 0.149506 0.156677
0.137054 0.149506 0.156677
0.137207 0.149475 0.156616
0.137817 0.149353 0.156372
0.138000 0.149323 0.156311
0.138947 0.149109 0.155914
0.140320 0.149109 0.155518
0.141998 0.149933 0.156311
0.144928 0.153870 0.160675
0.185272 0.162537 0.140930
0.249817 0.178741 0.131714
0.362366 0.203430 0.113129
0.505219 0.239288 0.071472
0.600494 0.252289 0.012054
0.661346 0.256683 0.011505
0.698547 0.258514 0.010834
0.736816 0.259888 0.009827
0.774475 0.261749 0.009155
0.811249 0.263519 0.008118
0.847198 0.262939 0.007233
0.875885 0.262848 0.005981
0.915375 0.264221 0.004639
0.957184 0.261078 0.003418
0.999786 0.260468 0.001068
1.000000 0.255432 0.000153
1.000000 0.250244 0.000000
1.000000 0.245087 0.000000
1.000000 0.236877 0.000000
1.000000 0.230743 0.000000
1.000000 0.221161 0.000000
1.000000 0.208649 0.000000
1.000000 0.195190 0.000000
0.134644 0.154144 0.163330
0.134674 0.154144 0.163330
0.134979 0.153931 0.163025
0.135895 0.153320 0.161957
0.136108 0.153290 0.161896
0.136475 0.153748 0.162384
0.136414 0.155212 0.164154
0.138824 0.155121 0.162994
0.140656 0.156372 0.164337
0.146973 0.160828 0.166992
0.206146 0.174774 0.140717
0.289062 0.198425 0.126190
0.425964 0.235107 0.098938
0.565643 0.270599 0.020508
0.654480 0.278809 0.009979
0.692535 0.284729 0.009186
0.730591 0.286591 0.008545
0.769440 0.288269 0.007446
0.806854 0.289612 0.006470
0.841736 0.290161 0.005219
0.874207 0.292908 0.003998
0.913269 0.294861 0.002777
0.956512 0.293396 0.000580
0.995575 0.292175 0.000092
1.000000 0.288086 0.000000
1.000000 0.286865 0.000000
1.000000 0.281555 0.000000
1.000000 0.273193 0.000000
1.000000 0.267883 0.000000
1.000000 0.257721 0.000000
1.000000 0.247101 0.000000
1.000000 0.236877 0.000000
0.128906 0.161804 0.174591
0.129089 0.161774 0.174622
0.129822 0.161011 0.173523
0.130493 0.160858 0.173248
0.130554 0.160828 0.173065
0.131561 0.160645 0.172668
0.133118 0.160919 0.172424
0.133942 0.162628 0.173767
0.137390 0.161987 0.171539
0.140076 0.163757 0.173767
0.152405 0.171173 0.173431
0.232483 0.190704 0.139618
0.329834 0.223114 0.121887
0.479553 0.266479 0.075470
0.618927 0.295776 0.011139
0.685303 0.308350 0.008087
0.724121 0.312958 0.006470
0.763000 0.314697 0.005219
0.801147 0.317932 0.003998
0.836945 0.321930 0.002777
0.868927 0.325012 0.001038
0.908081 0.328583 0.000336
0.950409 0.331299 0.000000
0.992096 0.326935 0.000000
1.000000 0.327271 0.000000
1.000000 0.321167 0.000000
1.000000 0.317902 0.000000
1.000000 0.311798 0.000000
1.000000 0.305939 0.000000
1.000000 0.298248 0.000000
1.000000 0.289154 0.000000
1.000000 0.278381 0.000000
0.123657 0.170044 0.186920
0.123657 0.170044 0.186920
0.124176 0.169922 0.186981
0.125031 0.168976 0.185516
0.125397 0.168732 0.184570
0.126892 0.168365 0.183533
0.128113 0.168488 0.183136
0.128967 0.170044 0.184265
0.131897 0.170074 0.182953
0.134338 0.171722 0.183472
0.139648 0.173950 0.183624
0.179962 0.182159 0.165405
0.261047 0.209900 0.138275
0.390045 0.252960 0.109253
0.537537 0.299072 0.050018
0.649597 0.321716 0.010437
0.708252 0.336609 0.006256
0.756317 0.347534 0.002777
0.795227 0.351044 0.001038
0.831055 0.354736 0.000336
0.864777 0.359009 0.000000
0.900970 0.363190 0.000000
0.945862 0.367310 0.000000
0.988220 0.368530 0.000000
0.998749 0.365692 0.000000
0.998749 0.365692 0.000000
0.998993 0.359253 0.000000
0.999146 0.355713 0.000000
0.999420 0.349121 0.000000
0.999786 0.340210 0.000000
1.000000 0.330048 0.000000
1.000000 0.321777 0.000000
0.118988 0.180206 0.201172
0.120697 0.178284 0.198547
0.118561 0.178497 0.199310
0.119629 0.178223 0.198578
0.120361 0.177795 0.197815
0.123901 0.174896 0.193176
0.123474 0.176880 0.195312
0.124786 0.178528 0.196533
0.127106 0.178833 0.195770
0.129608 0.181122 0.196899
0.140717 0.182770 0.188843
0.170197 0.185333 0.172455
0.211670 0.195526 0.155426
0.307404 0.239868 0.135468
0.449585 0.290894 0.094208
0.590607 0.326569 0.014160
0.677887 0.351288 0.009674
0.733978 0.367126 0.004639
0.785858 0.380981 0.000153
0.824677 0.389618 0.000000
0.859253 0.393707 0.000000
0.893829 0.398163 0.000000
0.942474 0.404877 0.000000
0.982117 0.409882 0.000000
0.997253 0.411285 0.000000
0.997467 0.404755 0.000000
0.997467 0.404755 0.000000
0.997650 0.398224 0.000000
0.997864 0.392426 0.000000
0.998077 0.385773 0.000000
0.998291 0.379059 0.000000
0.998718 0.366333 0.000000
0.116669 0.190704 0.213287
0.117096 0.192932 0.216675
0.116425 0.193604 0.216431
0.116638 0.192413 0.216248
0.119507 0.189087 0.211884
0.117920 0.188202 0.209991
0.119659 0.187683 0.208923
0.122375 0.187683 0.206543
0.125122 0.191528 0.208313
0.127747 0.194489 0.204865
0.141663 0.194489 0.188324
0.169434 0.195160 0.176514
0.203094 0.201141 0.157288
0.243439 0.217377 0.157654
0.353271 0.268677 0.133270
0.508392 0.322571 0.046204
0.633057 0.359833 0.014404
0.699219 0.379852 0.009247
0.755951 0.398102 0.003296
0.809448 0.415070 0.000000
0.853058 0.430267 0.000000
0.887573 0.434784 0.000000
0.935486 0.442871 0.000000
0.978485 0.449005 0.000000
0.995422 0.451355 0.000000
0.995422 0.451355 0.000000
0.995636 0.447266 0.000000
0.995789 0.444702 0.000000
0.996094 0.438171 0.000000
0.996277 0.434570 0.000000
0.996643 0.427795 0.000000
0.997009 0.418488 0.000000
0.118530 0.205322 0.223236
0.119080 0.205383 0.224548
0.119202 0.206909 0.225647
0.119202 0.206909 0.225647
0.118988 0.206299 0.223480
0.116913 0.202118 0.217255
0.118866 0.200958 0.216125
0.120300 0.201324 0.214600
0.120789 0.204681 0.211609
0.126007 0.208191 0.211273
0.143097 0.207092 0.189087
0.170013 0.207733 0.175995
0.206360 0.211823 0.159790
0.232697 0.219940 0.160004
0.282257 0.245209 0.158081
0.414246 0.306519 0.123718
0.565155 0.361145 0.022247
0.664246 0.389740 0.015686
0.721863 0.409760 0.009155
0.779144 0.430054 0.001801
0.830902 0.449432 0.000000
0.876770 0.468475 0.000000
0.929474 0.481018 0.000000
0.973206 0.488373 0.000000
0.993286 0.491760 0.000000
0.993286 0.491760 0.000000
0.993286 0.491760 0.000000
0.993469 0.488770 0.000000
0.993652 0.485168 0.000000
0.993866 0.481323 0.000000
0.994232 0.474945 0.000000
0.994568 0.468079 0.000000
0.121155 0.220612 0.233002
0.121185 0.220703 0.233124
0.121796 0.223999 0.236053
0.121674 0.222839 0.235565
0.122040 0.220551 0.234924
0.119934 0.219208 0.228699
0.119446 0.215454 0.224274
0.119202 0.215332 0.222504
0.120117 0.218079 0.219421
0.126343 0.220123 0.208984
0.145203 0.219879 0.191589
0.165924 0.220490 0.176819
0.191284 0.225739 0.166565
0.233887 0.231232 0.163513
0.265411 0.244720 0.161133
0.328705 0.276459 0.158936
0.475128 0.348053 0.098694
0.614990 0.391907 0.024414
0.685028 0.417053 0.017212
0.744354 0.440979 0.009979
0.802216 0.463745 0.001007
0.853668 0.487976 0.000000
0.910156 0.511414 0.000000
0.967072 0.532715 0.000000
0.990479 0.539032 0.000000
0.990479 0.539032 0.000000
0.990662 0.536469 0.000000
0.990723 0.535339 0.000000
0.990906 0.532288 0.000000
0.991364 0.525574 0.000000
0.991730 0.518951 0.000000
0.991943 0.515289 0.000000
0.117279 0.232758 0.239197
0.117950 0.233978 0.240906
0.120239 0.233734 0.243042
0.119537 0.234802 0.242767
0.119415 0.235138 0.242371
0.121704 0.232605 0.240967
0.119354 0.231201 0.234528
0.120819 0.228668 0.231842
0.118622 0.230743 0.228455
0.122650 0.232697 0.212341
0.132690 0.233124 0.195587
0.156128 0.232880 0.179504
0.183350 0.235931 0.172150
0.227112 0.245056 0.168640
0.263916 0.253296 0.166687
0.314270 0.279938 0.162659
0.398682 0.323425 0.153931
0.535095 0.382172 0.046356
0.641968 0.420227 0.027649
0.703125 0.447144 0.019592
0.766327 0.475983 0.011200
0.823669 0.502319 0.000793
0.873962 0.530640 0.000000
0.944122 0.559082 0.000000
0.987732 0.579803 0.000000
0.987732 0.579803 0.000000
0.987732 0.579803 0.000000
0.987732 0.579803 0.000000
0.988159 0.573761 0.000000
0.988586 0.566925 0.000000
0.988831 0.563263 0.000000
0.989319 0.556580 0.000000
0.112671 0.245605 0.246674
0.113403 0.246857 0.248444
0.113586 0.246643 0.248474
0.114990 0.245331 0.248810
0.115906 0.245392 0.249298
0.115417 0.245178 0.246399
0.115875 0.242126 0.242218
0.115692 0.241058 0.237976
0.119568 0.237762 0.225922
0.125000 0.240417 0.216644
0.128510 0.243713 0.198608
0.136353 0.247223 0.185974
0.179199 0.249908 0.177307
0.217865 0.257507 0.174713
0.272644 0.275208 0.170288
0.321106 0.299255 0.168427
0.376160 0.325287 0.163940
0.464661 0.368347 0.151886
0.572357 0.415344 0.042664
0.664490 0.451782 0.031281
0.729706 0.480682 0.022552
0.790253 0.510101 0.013519
0.848053 0.544983 0.001984
0.910767 0.578491 0.000000
0.974426 0.605988 0.000000
0.984314 0.621490 0.000000
0.983948 0.625946 0.000000
0.983948 0.625946 0.000000
0.984192 0.622894 0.000000
0.984467 0.619629 0.000000
0.985016 0.613159 0.000000
0.985016 0.613159 0.000000
0.118774 0.259521 0.260895
0.116638 0.257355 0.256592
0.116333 0.257599 0.256744
0.114014 0.259308 0.258087
0.095825 0.260193 0.259949
0.106476 0.257141 0.253235
0.113556 0.255493 0.247742
0.117859 0.251678 0.235779
0.121857 0.249390 0.227997
0.125824 0.249939 0.220856
0.130463 0.252014 0.203125
0.128815 0.261169 0.193573
0.173004 0.276062 0.182281
0.231934 0.285400 0.175995
0.285675 0.303986 0.174927
0.330688 0.316559 0.177460
0.381744 0.341187 0.172791
0.442230 0.370178 0.162994
0.514465 0.402985 0.148956
0.616577 0.446808 0.046875
0.687500 0.480621 0.035675
0.750854 0.516205 0.026184
0.814270 0.551361 0.016479
0.869629 0.588379 0.003967
0.942139 0.624542 0.000000
0.981842 0.646637 0.000000
0.980530 0.658752 0.000000
0.980072 0.662903 0.000000
0.980072 0.662903 0.000000
0.980316 0.660675 0.000000
0.980713 0.657013 0.000000
0.981018 0.654358 0.000000
0.122314 0.300781 0.290619
0.122314 0.300781 0.290619
0.118561 0.295319 0.287933
0.109711 0.300598 0.284790
0.109589 0.303558 0.282745
0.108643 0.301849 0.281982
0.095337 0.292786 0.264618
0.095398 0.289398 0.259399
0.109283 0.274445 0.237946
0.112152 0.269775 0.230225
0.095093 0.286713 0.222687
0.098419 0.299103 0.215271
0.151611 0.305389 0.187866
0.222717 0.318237 0.178802
0.291687 0.326508 0.177612
0.343872 0.342987 0.181976
0.383423 0.364319 0.181000
0.437653 0.386108 0.175903
0.493805 0.407745 0.161499
0.563019 0.439514 0.144958
0.644257 0.474670 0.052429
0.712219 0.515503 0.041534
0.777008 0.556732 0.030731
0.839813 0.594482 0.019623
0.905487 0.635681 0.006775
0.973175 0.669159 0.000000
0.977570 0.685516 0.000000
0.976593 0.693817 0.000000
0.975891 0.699554 0.000000
0.976105 0.697754 0.000000
0.976776 0.692139 0.000000
0.976776 0.692139 0.000000
0.124756 0.342529 0.319061
0.119690 0.343567 0.315857
0.119659 0.343872 0.315674
0.119537 0.346832 0.313629
0.118774 0.345459 0.312988
0.106903 0.343292 0.305786
0.091309 0.341766 0.296631
0.073456 0.333282 0.284149
0.061737 0.330780 0.272949
0.073395 0.315765 0.255554
0.073486 0.318787 0.242126
0.062958 0.338562 0.225647
0.114441 0.343842 0.196106
0.193909 0.348114 0.183990
0.301605 0.354553 0.178467
0.353210 0.370148 0.184601
0.392883 0.387543 0.184052
0.440979 0.405212 0.185272
0.490326 0.425018 0.178711
0.549896 0.447388 0.161194
0.614746 0.474609 0.139038
0.670044 0.511444 0.103149
0.736328 0.551208 0.047699
0.800964 0.596436 0.035522
0.859711 0.636108 0.023895
0.935150 0.678894 0.010284
0.975006 0.707092 0.000000
0.973938 0.715851 0.000000
0.973236 0.721680 0.000000
0.972687 0.726410 0.000000
0.972290 0.729797 0.000000
0.972870 0.724792 0.000000
0.143677 0.378571 0.339020
0.143494 0.382141 0.336548
0.143494 0.382141 0.336548
0.138733 0.387695 0.336792
0.126068 0.384552 0.333282
0.125916 0.388062 0.330872
0.114624 0.386597 0.324707
0.079498 0.381348 0.308746
0.060852 0.372711 0.299286
0.052979 0.370972 0.281372
0.053925 0.361115 0.266174
0.057892 0.366760 0.228363
0.061340 0.383484 0.205444
0.093292 0.388184 0.188232
0.198730 0.395447 0.187744
0.327271 0.399719 0.188965
0.402069 0.414185 0.187744
0.450714 0.432617 0.188416
0.496918 0.447357 0.190033
0.546234 0.465240 0.182281
0.597351 0.486237 0.165924
0.646576 0.512299 0.165436
0.696716 0.542084 0.159515
0.766052 0.593842 0.117401
0.832306 0.641632 0.049011
0.899231 0.687683 0.029419
0.971436 0.729828 0.015594
0.970856 0.744110 0.000000
0.970093 0.751984 0.000000
0.969696 0.756012 0.000000
0.969330 0.759918 0.001160
0.968964 0.763824 0.018005
0.167328 0.417603 0.361420
0.162903 0.420715 0.361023
0.162903 0.420715 0.361023
0.162506 0.423248 0.359344
0.151550 0.420288 0.353516
0.135681 0.427521 0.350952
0.122864 0.428558 0.340302
0.111572 0.421143 0.329987
0.068115 0.412933 0.303802
0.056366 0.410431 0.290436
0.057373 0.402008 0.264587
0.059845 0.404968 0.237244
0.063965 0.420288 0.206757
0.068207 0.426056 0.194794
0.139740 0.432526 0.195251
0.269806 0.436676 0.190277
0.408386 0.444489 0.194702
0.463867 0.460571 0.196075
0.506561 0.473633 0.197784
0.546265 0.490143 0.199249
0.603973 0.511475 0.188751
0.637390 0.524750 0.187195
0.678986 0.548981 0.193573
0.724884 0.583496 0.212250
0.793823 0.633698 0.177979
0.856689 0.682800 0.132294
0.933838 0.731201 0.048859
0.969910 0.760620 0.028748
0.968567 0.768768 0.044983
0.967896 0.775177 0.067261
0.967468 0.779694 0.086853
0.967133 0.783234 0.097076
0.164459 0.470917 0.379242
0.166809 0.472809 0.379578
0.166443 0.475189 0.378021
0.167389 0.475952 0.378143
0.166901 0.481018 0.374176
0.169647 0.463776 0.374176
0.150940 0.473572 0.366425
0.111603 0.464508 0.347321
0.090363 0.461182 0.323761
0.060425 0.454468 0.302155
0.061340 0.445312 0.269836
0.062897 0.440552 0.239563
0.066010 0.455658 0.219330
0.070740 0.467377 0.197388
0.075592 0.469055 0.193512
0.223175 0.475250 0.191833
0.418793 0.476318 0.203369
0.470917 0.487549 0.204041
0.513672 0.502014 0.205414
0.558319 0.519836 0.206787
0.602417 0.532013 0.210693
0.639587 0.545105 0.209015
0.670898 0.560822 0.208893
0.707336 0.585602 0.233429
0.756073 0.624176 0.262512
0.824341 0.673492 0.212372
0.893188 0.722137 0.183685
0.965485 0.766388 0.106110
0.968140 0.782532 0.127808
0.966675 0.789886 0.115265
0.965942 0.796387 0.110321
0.965424 0.801788 0.115753
0.160645 0.522736 0.389313
0.162384 0.524872 0.394440
0.162384 0.524567 0.394501
0.164001 0.525421 0.389771
0.164612 0.524353 0.389954
0.168274 0.517456 0.388519
0.170410 0.518829 0.385010
0.159088 0.508362 0.370361
0.117249 0.507019 0.335724
0.087708 0.499084 0.312225
0.065460 0.497223 0.279633
0.065460 0.486359 0.266541
0.067993 0.487091 0.231934
0.072388 0.505280 0.177063
0.077271 0.503479 0.188385
0.219513 0.506470 0.193329
0.380493 0.510559 0.199738
0.446411 0.519653 0.200623
0.503479 0.529572 0.205078
0.561554 0.538208 0.210480
0.600708 0.548218 0.216003
0.639038 0.561707 0.221558
0.670868 0.578674 0.228943
0.697479 0.596680 0.240021
0.736084 0.623169 0.270477
0.783447 0.658539 0.295044
0.844971 0.702850 0.244843
0.920319 0.754028 0.205475
0.968719 0.788940 0.172028
0.966309 0.801941 0.157288
0.964691 0.811279 0.144806
0.964050 0.817108 0.131165
0.164276 0.561462 0.419861
0.166931 0.563660 0.420197
0.167114 0.563782 0.419586
0.169189 0.565674 0.411560
0.169128 0.565826 0.411285
0.169373 0.562836 0.410645
0.171082 0.565582 0.402618
0.164581 0.560730 0.390137
0.126892 0.559509 0.316376
0.091125 0.553955 0.264069
0.070709 0.549103 0.228149
0.071411 0.543915 0.204071
0.072388 0.538147 0.190796
0.076904 0.540588 0.128632
0.081360 0.548126 0.100525
0.175446 0.551208 0.153839
0.349670 0.553589 0.200775
0.452545 0.558014 0.214478
0.518646 0.567810 0.224670
0.575989 0.575958 0.229279
0.622864 0.585114 0.235413
0.665405 0.599579 0.249512
0.686676 0.613251 0.266357
0.713776 0.630219 0.278900
0.745148 0.651855 0.288116
0.782837 0.679199 0.315216
0.828491 0.714569 0.362701
0.894989 0.759094 0.298096
0.970398 0.801666 0.239929
0.966370 0.817993 0.222931
0.963928 0.835266 0.205414
0.963196 0.861816 0.186310
0.169678 0.595093 0.432281
0.173523 0.597443 0.431213
0.174469 0.597656 0.431091
0.174713 0.597870 0.430176
0.172821 0.594055 0.426239
0.173645 0.594818 0.423096
0.170105 0.591675 0.419342
0.163971 0.595123 0.402435
0.135498 0.590607 0.356964
0.095276 0.591370 0.281525
0.075562 0.586060 0.209778
0.076355 0.582977 0.133545
0.077972 0.580231 0.067749
0.080597 0.581757 0.067108
0.085632 0.588287 0.069366
0.155334 0.587616 0.111633
0.308746 0.587555 0.208191
0.464905 0.590637 0.233276
0.525024 0.598511 0.241821
0.575867 0.609558 0.248840
0.636108 0.619202 0.253967
0.677216 0.631287 0.269470
0.698578 0.643921 0.284424
0.721161 0.654480 0.299957
0.752014 0.674774 0.311157
0.783813 0.693817 0.334106
0.820770 0.723907 0.368317
0.857391 0.753021 0.412720
0.934601 0.793640 0.342194
0.969208 0.821381 0.289825
0.966125 0.859833 0.252655
0.964722 0.899567 0.227539
0.175171 0.627960 0.443634
0.177673 0.634430 0.441589
0.179108 0.629761 0.442871
0.179535 0.629181 0.442108
0.181793 0.626129 0.435608
0.182220 0.625305 0.434814
0.185883 0.625946 0.427887
0.186859 0.622864 0.427826
0.165253 0.623291 0.387299
0.124756 0.622620 0.311462
0.081360 0.620331 0.238220
0.082214 0.619049 0.172394
0.083649 0.617462 0.079773
0.085388 0.613220 0.072540
0.089813 0.615601 0.073212
0.095032 0.619690 0.132477
0.219055 0.619354 0.214966
0.407623 0.620453 0.257172
0.523560 0.631195 0.262360
0.580292 0.639374 0.269897
0.635712 0.650574 0.281891
0.691467 0.660492 0.292023
0.715576 0.671417 0.306946
0.736572 0.687500 0.325562
0.759247 0.697815 0.345978
0.789032 0.718750 0.371582
0.821960 0.738678 0.386627
0.853333 0.760590 0.414490
0.904419 0.787964 0.440033
0.968597 0.822571 0.383362
0.969788 0.877228 0.315430
0.967102 0.928284 0.260132
0.178680 0.657990 0.477814
0.188354 0.662323 0.475586
0.188354 0.662323 0.475586
0.190155 0.658417 0.475220
0.191925 0.660492 0.465454
0.193573 0.656250 0.466156
0.195282 0.659210 0.455292
0.205292 0.662994 0.453156
0.200287 0.662354 0.447357
0.155243 0.662567 0.397522
0.119141 0.664154 0.355194
0.088745 0.659546 0.282990
0.090485 0.658081 0.207397
0.091522 0.657440 0.133942
0.094971 0.649872 0.104858
