Avant Garde/Striped Purple - Veggie Crisps.cube
#Created by: Adobe Photoshop Export Color Lookup Plugin
#Copyright: (C) Copyright 2019 Veggie Crisps by Striped Purple - © Austin Barrett All Rights Reserved.
TITLE "Veggie Crisps"
#LUT size
LUT_3D_SIZE 8
#data domain
#LUT data points
DOMAIN_MIN 0.000000 0.000000 0.000000
DOMAIN_MAX 0.903226 0.903226 0.903226
0.164703 0.164703 0.164703
0.198486 0.153290 0.153290
0.255035 0.135651 0.135651
0.337097 0.117157 0.117157
0.450348 0.108337 0.108337
0.597626 0.112823 0.112823
0.770966 0.121460 0.121460
0.950348 0.111267 0.111267
0.125153 0.205811 0.125153
0.157288 0.199066 0.107513
0.210938 0.185577 0.086395
0.288177 0.170105 0.067200
0.396027 0.162323 0.057861
0.538574 0.167114 0.061218
0.704407 0.177338 0.068665
0.886414 0.170868 0.059235
0.074951 0.281830 0.074951
0.110657 0.273712 0.060272
0.164429 0.258820 0.042725
0.238342 0.243500 0.024963
0.333557 0.237671 0.014435
0.460938 0.243195 0.014954
0.645508 0.257324 0.023407
0.855011 0.252899 0.011841
0.054047 0.389069 0.054047
0.088959 0.380096 0.042114
0.134949 0.371155 0.027405
0.193054 0.362305 0.012390
0.297516 0.355316 0.000031
0.486938 0.367554 0.001862
0.728027 0.386627 0.010864
0.885590 0.380219 0.000031
0.061035 0.531311 0.061035
0.085052 0.530609 0.053802
0.131378 0.524017 0.039917
0.235077 0.509552 0.016266
0.441864 0.514130 0.010254
0.666412 0.539398 0.023041
0.809296 0.547089 0.020386
0.917358 0.541473 0.002960
0.077362 0.692932 0.077362
0.114075 0.689819 0.065857
0.226135 0.669250 0.035706
0.406616 0.668243 0.023224
0.575012 0.684662 0.031586
0.719696 0.699829 0.037476
0.838409 0.702087 0.031189
0.934723 0.689514 0.012970
0.075623 0.840698 0.075623
0.170105 0.817474 0.043701
0.309570 0.798065 0.018768
0.459625 0.803558 0.018066
0.603760 0.816162 0.024963
0.734375 0.822662 0.027557
0.842255 0.815399 0.018860
0.929474 0.798065 0.001129
0.037811 0.943237 0.037811
0.178406 0.901489 0.000031
0.324188 0.881622 0.000031
0.466248 0.889679 0.000031
0.601715 0.900909 0.000031
0.720856 0.903107 0.000031
0.817322 0.892548 0.000031
0.893494 0.875122 0.000031
0.158417 0.158417 0.226746
0.191833 0.145782 0.225098
0.247803 0.126892 0.219604
0.328644 0.107605 0.212006
0.440399 0.098389 0.209290
0.586609 0.102631 0.215576
0.759583 0.111237 0.224823
0.939087 0.101044 0.217285
0.114807 0.199646 0.207092
0.146759 0.191315 0.200500
0.200195 0.176575 0.186432
0.276978 0.160522 0.169800
0.384033 0.152374 0.161072
0.525024 0.157135 0.166351
0.686523 0.166809 0.179443
0.874420 0.160034 0.176758
0.064087 0.274048 0.174713
0.099915 0.264587 0.162811
0.153046 0.249420 0.146118
0.225403 0.234619 0.130432
0.313507 0.228424 0.125549
0.449005 0.233246 0.132172
0.636292 0.247284 0.147766
0.851990 0.241455 0.133484
0.043854 0.379791 0.157349
0.077698 0.371826 0.147736
0.118805 0.364075 0.140015
0.181641 0.353333 0.129822
0.288605 0.346375 0.123291
0.505920 0.360931 0.127869
0.739563 0.378479 0.129608
0.884399 0.370117 0.108887
0.050446 0.523102 0.172150
0.073975 0.522095 0.171387
0.120941 0.515137 0.164734
0.249634 0.498016 0.137329
0.466827 0.509094 0.132080
0.666016 0.532043 0.142639
0.801758 0.539612 0.143433
0.906708 0.533630 0.131165
0.065582 0.683929 0.202423
0.112793 0.677979 0.187073
0.237183 0.657715 0.151581
0.411041 0.660065 0.142609
0.572083 0.676819 0.154999
0.712250 0.690979 0.165466
0.828613 0.691803 0.161682
0.923492 0.678040 0.141174
0.063568 0.831604 0.195038
0.168213 0.805023 0.159485
0.307068 0.787537 0.140411
0.454346 0.793457 0.145691
0.596893 0.805328 0.155701
0.726379 0.810822 0.155914
0.832764 0.803406 0.140137
0.919037 0.786774 0.116699
0.025665 0.932068 0.159912
0.168365 0.891052 0.121674
0.308563 0.878235 0.109955
0.455902 0.883728 0.111969
0.593719 0.891998 0.112457
0.712708 0.893494 0.107239
0.809296 0.884216 0.095001
0.888092 0.868317 0.077637
0.150940 0.150940 0.311432
0.184601 0.137604 0.319214
0.240723 0.118439 0.322601
0.321075 0.099426 0.320587
0.432129 0.090454 0.319519
0.577576 0.094727 0.325745
0.750336 0.103333 0.335999
0.929199 0.093353 0.333130
0.104767 0.193634 0.308258
0.137665 0.184601 0.307800
0.191528 0.169434 0.296143
0.267914 0.153076 0.279938
0.374084 0.144867 0.272003
0.510773 0.149414 0.280945
0.671753 0.159241 0.299652
0.866058 0.152924 0.301880
0.055481 0.267700 0.284271
0.091400 0.257477 0.272888
0.143799 0.242493 0.257233
0.212250 0.228821 0.246033
0.296631 0.222198 0.246155
0.440674 0.227020 0.257355
0.643250 0.242493 0.270294
0.854309 0.234467 0.251251
0.035919 0.372894 0.268280
0.067841 0.366669 0.263306
0.105591 0.359924 0.262115
0.173798 0.348053 0.255402
0.300385 0.341583 0.245209
0.532715 0.359344 0.250397
0.751892 0.374329 0.249084
0.878937 0.366791 0.231689
0.042755 0.517792 0.292816
0.066437 0.517242 0.297089
0.125214 0.508301 0.284424
0.272888 0.492096 0.255371
0.491943 0.508545 0.254852
0.667084 0.528839 0.266205
0.798096 0.536652 0.268158
0.901001 0.530579 0.256409
0.058472 0.679993 0.325317
0.117554 0.670654 0.304169
0.250824 0.651611 0.269073
0.416077 0.655853 0.265961
0.572266 0.673279 0.280090
0.709473 0.686890 0.290527
0.824341 0.686401 0.285034
0.917419 0.671356 0.261597
0.055573 0.826813 0.314911
0.169525 0.796631 0.279602
0.307678 0.781494 0.264130
0.453613 0.788239 0.270660
0.596008 0.799744 0.279541
0.723450 0.804016 0.276489
0.827606 0.795776 0.258331
0.912201 0.779266 0.234497
0.017731 0.925140 0.283966
0.165894 0.883301 0.245300
0.308502 0.871460 0.233459
0.455566 0.877136 0.233124
0.591431 0.884857 0.231293
0.708435 0.885834 0.225098
0.803619 0.876434 0.212860
0.880981 0.860718 0.195801
0.145081 0.145081 0.420013
0.180267 0.132355 0.435211
0.237610 0.114197 0.443481
0.317871 0.096222 0.442444
0.428650 0.087677 0.440216
0.573456 0.091949 0.445953
0.746155 0.100677 0.458344
0.924377 0.091492 0.461060
0.099030 0.191559 0.427612
0.133575 0.182587 0.428772
0.187897 0.167206 0.416534
0.263824 0.150787 0.400177
0.369019 0.142639 0.393921
0.499939 0.147278 0.407410
0.668213 0.158081 0.430176
0.864227 0.152405 0.431793
0.052216 0.266022 0.404572
0.087952 0.255432 0.393036
0.139557 0.241058 0.379333
0.202881 0.229004 0.373932
0.292053 0.221954 0.376709
0.438873 0.227448 0.387421
0.661804 0.243958 0.397522
0.862671 0.233673 0.373871
0.033234 0.371643 0.390228
0.062775 0.367401 0.391174
0.101898 0.361023 0.393524
0.172516 0.349579 0.386169
0.326569 0.343445 0.372162
0.566528 0.364105 0.377716
0.763733 0.376495 0.375763
0.879486 0.370117 0.360870
0.041229 0.518738 0.423859
0.065491 0.519165 0.428284
0.140747 0.506561 0.407623
0.304138 0.493713 0.379425
0.514832 0.513519 0.384216
0.673462 0.532318 0.396149
0.800446 0.540009 0.397858
0.901550 0.533417 0.385010
0.057587 0.682434 0.452942
0.128784 0.669647 0.425964
0.266510 0.652588 0.394714
0.425812 0.658264 0.395782
0.578064 0.676056 0.410156
0.713013 0.688873 0.419098
0.826294 0.686646 0.410706
0.917358 0.670441 0.385620
0.053589 0.828094 0.441589
0.175812 0.795013 0.406433
0.313965 0.781952 0.393036
0.459137 0.789185 0.399170
0.601349 0.799988 0.405731
0.726349 0.803070 0.400635
0.828278 0.794128 0.382233
0.911163 0.777802 0.358490
0.016205 0.924652 0.413177
0.169800 0.881927 0.372559
0.315094 0.870880 0.359528
0.460999 0.876526 0.357758
0.594910 0.883636 0.355652
0.710022 0.884125 0.349213
0.803864 0.874573 0.337830
0.879822 0.859192 0.322174
0.144348 0.144348 0.552917
0.181213 0.132446 0.570801
0.239349 0.115143 0.578583
0.319366 0.097717 0.574341
0.429199 0.089233 0.569763
0.573364 0.093445 0.575500
0.745117 0.102325 0.591217
0.923676 0.093964 0.597443
0.098694 0.194366 0.561371
0.134277 0.184906 0.559967
0.188599 0.169281 0.546021
0.263855 0.152893 0.529846
0.366852 0.145081 0.526428
0.492767 0.149506 0.542419
0.670013 0.161041 0.565582
0.869293 0.155090 0.561493
0.053467 0.268402 0.533905
0.088806 0.257782 0.522644
0.138885 0.244598 0.512085
0.197296 0.233826 0.510773
0.293884 0.225769 0.512299
0.449677 0.232147 0.518311
0.687012 0.248810 0.526154
0.873718 0.236603 0.500610
0.034912 0.375397 0.522644
0.061646 0.372681 0.528076
0.104156 0.365723 0.529633
0.181030 0.353729 0.516174
0.362091 0.349579 0.501587
0.600891 0.372253 0.508759
0.771667 0.382599 0.507446
0.883606 0.377472 0.493408
0.043793 0.523865 0.560394
0.070251 0.524414 0.559540
0.163330 0.507904 0.532166
0.338715 0.500336 0.508636
0.529846 0.520508 0.517334
0.682495 0.539612 0.529327
0.806091 0.546753 0.529755
0.905457 0.538940 0.514801
0.060150 0.688416 0.582611
0.143005 0.672638 0.551910
0.282166 0.656494 0.525482
0.437836 0.664490 0.528870
0.586792 0.682159 0.542328
0.719910 0.693695 0.548859
0.831299 0.689636 0.538055
0.920593 0.672699 0.512848
0.055573 0.831909 0.573090
0.184845 0.797546 0.536987
0.322998 0.785889 0.524170
0.468262 0.793274 0.529083
0.609619 0.803162 0.533630
0.732422 0.805359 0.527985
0.832458 0.796143 0.509918
0.913971 0.780457 0.488403
0.018280 0.927704 0.544678
0.177246 0.883850 0.501282
0.324554 0.873474 0.487244
0.469482 0.879211 0.485535
0.601929 0.886017 0.483795
0.715515 0.886292 0.479065
0.807922 0.876678 0.467957
0.882507 0.861633 0.454315
0.147278 0.147278 0.703827
0.184875 0.135315 0.718536
0.242554 0.118011 0.720520
0.321838 0.100647 0.711609
0.430756 0.092072 0.705017
0.574219 0.096130 0.711365
0.742859 0.104980 0.729614
0.924133 0.096954 0.735840
0.100525 0.198669 0.702484
0.136444 0.188477 0.696777
0.190399 0.172546 0.681213
0.264771 0.156250 0.665771
0.362518 0.148621 0.664642
0.487244 0.152374 0.679718
0.671875 0.164154 0.698730
0.878021 0.157104 0.689392
0.056030 0.271790 0.668915
0.090668 0.261475 0.658447
0.137329 0.249817 0.651154
0.192780 0.239258 0.649872
0.295746 0.229797 0.645630
0.473633 0.237671 0.648621
0.713806 0.253418 0.653992
0.883362 0.240234 0.628815
0.037659 0.380371 0.660980
0.061401 0.378601 0.667267
0.106598 0.370789 0.663635
0.201202 0.356018 0.642609
0.400909 0.356781 0.631317
0.630341 0.380341 0.640503
0.778931 0.389282 0.639221
0.887573 0.384949 0.624969
0.046570 0.529388 0.694885
0.080353 0.528229 0.687256
0.188080 0.509552 0.656189
0.369049 0.508087 0.639709
0.543274 0.527863 0.650482
0.690765 0.546906 0.661499
0.811401 0.552979 0.659882
0.909119 0.543518 0.642975
0.062744 0.694611 0.711487
0.155914 0.676636 0.679565
0.296295 0.661194 0.656799
0.448853 0.670807 0.661011
0.595093 0.687897 0.672821
0.727020 0.697815 0.677094
0.836060 0.692108 0.664917
0.923859 0.675018 0.641113
0.057678 0.836029 0.704834
0.193085 0.800385 0.666840
0.331726 0.789703 0.653778
0.477753 0.796906 0.657501
0.617554 0.806000 0.661011
0.738403 0.807678 0.656250
0.836914 0.798645 0.639282
0.917206 0.783661 0.620239
0.020203 0.930573 0.674561
0.184906 0.885437 0.628387
0.333679 0.875885 0.614349
0.477814 0.881927 0.614227
0.609100 0.888824 0.613617
0.721619 0.888977 0.611053
0.812317 0.879211 0.600159
0.885468 0.864502 0.587921
0.148956 0.148956 0.863220
0.186218 0.136047 0.869324
0.242889 0.118347 0.863220
0.321320 0.100861 0.849792
0.429260 0.092133 0.842072
0.571960 0.095978 0.849091
0.736145 0.104401 0.866791
0.923279 0.096100 0.869415
0.099976 0.200195 0.844635
0.135925 0.189117 0.834656
0.189392 0.173126 0.818359
0.262604 0.156952 0.803467
0.353271 0.149078 0.801880
0.485870 0.152130 0.812836
0.670197 0.163818 0.825989
0.885254 0.155334 0.813049
0.055878 0.272369 0.805725
0.089569 0.262665 0.796051
0.131348 0.252319 0.789795
0.191223 0.239868 0.783173
0.294098 0.230438 0.773071
0.500977 0.240356 0.775635
0.735840 0.254272 0.778656
0.885437 0.241791 0.755127
0.037262 0.382202 0.798553
0.060211 0.380219 0.801270
0.105499 0.372498 0.791748
0.224243 0.354553 0.764893
0.436676 0.361420 0.758972
0.644928 0.384277 0.769073
0.782257 0.393066 0.767181
0.887909 0.388824 0.751831
0.045807 0.531555 0.823456
0.089447 0.527924 0.810547
0.210083 0.508667 0.778107
0.387756 0.512115 0.768524
0.551849 0.532043 0.779602
0.694946 0.550568 0.788879
0.813141 0.555206 0.785034
0.909180 0.543854 0.766724
0.061951 0.697632 0.837616
0.164703 0.676971 0.805054
0.305542 0.662933 0.784454
0.455383 0.673462 0.788361
0.599823 0.689697 0.798340
0.730438 0.697876 0.800873
0.837311 0.690948 0.789032
0.923798 0.674133 0.766724
0.056244 0.836761 0.832611
0.197174 0.799835 0.792145
0.336914 0.789795 0.778503
0.483734 0.796814 0.781555
0.621826 0.805328 0.785645
0.741058 0.806732 0.781830
0.838043 0.798126 0.767639
0.917206 0.783752 0.750061
0.018646 0.929840 0.799500
0.189148 0.883453 0.751099
0.339111 0.874939 0.738800
0.482697 0.881409 0.740326
0.612915 0.888397 0.742401
0.724396 0.888428 0.740936
0.813354 0.878601 0.730652
0.884888 0.863983 0.718231
0.145416 0.145416 1.000000
0.181396 0.131836 1.000000
0.236450 0.112244 1.000000
0.313995 0.094574 0.985382
0.421082 0.085724 0.977142
0.560730 0.089172 0.983307
0.722900 0.097443 0.996796
0.916565 0.089386 0.993286
0.092834 0.194519 0.982422
0.128876 0.183105 0.970001
0.181641 0.167236 0.953461
0.251984 0.151611 0.938141
0.337433 0.143341 0.932220
0.478638 0.146118 0.936462
0.675049 0.158478 0.946075
0.888214 0.147797 0.930420
0.049225 0.266510 0.940552
0.081116 0.257874 0.930603
0.118805 0.248566 0.921539
0.183990 0.234680 0.907043
0.301086 0.225128 0.892181
0.526947 0.237976 0.896942
0.749634 0.249359 0.898315
0.880035 0.238434 0.876160
0.030548 0.377716 0.929352
0.053467 0.375977 0.925873
0.106384 0.366791 0.910004
0.246613 0.348358 0.881683
0.464691 0.361084 0.882294
0.647186 0.382233 0.891754
0.779327 0.391357 0.888519
0.882690 0.386993 0.871887
0.039551 0.528625 0.944427
0.094727 0.521881 0.927338
0.225494 0.503632 0.896545
0.394806 0.509918 0.891663
0.553833 0.530823 0.902130
0.693268 0.548462 0.909332
0.809631 0.551453 0.903687
0.903748 0.538147 0.885223
0.055603 0.695343 0.959167
0.167938 0.670715 0.924927
0.307922 0.659332 0.905701
0.455841 0.670441 0.908813
0.599365 0.685699 0.917389
0.728149 0.692017 0.919403
0.832916 0.684204 0.908966
0.918152 0.667877 0.889130
0.049194 0.831970 0.953796
0.195374 0.793823 0.910736
0.337036 0.784302 0.896820
0.484161 0.791077 0.900421
0.620392 0.799011 0.906036
0.737915 0.800293 0.904144
0.833466 0.791992 0.892578
0.911194 0.777985 0.875092
0.011719 0.923615 0.917969
0.187866 0.876160 0.868713
0.338745 0.868469 0.859009
0.481812 0.875275 0.863007
0.611237 0.882263 0.867859
0.721191 0.881958 0.866028
0.808258 0.872070 0.855499
0.878418 0.857849 0.840973
