Avant Garde/Striped Purple - Caramel Plum Cake.cube
#Created by: Adobe Photoshop Export Color Lookup Plugin
#Copyright: (C) Copyright 2019 Caramel Plum Cake by Striped Purple © Austin Barrett All rights reserved.
TITLE "Caramel Plum Cake"
#LUT size
LUT_3D_SIZE 5
#data domain
#LUT data points
DOMAIN_MIN 0.000000 0.000000 0.000000
DOMAIN_MAX 0.903226 0.903226 0.903226
0.113739 0.113739 0.113739
0.181396 0.117004 0.117828
0.317963 0.122437 0.124298
0.618835 0.131104 0.133636
0.918396 0.140472 0.143158
0.113770 0.138763 0.113739
0.199646 0.170776 0.126862
0.358704 0.183350 0.134521
0.691986 0.202576 0.145203
0.959351 0.229492 0.166290
0.113770 0.194733 0.113770
0.189026 0.266327 0.116028
0.429077 0.359680 0.152527
0.796448 0.415649 0.165680
0.991364 0.482330 0.238220
0.113770 0.313171 0.113770
0.187134 0.460083 0.113770
0.421753 0.644714 0.140015
0.862061 0.831390 0.188965
0.980255 0.859406 0.535858
0.113770 0.434357 0.113770
0.178009 0.618744 0.113770
0.360687 0.865753 0.123535
0.813660 0.938904 0.410675
0.944122 0.936279 0.933350
0.118591 0.116486 0.161957
0.202271 0.127106 0.179443
0.359344 0.134216 0.190216
0.681946 0.144775 0.205780
0.921600 0.163361 0.225067
0.113770 0.146851 0.151917
0.180603 0.156219 0.161072
0.339844 0.168427 0.171844
0.648773 0.185272 0.185822
0.962158 0.201599 0.198517
0.113770 0.210205 0.148773
0.171051 0.248627 0.149780
0.410797 0.340973 0.197327
0.749573 0.390015 0.214661
0.991364 0.435364 0.258118
0.113770 0.338623 0.148438
0.156067 0.439697 0.134491
0.388763 0.593536 0.181976
0.803528 0.768005 0.242310
0.977448 0.804657 0.462189
0.113770 0.467407 0.148010
0.130432 0.616730 0.120361
0.333405 0.795654 0.162750
0.750641 0.935547 0.327850
0.944122 0.936279 0.933350
0.125702 0.120636 0.261139
0.214172 0.133057 0.296204
0.430603 0.156158 0.357758
0.781403 0.170380 0.398621
0.922241 0.212646 0.418640
0.115082 0.155975 0.255981
0.190918 0.163940 0.271454
0.405975 0.197662 0.330566
0.740845 0.219452 0.368164
0.962433 0.256287 0.401245
0.113770 0.231995 0.234924
0.179352 0.262177 0.259094
0.370453 0.304169 0.291931
0.660248 0.336609 0.319763
0.960541 0.357361 0.342224
0.113770 0.378143 0.229584
0.160706 0.453888 0.239136
0.329620 0.504944 0.268799
0.704803 0.661285 0.359344
0.980164 0.704163 0.428955
0.113770 0.517273 0.226746
0.136475 0.638702 0.221100
0.287872 0.686523 0.244507
0.645325 0.882538 0.340698
0.944122 0.936279 0.933350
0.136078 0.127197 0.510071
0.230957 0.141541 0.587646
0.476959 0.170807 0.717255
0.907593 0.208862 0.857941
0.925812 0.296173 0.710541
0.125458 0.166718 0.514832
0.208008 0.176514 0.552612
0.452606 0.219025 0.676910
0.857635 0.272552 0.801392
0.962799 0.354218 0.726166
0.113770 0.260864 0.481354
0.195496 0.287354 0.531830
0.393372 0.326965 0.580261
0.746216 0.401825 0.686890
0.994293 0.451538 0.702850
0.113770 0.426788 0.424194
0.171753 0.485748 0.478333
0.336975 0.518677 0.511230
0.608459 0.560425 0.551270
0.901459 0.602814 0.589935
0.113770 0.577698 0.395691
0.147156 0.672546 0.428284
0.307770 0.716156 0.462677
0.567871 0.765961 0.509827
0.920349 0.908783 0.625580
0.146149 0.134033 0.911102
0.247192 0.152924 0.911713
0.474976 0.199646 0.912201
0.757965 0.283356 0.912750
0.926300 0.389374 0.911041
0.134949 0.177124 0.907227
0.222992 0.187897 0.943573
0.472290 0.244965 0.959106
0.774139 0.341034 0.955994
0.963074 0.463776 0.954315
0.115814 0.284760 0.868561
0.209106 0.310608 0.896179
0.413666 0.348145 0.943298
0.749695 0.441498 0.993195
0.994324 0.579010 0.992035
0.113770 0.464355 0.706512
0.180603 0.509399 0.789581
0.353973 0.545990 0.834106
0.635101 0.589661 0.877747
0.974579 0.683777 0.968231
0.113770 0.621399 0.623260
0.156952 0.701721 0.700714
0.332275 0.747681 0.742981
0.586517 0.787445 0.781006
0.842438 0.821106 0.814117
