Avant Garde/Striped Purple - Turquoise.cube
#Created by: Adobe Photoshop Export Color Lookup Plugin
#Copyright: (C) Copyright 2019 Turquoise by Striped Purple - © Austin Barrett All Rights Reserved.
TITLE "Striped Purple - Turquoise"
#LUT size
LUT_3D_SIZE 5
#data domain
#LUT data points
DOMAIN_MIN 0.000000 0.000000 0.000000
DOMAIN_MAX 0.903226 0.903226 0.903226
0.176910 0.330597 0.445709
0.326447 0.330597 0.445709
0.490875 0.330597 0.445709
0.682617 0.330597 0.445709
0.897034 0.330597 0.445709
0.176910 0.483002 0.445709
0.326447 0.483002 0.445709
0.490875 0.483002 0.445709
0.682617 0.483002 0.445709
0.897034 0.483002 0.445709
0.176910 0.622467 0.445709
0.326447 0.622467 0.445709
0.490875 0.622467 0.445709
0.682617 0.622467 0.445709
0.897034 0.622467 0.445709
0.176910 0.744568 0.445709
0.326447 0.744568 0.445709
0.490875 0.744568 0.445709
0.682617 0.744568 0.445709
0.897034 0.744568 0.445709
0.176910 0.855042 0.445709
0.326447 0.855042 0.445709
0.490875 0.855042 0.445709
0.682617 0.855042 0.445709
0.897034 0.855042 0.445709
0.176910 0.330597 0.476135
0.326447 0.330597 0.476135
0.490875 0.330597 0.476135
0.682617 0.330597 0.476135
0.897034 0.330597 0.476135
0.176910 0.483002 0.476135
0.326447 0.483002 0.476135
0.490875 0.483002 0.476135
0.682617 0.483002 0.476135
0.897034 0.483002 0.476135
0.176910 0.622467 0.476135
0.326447 0.622467 0.476135
0.490875 0.622467 0.476135
0.682617 0.622467 0.476135
0.897034 0.622467 0.476135
0.176910 0.744568 0.476135
0.326447 0.744568 0.476135
0.490875 0.744568 0.476135
0.682617 0.744568 0.476135
0.897034 0.744568 0.476135
0.176910 0.855042 0.476135
0.326447 0.855042 0.476135
0.490875 0.855042 0.476135
0.682617 0.855042 0.476135
0.897034 0.855042 0.476135
0.176910 0.330597 0.512054
0.326447 0.330597 0.512054
0.490875 0.330597 0.512054
0.682617 0.330597 0.512054
0.897034 0.330597 0.512054
0.176910 0.483002 0.512054
0.326447 0.483002 0.512054
0.490875 0.483002 0.512054
0.682617 0.483002 0.512054
0.897034 0.483002 0.512054
0.176910 0.622467 0.512054
0.326447 0.622467 0.512054
0.490875 0.622467 0.512054
0.682617 0.622467 0.512054
0.897034 0.622467 0.512054
0.176910 0.744568 0.512054
0.326447 0.744568 0.512054
0.490875 0.744568 0.512054
0.682617 0.744568 0.512054
0.897034 0.744568 0.512054
0.176910 0.855042 0.512054
0.326447 0.855042 0.512054
0.490875 0.855042 0.512054
0.682617 0.855042 0.512054
0.897034 0.855042 0.512054
0.176910 0.330597 0.557678
0.326447 0.330597 0.557678
0.490875 0.330597 0.557678
0.682617 0.330597 0.557678
0.897034 0.330597 0.557678
0.176910 0.483002 0.557678
0.326447 0.483002 0.557678
0.490875 0.483002 0.557678
0.682617 0.483002 0.557678
0.897034 0.483002 0.557678
0.176910 0.622467 0.557678
0.326447 0.622467 0.557678
0.490875 0.622467 0.557678
0.682617 0.622467 0.557678
0.897034 0.622467 0.557678
0.176910 0.744568 0.557678
0.326447 0.744568 0.557678
0.490875 0.744568 0.557678
0.682617 0.744568 0.557678
0.897034 0.744568 0.557678
0.176910 0.855042 0.557678
0.326447 0.855042 0.557678
0.490875 0.855042 0.557678
0.682617 0.855042 0.557678
0.897034 0.855042 0.557678
0.176910 0.330597 0.612274
0.326447 0.330597 0.612274
0.490875 0.330597 0.612274
0.682617 0.330597 0.612274
0.897034 0.330597 0.612274
0.176910 0.483002 0.612274
0.326447 0.483002 0.612274
0.490875 0.483002 0.612274
0.682617 0.483002 0.612274
0.897034 0.483002 0.612274
0.176910 0.622467 0.612274
0.326447 0.622467 0.612274
0.490875 0.622467 0.612274
0.682617 0.622467 0.612274
0.897034 0.622467 0.612274
0.176910 0.744568 0.612274
0.326447 0.744568 0.612274
0.490875 0.744568 0.612274
0.682617 0.744568 0.612274
0.897034 0.744568 0.612274
0.176910 0.855042 0.612274
0.326447 0.855042 0.612274
0.490875 0.855042 0.612274
0.682617 0.855042 0.612274
0.897034 0.855042 0.612274
