Avant Garde/Striped Purple - Blow Me Down.cube
#Created by: Adobe Photoshop Export Color Lookup Plugin
#Copyright: (C) Copyright 2019 Blow Me Down by Striped Purple © Austin Barrett 2018
TITLE "Blow Me Down"
#LUT size
LUT_3D_SIZE 8
#data domain
#LUT data points
DOMAIN_MIN 0.000000 0.000000 0.000000
DOMAIN_MAX 0.903226 0.903226 0.903226
0.136139 0.140289 0.146423
0.145782 0.137543 0.144592
0.231445 0.132568 0.143036
0.553864 0.143524 0.066772
0.759277 0.130585 0.014771
0.889526 0.065552 0.011902
1.000000 0.008850 0.007294
1.000000 0.075897 0.000366
0.136566 0.143738 0.150299
0.138245 0.143219 0.149353
0.215698 0.146301 0.136444
0.520264 0.177704 0.084808
0.748718 0.196075 0.012939
0.884857 0.192261 0.009827
1.000000 0.165527 0.004761
1.000000 0.130707 0.000000
0.134644 0.154144 0.163330
0.136108 0.153290 0.161896
0.140656 0.156372 0.164337
0.425964 0.235107 0.098938
0.730591 0.286591 0.008545
0.874207 0.292908 0.003998
1.000000 0.288086 0.000000
1.000000 0.267883 0.000000
0.116669 0.190704 0.213287
0.119507 0.189087 0.211884
0.125122 0.191528 0.208313
0.203094 0.201141 0.157288
0.633057 0.359833 0.014404
0.853058 0.430267 0.000000
0.995422 0.451355 0.000000
0.996094 0.438171 0.000000
0.112671 0.245605 0.246674
0.115906 0.245392 0.249298
0.119568 0.237762 0.225922
0.179199 0.249908 0.177307
0.376160 0.325287 0.163940
0.729706 0.480682 0.022552
0.974426 0.605988 0.000000
0.984192 0.622894 0.000000
0.143677 0.378571 0.339020
0.126068 0.384552 0.333282
0.060852 0.372711 0.299286
0.061340 0.383484 0.205444
0.402069 0.414185 0.187744
0.597351 0.486237 0.165924
0.832306 0.641632 0.049011
0.970093 0.751984 0.000000
0.164276 0.561462 0.419861
0.169128 0.565826 0.411285
0.126892 0.559509 0.316376
0.072388 0.538147 0.190796
0.349670 0.553589 0.200775
0.622864 0.585114 0.235413
0.745148 0.651855 0.288116
0.970398 0.801666 0.239929
0.231720 0.732056 0.532074
0.219696 0.730682 0.527008
0.181366 0.735809 0.488251
0.105865 0.728882 0.371277
0.317780 0.716766 0.339722
0.706604 0.746674 0.397644
0.816956 0.783112 0.456757
0.932617 0.873840 0.493805
0.138000 0.144043 0.153717
0.140320 0.142242 0.153961
0.199463 0.136200 0.157043
0.533997 0.138062 0.096069
0.750824 0.149384 0.016724
0.883026 0.164459 0.011292
1.000000 0.134552 0.005585
1.000000 0.108795 0.000000
0.138916 0.146057 0.153625
0.142181 0.148224 0.156982
0.208649 0.143250 0.149353
0.513153 0.165802 0.091766
0.744812 0.192596 0.015594
0.880890 0.213135 0.009644
1.000000 0.201813 0.003113
1.000000 0.163757 0.000000
0.133179 0.166412 0.180969
0.136475 0.166290 0.181671
0.144257 0.166779 0.179565
0.480621 0.244995 0.064911
0.731049 0.281219 0.012665
0.871338 0.298798 0.005646
1.000000 0.308868 0.000000
1.000000 0.282745 0.000000
0.127045 0.211670 0.235687
0.127930 0.212158 0.237823
0.134430 0.210236 0.231689
0.227478 0.216217 0.172119
0.652283 0.368530 0.019714
0.853455 0.424072 0.000000
0.995056 0.458801 0.000000
0.995605 0.447876 0.000000
0.118469 0.269104 0.261566
0.098419 0.260681 0.261353
0.097198 0.256195 0.250580
0.193115 0.276855 0.184387
0.415222 0.349670 0.177856
0.738342 0.489807 0.028168
0.973236 0.605743 0.000000
0.983948 0.625946 0.000000
0.153656 0.397034 0.369598
0.118958 0.407501 0.358154
0.064117 0.406830 0.321869
0.063965 0.399017 0.214600
0.421814 0.429047 0.206207
0.615173 0.500854 0.191711
0.833771 0.644287 0.059753
0.970001 0.753021 0.000000
0.164703 0.581512 0.438751
0.161377 0.580078 0.433075
0.144836 0.576965 0.380615
0.075592 0.551849 0.168915
0.291199 0.564758 0.210876
0.631775 0.597321 0.256470
0.745972 0.652069 0.290894
0.970306 0.804138 0.245239
0.261505 0.736389 0.567444
0.231232 0.737244 0.551453
0.192932 0.742554 0.521606
0.108490 0.735229 0.406616
0.239349 0.723969 0.351471
0.705902 0.747833 0.397766
0.817108 0.783600 0.456543
0.937012 0.882111 0.490723
0.144714 0.158325 0.185303
0.148132 0.156433 0.185669
0.158234 0.148071 0.186890
0.299744 0.148865 0.210724
0.746735 0.007751 0.106293
0.890625 0.000000 0.205017
1.000000 0.000000 0.144379
1.000000 0.002533 0.004669
0.146515 0.166718 0.188965
0.152435 0.170929 0.195648
0.163391 0.162048 0.194061
0.385773 0.149597 0.205170
0.751099 0.144501 0.034485
0.884949 0.140564 0.026825
1.000000 0.082397 0.016968
1.000000 0.147766 0.002045
0.148132 0.178131 0.193634
0.153717 0.182007 0.200989
0.175507 0.198700 0.219543
0.511658 0.208496 0.113617
0.743011 0.232208 0.032196
0.878784 0.247253 0.024292
1.000000 0.256531 0.013336
1.000000 0.268616 0.000000
0.146759 0.222748 0.242584
0.079712 0.244873 0.269165
0.056183 0.257202 0.283813
0.281281 0.257599 0.228577
0.693634 0.383026 0.034332
0.860199 0.398804 0.019409
0.996826 0.425568 0.005341
0.996216 0.435791 0.000000
0.144043 0.299194 0.299194
0.092621 0.324829 0.308044
0.059448 0.358337 0.333740
0.126190 0.352295 0.254578
0.484497 0.399536 0.236115
0.765778 0.515411 0.045135
0.985535 0.606720 0.000092
0.984619 0.617920 0.000000
0.148041 0.457397 0.448212
0.117706 0.459747 0.435059
0.068817 0.488312 0.395325
0.080017 0.446106 0.285858
0.447540 0.475555 0.245514
0.642639 0.533142 0.268768
0.853790 0.667542 0.122345
0.969696 0.756012 0.000000
0.169189 0.604309 0.517792
0.166626 0.603821 0.507202
0.134949 0.608856 0.473206
0.083588 0.598572 0.346375
0.098480 0.592651 0.236359
0.649780 0.617584 0.312744
0.763611 0.674469 0.355621
0.970154 0.807953 0.255737
0.332611 0.749939 0.619080
0.331604 0.749939 0.622437
0.298920 0.755646 0.589081
0.177673 0.752258 0.520813
0.120758 0.736938 0.378052
0.700836 0.754211 0.426697
0.820679 0.787354 0.466888
0.939331 0.883820 0.496216
0.181915 0.221588 0.281891
0.183624 0.223175 0.284149
0.189026 0.227692 0.289093
0.267487 0.182922 0.300812
0.533997 0.225006 0.327789
0.820770 0.166504 0.321716
1.000000 0.000000 0.327911
1.000000 0.000000 0.240845
0.189941 0.239380 0.288330
0.190002 0.244141 0.295929
0.162384 0.247833 0.304596
0.281158 0.204559 0.316132
0.550171 0.252625 0.335114
0.837738 0.168640 0.307556
1.000000 0.000000 0.305145
1.000000 0.000000 0.238495
0.185913 0.252075 0.294403
0.183777 0.259155 0.304230
0.062836 0.288025 0.343262
0.303955 0.256531 0.347076
0.667755 0.275146 0.336273
0.876709 0.176788 0.255249
1.000000 0.104614 0.056519
1.000000 0.114960 0.037842
0.172211 0.274078 0.313599
0.168701 0.282379 0.324127
0.164825 0.302948 0.349945
0.356750 0.396179 0.414124
0.722076 0.353851 0.232117
0.879852 0.349213 0.065704
1.000000 0.355133 0.051697
1.000000 0.353760 0.031250
0.203003 0.318573 0.351624
0.197723 0.322784 0.359253
0.108948 0.383301 0.401825
0.087372 0.505646 0.455872
0.557098 0.476410 0.378479
0.814148 0.544983 0.071198
0.990784 0.587341 0.042572
0.988281 0.580048 0.019470
0.149628 0.447601 0.481964
0.188812 0.458557 0.494080
0.183258 0.502502 0.501740
0.091553 0.559998 0.479431
0.434662 0.542084 0.356964
0.680420 0.583984 0.410767
0.896606 0.701172 0.207428
0.970276 0.755646 0.018951
0.260376 0.592773 0.552399
0.278015 0.610931 0.568665
0.273895 0.635834 0.581116
0.199799 0.636902 0.536377
0.102966 0.632996 0.375610
0.658966 0.647522 0.410004
0.788147 0.708405 0.465302
0.971558 0.820282 0.327057
0.356354 0.722351 0.662933
0.361084 0.738495 0.669830
0.371552 0.767700 0.679077
0.396301 0.782471 0.635468
0.333893 0.769592 0.537659
0.686127 0.761200 0.476868
0.829498 0.799744 0.523895
0.950653 0.904083 0.524445
0.179871 0.318359 0.430603
0.182648 0.318756 0.430847
0.201599 0.329102 0.433655
0.085907 0.323303 0.454834
0.524078 0.306488 0.472015
0.699921 0.372803 0.491302
0.883118 0.377106 0.580750
0.976257 0.274292 0.603149
0.184265 0.340881 0.442963
0.195953 0.348450 0.450378
0.219360 0.358154 0.450775
0.089050 0.356537 0.470825
0.536621 0.334442 0.487457
0.704498 0.396790 0.499603
0.897095 0.380737 0.588715
0.978363 0.271332 0.592194
0.182953 0.365845 0.456421
0.191254 0.375092 0.462616
0.128784 0.401398 0.488190
0.094818 0.403656 0.501678
0.559387 0.400574 0.508453
0.712555 0.451965 0.522308
0.943970 0.380920 0.593201
0.986603 0.251434 0.548065
0.164612 0.392883 0.466919
0.169952 0.398560 0.472229
0.109711 0.429810 0.502228
0.329926 0.483673 0.541168
0.568756 0.484009 0.533203
0.776489 0.496307 0.549774
1.000000 0.353790 0.543304
1.000000 0.201813 0.397095
0.078644 0.433136 0.488525
0.082153 0.438782 0.494232
0.138245 0.474396 0.528198
0.367340 0.533508 0.588104
0.599396 0.583008 0.561462
0.859894 0.541168 0.454865
1.000000 0.488586 0.192200
1.000000 0.490814 0.083984
0.238831 0.543549 0.574524
0.295959 0.553406 0.580994
0.352570 0.562103 0.589752
0.421112 0.586151 0.610535
0.451843 0.663818 0.643951
0.714539 0.652344 0.556763
0.966095 0.735626 0.316925
0.977966 0.736725 0.067413
0.331787 0.619843 0.616180
0.343323 0.623016 0.618011
0.374695 0.641449 0.629242
0.422546 0.665466 0.647583
0.440033 0.710297 0.646973
0.652466 0.682281 0.515167
0.824982 0.749634 0.587982
0.974243 0.854614 0.408203
0.380096 0.704742 0.708435
0.396210 0.700806 0.706390
0.426819 0.713531 0.715759
0.447845 0.748047 0.732941
0.481323 0.783752 0.692657
0.617249 0.773315 0.554169
0.837097 0.824219 0.593323
0.969910 0.948639 0.601868
0.223572 0.451843 0.593994
0.223999 0.455170 0.597107
0.220245 0.464020 0.605499
0.112061 0.473969 0.611359
0.462738 0.444336 0.614227
0.697021 0.463928 0.624207
0.813507 0.500732 0.655518
0.973022 0.565582 0.741669
0.225067 0.475586 0.606873
0.223907 0.478333 0.609497
0.220001 0.483246 0.615784
0.115509 0.492523 0.620300
0.435455 0.462067 0.621674
0.701477 0.481262 0.629517
0.816895 0.520264 0.659790
0.986481 0.563660 0.746613
0.222137 0.506226 0.622162
0.225708 0.513489 0.628601
0.287689 0.526886 0.633240
0.366028 0.530548 0.623932
0.512695 0.512970 0.628540
0.710968 0.524567 0.641541
0.831970 0.559692 0.674225
1.000000 0.568420 0.756683
0.215363 0.533691 0.632141
0.245270 0.540985 0.634888
0.360168 0.556244 0.640442
0.474030 0.577789 0.646851
0.566345 0.577942 0.648376
0.729126 0.583923 0.659515
0.851959 0.615448 0.689209
1.000000 0.572693 0.760742
0.211029 0.568726 0.647064
0.273132 0.578247 0.653290
0.388245 0.596741 0.664551
0.479431 0.626282 0.686157
0.593628 0.649445 0.684601
0.748932 0.653259 0.680756
0.907257 0.662048 0.714172
1.000000 0.557556 0.730896
0.310669 0.615509 0.670898
0.331604 0.622253 0.677094
0.385254 0.640991 0.697937
0.445862 0.663757 0.720184
0.556946 0.694183 0.739502
0.776337 0.737305 0.708252
1.000000 0.694702 0.622742
1.000000 0.675659 0.521515
0.406219 0.714813 0.742401
0.424591 0.720947 0.747498
0.464355 0.731384 0.761230
0.509491 0.730835 0.770264
0.574066 0.746857 0.775818
0.700134 0.775116 0.718384
0.864227 0.798157 0.704865
0.980042 0.888245 0.526978
0.465393 0.835754 0.805969
0.474701 0.850647 0.806366
0.488922 0.857056 0.807343
0.520660 0.864166 0.802002
0.572784 0.866974 0.783478
0.659393 0.812347 0.745667
0.827545 0.853027 0.667511
0.972351 0.999512 0.701080
0.418854 0.630219 0.760834
0.436005 0.628601 0.759857
0.481812 0.624756 0.757141
0.518921 0.624817 0.754974
0.591736 0.617889 0.756592
0.766388 0.601532 0.762146
0.856628 0.604034 0.765198
0.939819 0.616974 0.782043
0.442993 0.644867 0.765289
0.459015 0.641510 0.764252
0.495453 0.639923 0.761749
0.539337 0.635651 0.758606
0.603241 0.630524 0.758636
0.772430 0.613586 0.765350
0.860291 0.613556 0.763885
0.940613 0.626282 0.782318
0.467438 0.664734 0.769806
0.482544 0.667847 0.769714
0.514343 0.669952 0.770935
0.568970 0.660858 0.762024
0.651855 0.655243 0.764954
0.772430 0.650543 0.770447
0.865204 0.640198 0.768646
0.950684 0.658234 0.785309
0.469574 0.690002 0.781097
0.488037 0.692902 0.783417
0.534119 0.700104 0.785095
0.598694 0.709381 0.784698
0.678192 0.700012 0.770874
0.783478 0.693298 0.778107
0.876862 0.686646 0.778015
0.973816 0.698425 0.791901
0.478516 0.719177 0.795654
0.500885 0.722900 0.796509
0.538849 0.731262 0.800201
0.608582 0.739410 0.800201
0.693512 0.743896 0.797333
0.789459 0.743134 0.785278
0.889923 0.734009 0.786682
0.999207 0.745117 0.797943
0.473907 0.746246 0.817352
0.491791 0.750336 0.823639
0.525116 0.751099 0.824341
0.573853 0.757751 0.835144
0.656891 0.765656 0.840759
0.818176 0.798340 0.802917
0.911102 0.791504 0.795502
1.000000 0.793396 0.808960
0.453125 0.747040 0.824066
0.471558 0.752045 0.832397
0.501678 0.758759 0.842651
0.554596 0.768097 0.857483
0.621735 0.790619 0.878265
0.781891 0.847839 0.840759
0.932648 0.868378 0.806641
0.992126 0.857239 0.763367
0.502808 0.914459 0.864868
0.524048 0.919159 0.874634
0.553436 0.935944 0.876282
0.607300 0.957611 0.882660
0.678436 0.986145 0.890533
0.770752 0.968811 0.866516
0.841156 0.966766 0.783783
0.975403 0.920227 0.814117
0.700775 0.787811 0.866943
0.701874 0.787781 0.866760
0.729523 0.783020 0.860901
0.762970 0.781403 0.854706
0.811310 0.775818 0.853333
0.873627 0.765717 0.852844
0.945251 0.753052 0.853821
1.000000 0.741089 0.854584
0.706940 0.795715 0.867645
0.720093 0.792145 0.864563
0.735413 0.790649 0.861572
0.767883 0.789459 0.855652
0.816132 0.783966 0.852631
0.879364 0.771423 0.852295
0.947693 0.760925 0.852631
1.000000 0.746155 0.855499
0.721649 0.806732 0.867554
0.732910 0.808624 0.866638
0.753876 0.807861 0.862854
0.785522 0.803864 0.855804
0.828857 0.798279 0.851318
0.882629 0.786743 0.851074
0.961212 0.774719 0.850708
1.000000 0.763428 0.852905
0.705841 0.827637 0.880798
0.723877 0.829376 0.878784
0.749054 0.838654 0.879425
0.785370 0.842377 0.874298
0.848358 0.825928 0.846222
0.898590 0.814453 0.847229
0.970734 0.798462 0.848419
1.000000 0.786530 0.849426
0.685089 0.853333 0.897400
0.702576 0.855774 0.895782
0.721497 0.861115 0.895416
0.776001 0.869141 0.887115
0.852600 0.870331 0.859924
0.912079 0.854218 0.839417
0.981354 0.839294 0.840607
1.000000 0.822937 0.843201
0.660278 0.882141 0.914368
0.669525 0.888458 0.917206
0.692657 0.893768 0.916901
0.738220 0.900787 0.911926
0.823547 0.900970 0.881195
0.929779 0.903107 0.843628
0.981171 0.889648 0.831116
0.985779 0.874603 0.833862
0.643768 0.916351 0.928192
0.653503 0.922485 0.930969
0.671722 0.928833 0.934021
0.698792 0.940277 0.939423
0.801758 0.927948 0.898621
0.921692 0.913147 0.850098
0.976044 0.906403 0.828094
0.976044 0.906403 0.828094
0.630890 0.932709 0.934692
0.643768 0.934143 0.935577
0.662048 0.936188 0.936859
0.692810 0.939636 0.939026
0.795563 0.928741 0.901093
0.928986 0.912201 0.847137
0.976044 0.906403 0.828094
0.976044 0.906403 0.828094
