Avant Garde/Striped Purple - Amber Haze.cube
#Created by: Adobe Photoshop Export Color Lookup Plugin
#Copyright: (C) Copyright 2019 Amber Haze by Striped Purple - © Austin Barrett All Rights Reserved.
TITLE "Striped Purple - Amber Haze"
#LUT size
LUT_3D_SIZE 8
#data domain
#LUT data points
DOMAIN_MIN 0.000000 0.000000 0.000000
DOMAIN_MAX 0.903226 0.903226 0.903226
0.015076 0.000000 0.000000
0.129639 0.000000 0.000000
0.240723 0.000000 0.000000
0.345398 0.000000 0.000000
0.441467 0.000000 0.000000
0.527893 0.000000 0.000000
0.606842 0.000000 0.000000
0.680847 0.000000 0.000000
0.015076 0.086182 0.000000
0.129639 0.086182 0.000000
0.240723 0.086182 0.000000
0.345398 0.086182 0.000000
0.441467 0.086182 0.000000
0.527893 0.086182 0.000000
0.606842 0.086182 0.000000
0.680847 0.086182 0.000000
0.015076 0.173492 0.000000
0.129639 0.173492 0.000000
0.240723 0.173492 0.000000
0.345398 0.173492 0.000000
0.441467 0.173492 0.000000
0.527893 0.173492 0.000000
0.606842 0.173492 0.000000
0.680847 0.173492 0.000000
0.015076 0.263184 0.000000
0.129639 0.263184 0.000000
0.240723 0.263184 0.000000
0.345398 0.263184 0.000000
0.441467 0.263184 0.000000
0.527893 0.263184 0.000000
0.606842 0.263184 0.000000
0.680847 0.263184 0.000000
0.015076 0.356628 0.000000
0.129639 0.356628 0.000000
0.240723 0.356628 0.000000
0.345398 0.356628 0.000000
0.441467 0.356628 0.000000
0.527893 0.356628 0.000000
0.606842 0.356628 0.000000
0.680847 0.356628 0.000000
0.015076 0.455017 0.000000
0.129639 0.455017 0.000000
0.240723 0.455017 0.000000
0.345398 0.455017 0.000000
0.441467 0.455017 0.000000
0.527893 0.455017 0.000000
0.606842 0.455017 0.000000
0.680847 0.455017 0.000000
0.015076 0.558533 0.000000
0.129639 0.558533 0.000000
0.240723 0.558533 0.000000
0.345398 0.558533 0.000000
0.441467 0.558533 0.000000
0.527893 0.558533 0.000000
0.606842 0.558533 0.000000
0.680847 0.558533 0.000000
0.015076 0.665863 0.000000
0.129639 0.665863 0.000000
0.240723 0.665863 0.000000
0.345398 0.665863 0.000000
0.441467 0.665863 0.000000
0.527893 0.665863 0.000000
0.606842 0.665863 0.000000
0.680847 0.665863 0.000000
0.015076 0.000000 0.102783
0.129639 0.000000 0.102783
0.240723 0.000000 0.102783
0.345398 0.000000 0.102783
0.441467 0.000000 0.102783
0.527893 0.000000 0.102783
0.606842 0.000000 0.102783
0.680847 0.000000 0.102783
0.015076 0.086182 0.102783
0.129639 0.086182 0.102783
0.240723 0.086182 0.102783
0.345398 0.086182 0.102783
0.441467 0.086182 0.102783
0.527893 0.086182 0.102783
0.606842 0.086182 0.102783
0.680847 0.086182 0.102783
0.015076 0.173492 0.102783
0.129639 0.173492 0.102783
0.240723 0.173492 0.102783
0.345398 0.173492 0.102783
0.441467 0.173492 0.102783
0.527893 0.173492 0.102783
0.606842 0.173492 0.102783
0.680847 0.173492 0.102783
0.015076 0.263184 0.102783
0.129639 0.263184 0.102783
0.240723 0.263184 0.102783
0.345398 0.263184 0.102783
0.441467 0.263184 0.102783
0.527893 0.263184 0.102783
0.606842 0.263184 0.102783
0.680847 0.263184 0.102783
0.015076 0.356628 0.102783
0.129639 0.356628 0.102783
0.240723 0.356628 0.102783
0.345398 0.356628 0.102783
0.441467 0.356628 0.102783
0.527893 0.356628 0.102783
0.606842 0.356628 0.102783
0.680847 0.356628 0.102783
0.015076 0.455017 0.102783
0.129639 0.455017 0.102783
0.240723 0.455017 0.102783
0.345398 0.455017 0.102783
0.441467 0.455017 0.102783
0.527893 0.455017 0.102783
0.606842 0.455017 0.102783
0.680847 0.455017 0.102783
0.015076 0.558533 0.102783
0.129639 0.558533 0.102783
0.240723 0.558533 0.102783
0.345398 0.558533 0.102783
0.441467 0.558533 0.102783
0.527893 0.558533 0.102783
0.606842 0.558533 0.102783
0.680847 0.558533 0.102783
0.015076 0.665863 0.102783
0.129639 0.665863 0.102783
0.240723 0.665863 0.102783
0.345398 0.665863 0.102783
0.441467 0.665863 0.102783
0.527893 0.665863 0.102783
0.606842 0.665863 0.102783
0.680847 0.665863 0.102783
0.015076 0.000000 0.205597
0.129639 0.000000 0.205597
0.240723 0.000000 0.205597
0.345398 0.000000 0.205597
0.441467 0.000000 0.205597
0.527893 0.000000 0.205597
0.606842 0.000000 0.205597
0.680847 0.000000 0.205597
0.015076 0.086182 0.205597
0.129639 0.086182 0.205597
0.240723 0.086182 0.205597
0.345398 0.086182 0.205597
0.441467 0.086182 0.205597
0.527893 0.086182 0.205597
0.606842 0.086182 0.205597
0.680847 0.086182 0.205597
0.015076 0.173492 0.205597
0.129639 0.173492 0.205597
0.240723 0.173492 0.205597
0.345398 0.173492 0.205597
0.441467 0.173492 0.205597
0.527893 0.173492 0.205597
0.606842 0.173492 0.205597
0.680847 0.173492 0.205597
0.015076 0.263184 0.205597
0.129639 0.263184 0.205597
0.240723 0.263184 0.205597
0.345398 0.263184 0.205597
0.441467 0.263184 0.205597
0.527893 0.263184 0.205597
0.606842 0.263184 0.205597
0.680847 0.263184 0.205597
0.015076 0.356628 0.205597
0.129639 0.356628 0.205597
0.240723 0.356628 0.205597
0.345398 0.356628 0.205597
0.441467 0.356628 0.205597
0.527893 0.356628 0.205597
0.606842 0.356628 0.205597
0.680847 0.356628 0.205597
0.015076 0.455017 0.205597
0.129639 0.455017 0.205597
0.240723 0.455017 0.205597
0.345398 0.455017 0.205597
0.441467 0.455017 0.205597
0.527893 0.455017 0.205597
0.606842 0.455017 0.205597
0.680847 0.455017 0.205597
0.015076 0.558533 0.205597
0.129639 0.558533 0.205597
0.240723 0.558533 0.205597
0.345398 0.558533 0.205597
0.441467 0.558533 0.205597
0.527893 0.558533 0.205597
0.606842 0.558533 0.205597
0.680847 0.558533 0.205597
0.015076 0.665863 0.205597
0.129639 0.665863 0.205597
0.240723 0.665863 0.205597
0.345398 0.665863 0.205597
0.441467 0.665863 0.205597
0.527893 0.665863 0.205597
0.606842 0.665863 0.205597
0.680847 0.665863 0.205597
0.015076 0.000000 0.308411
0.129639 0.000000 0.308411
0.240723 0.000000 0.308411
0.345398 0.000000 0.308411
0.441467 0.000000 0.308411
0.527893 0.000000 0.308411
0.606842 0.000000 0.308411
0.680847 0.000000 0.308411
0.015076 0.086182 0.308411
0.129639 0.086182 0.308411
0.240723 0.086182 0.308411
0.345398 0.086182 0.308411
0.441467 0.086182 0.308411
0.527893 0.086182 0.308411
0.606842 0.086182 0.308411
0.680847 0.086182 0.308411
0.015076 0.173492 0.308411
0.129639 0.173492 0.308411
0.240723 0.173492 0.308411
0.345398 0.173492 0.308411
0.441467 0.173492 0.308411
0.527893 0.173492 0.308411
0.606842 0.173492 0.308411
0.680847 0.173492 0.308411
0.015076 0.263184 0.308411
0.129639 0.263184 0.308411
0.240723 0.263184 0.308411
0.345398 0.263184 0.308411
0.441467 0.263184 0.308411
0.527893 0.263184 0.308411
0.606842 0.263184 0.308411
0.680847 0.263184 0.308411
0.015076 0.356628 0.308411
0.129639 0.356628 0.308411
0.240723 0.356628 0.308411
0.345398 0.356628 0.308411
0.441467 0.356628 0.308411
0.527893 0.356628 0.308411
0.606842 0.356628 0.308411
0.680847 0.356628 0.308411
0.015076 0.455017 0.308411
0.129639 0.455017 0.308411
0.240723 0.455017 0.308411
0.345398 0.455017 0.308411
0.441467 0.455017 0.308411
0.527893 0.455017 0.308411
0.606842 0.455017 0.308411
0.680847 0.455017 0.308411
0.015076 0.558533 0.308411
0.129639 0.558533 0.308411
0.240723 0.558533 0.308411
0.345398 0.558533 0.308411
0.441467 0.558533 0.308411
0.527893 0.558533 0.308411
0.606842 0.558533 0.308411
0.680847 0.558533 0.308411
0.015076 0.665863 0.308411
0.129639 0.665863 0.308411
0.240723 0.665863 0.308411
0.345398 0.665863 0.308411
0.441467 0.665863 0.308411
0.527893 0.665863 0.308411
0.606842 0.665863 0.308411
0.680847 0.665863 0.308411
0.015076 0.000000 0.411346
0.129639 0.000000 0.411346
0.240723 0.000000 0.411346
0.345398 0.000000 0.411346
0.441467 0.000000 0.411346
0.527893 0.000000 0.411346
0.606842 0.000000 0.411346
0.680847 0.000000 0.411346
0.015076 0.086182 0.411346
0.129639 0.086182 0.411346
0.240723 0.086182 0.411346
0.345398 0.086182 0.411346
0.441467 0.086182 0.411346
0.527893 0.086182 0.411346
0.606842 0.086182 0.411346
0.680847 0.086182 0.411346
0.015076 0.173492 0.411346
0.129639 0.173492 0.411346
0.240723 0.173492 0.411346
0.345398 0.173492 0.411346
0.441467 0.173492 0.411346
0.527893 0.173492 0.411346
0.606842 0.173492 0.411346
0.680847 0.173492 0.411346
0.015076 0.263184 0.411346
0.129639 0.263184 0.411346
0.240723 0.263184 0.411346
0.345398 0.263184 0.411346
0.441467 0.263184 0.411346
0.527893 0.263184 0.411346
0.606842 0.263184 0.411346
0.680847 0.263184 0.411346
0.015076 0.356628 0.411346
0.129639 0.356628 0.411346
0.240723 0.356628 0.411346
0.345398 0.356628 0.411346
0.441467 0.356628 0.411346
0.527893 0.356628 0.411346
0.606842 0.356628 0.411346
0.680847 0.356628 0.411346
0.015076 0.455017 0.411346
0.129639 0.455017 0.411346
0.240723 0.455017 0.411346
0.345398 0.455017 0.411346
0.441467 0.455017 0.411346
0.527893 0.455017 0.411346
0.606842 0.455017 0.411346
0.680847 0.455017 0.411346
0.015076 0.558533 0.411346
0.129639 0.558533 0.411346
0.240723 0.558533 0.411346
0.345398 0.558533 0.411346
0.441467 0.558533 0.411346
0.527893 0.558533 0.411346
0.606842 0.558533 0.411346
0.680847 0.558533 0.411346
0.015076 0.665863 0.411346
0.129639 0.665863 0.411346
0.240723 0.665863 0.411346
0.345398 0.665863 0.411346
0.441467 0.665863 0.411346
0.527893 0.665863 0.411346
0.606842 0.665863 0.411346
0.680847 0.665863 0.411346
0.015076 0.000000 0.514343
0.129639 0.000000 0.514343
0.240723 0.000000 0.514343
0.345398 0.000000 0.514343
0.441467 0.000000 0.514343
0.527893 0.000000 0.514343
0.606842 0.000000 0.514343
0.680847 0.000000 0.514343
0.015076 0.086182 0.514343
0.129639 0.086182 0.514343
0.240723 0.086182 0.514343
0.345398 0.086182 0.514343
0.441467 0.086182 0.514343
0.527893 0.086182 0.514343
0.606842 0.086182 0.514343
0.680847 0.086182 0.514343
0.015076 0.173492 0.514343
0.129639 0.173492 0.514343
0.240723 0.173492 0.514343
0.345398 0.173492 0.514343
0.441467 0.173492 0.514343
0.527893 0.173492 0.514343
0.606842 0.173492 0.514343
0.680847 0.173492 0.514343
0.015076 0.263184 0.514343
0.129639 0.263184 0.514343
0.240723 0.263184 0.514343
0.345398 0.263184 0.514343
0.441467 0.263184 0.514343
0.527893 0.263184 0.514343
0.606842 0.263184 0.514343
0.680847 0.263184 0.514343
0.015076 0.356628 0.514343
0.129639 0.356628 0.514343
0.240723 0.356628 0.514343
0.345398 0.356628 0.514343
0.441467 0.356628 0.514343
0.527893 0.356628 0.514343
0.606842 0.356628 0.514343
0.680847 0.356628 0.514343
0.015076 0.455017 0.514343
0.129639 0.455017 0.514343
0.240723 0.455017 0.514343
0.345398 0.455017 0.514343
0.441467 0.455017 0.514343
0.527893 0.455017 0.514343
0.606842 0.455017 0.514343
0.680847 0.455017 0.514343
0.015076 0.558533 0.514343
0.129639 0.558533 0.514343
0.240723 0.558533 0.514343
0.345398 0.558533 0.514343
0.441467 0.558533 0.514343
0.527893 0.558533 0.514343
0.606842 0.558533 0.514343
0.680847 0.558533 0.514343
0.015076 0.665863 0.514343
0.129639 0.665863 0.514343
0.240723 0.665863 0.514343
0.345398 0.665863 0.514343
0.441467 0.665863 0.514343
0.527893 0.665863 0.514343
0.606842 0.665863 0.514343
0.680847 0.665863 0.514343
0.015076 0.000000 0.617340
0.129639 0.000000 0.617340
0.240723 0.000000 0.617340
0.345398 0.000000 0.617340
0.441467 0.000000 0.617340
0.527893 0.000000 0.617340
0.606842 0.000000 0.617340
0.680847 0.000000 0.617340
0.015076 0.086182 0.617340
0.129639 0.086182 0.617340
0.240723 0.086182 0.617340
0.345398 0.086182 0.617340
0.441467 0.086182 0.617340
0.527893 0.086182 0.617340
0.606842 0.086182 0.617340
0.680847 0.086182 0.617340
0.015076 0.173492 0.617340
0.129639 0.173492 0.617340
0.240723 0.173492 0.617340
0.345398 0.173492 0.617340
0.441467 0.173492 0.617340
0.527893 0.173492 0.617340
0.606842 0.173492 0.617340
0.680847 0.173492 0.617340
0.015076 0.263184 0.617340
0.129639 0.263184 0.617340
0.240723 0.263184 0.617340
0.345398 0.263184 0.617340
0.441467 0.263184 0.617340
0.527893 0.263184 0.617340
0.606842 0.263184 0.617340
0.680847 0.263184 0.617340
0.015076 0.356628 0.617340
0.129639 0.356628 0.617340
0.240723 0.356628 0.617340
0.345398 0.356628 0.617340
0.441467 0.356628 0.617340
0.527893 0.356628 0.617340
0.606842 0.356628 0.617340
0.680847 0.356628 0.617340
0.015076 0.455017 0.617340
0.129639 0.455017 0.617340
0.240723 0.455017 0.617340
0.345398 0.455017 0.617340
0.441467 0.455017 0.617340
0.527893 0.455017 0.617340
0.606842 0.455017 0.617340
0.680847 0.455017 0.617340
0.015076 0.558533 0.617340
0.129639 0.558533 0.617340
0.240723 0.558533 0.617340
0.345398 0.558533 0.617340
0.441467 0.558533 0.617340
0.527893 0.558533 0.617340
0.606842 0.558533 0.617340
0.680847 0.558533 0.617340
0.015076 0.665863 0.617340
0.129639 0.665863 0.617340
0.240723 0.665863 0.617340
0.345398 0.665863 0.617340
0.441467 0.665863 0.617340
0.527893 0.665863 0.617340
0.606842 0.665863 0.617340
0.680847 0.665863 0.617340
0.015076 0.000000 0.720428
0.129639 0.000000 0.720428
0.240723 0.000000 0.720428
0.345398 0.000000 0.720428
0.441467 0.000000 0.720428
0.527893 0.000000 0.720428
0.606842 0.000000 0.720428
0.680847 0.000000 0.720428
0.015076 0.086182 0.720428
0.129639 0.086182 0.720428
0.240723 0.086182 0.720428
0.345398 0.086182 0.720428
0.441467 0.086182 0.720428
0.527893 0.086182 0.720428
0.606842 0.086182 0.720428
0.680847 0.086182 0.720428
0.015076 0.173492 0.720428
0.129639 0.173492 0.720428
0.240723 0.173492 0.720428
0.345398 0.173492 0.720428
0.441467 0.173492 0.720428
0.527893 0.173492 0.720428
0.606842 0.173492 0.720428
0.680847 0.173492 0.720428
0.015076 0.263184 0.720428
0.129639 0.263184 0.720428
0.240723 0.263184 0.720428
0.345398 0.263184 0.720428
0.441467 0.263184 0.720428
0.527893 0.263184 0.720428
0.606842 0.263184 0.720428
0.680847 0.263184 0.720428
0.015076 0.356628 0.720428
0.129639 0.356628 0.720428
0.240723 0.356628 0.720428
0.345398 0.356628 0.720428
0.441467 0.356628 0.720428
0.527893 0.356628 0.720428
0.606842 0.356628 0.720428
0.680847 0.356628 0.720428
0.015076 0.455017 0.720428
0.129639 0.455017 0.720428
0.240723 0.455017 0.720428
0.345398 0.455017 0.720428
0.441467 0.455017 0.720428
0.527893 0.455017 0.720428
0.606842 0.455017 0.720428
0.680847 0.455017 0.720428
0.015076 0.558533 0.720428
0.129639 0.558533 0.720428
0.240723 0.558533 0.720428
0.345398 0.558533 0.720428
0.441467 0.558533 0.720428
0.527893 0.558533 0.720428
0.606842 0.558533 0.720428
0.680847 0.558533 0.720428
0.015076 0.665863 0.720428
0.129639 0.665863 0.720428
0.240723 0.665863 0.720428
0.345398 0.665863 0.720428
0.441467 0.665863 0.720428
0.527893 0.665863 0.720428
0.606842 0.665863 0.720428
0.680847 0.665863 0.720428
