Avant Garde/Striped Purple - Arcade Dayz.cube
#Created by: Adobe Photoshop Export Color Lookup Plugin
#Copyright: (C) Copyright 2018 Striped Purple - Austin Barrett
TITLE "Arcade Dayz"
#LUT size
LUT_3D_SIZE 8
#data domain
#LUT data points
DOMAIN_MIN 0.000000 0.000000 0.000000
DOMAIN_MAX 0.903226 0.903226 0.903226
0.000000 0.000000 0.000000
0.039337 0.000000 0.000000
0.109772 0.000000 0.000000
0.207367 0.000000 0.000000
0.326294 0.000000 0.000000
0.474304 0.000000 0.000000
0.647919 0.000000 0.000000
0.852081 0.000000 0.000000
0.000000 0.150726 0.000000
0.039337 0.173950 0.000000
0.109772 0.190796 0.000000
0.225952 0.194794 0.000000
0.383301 0.191406 0.000000
0.547638 0.184326 0.000000
0.727722 0.174713 0.000000
0.895599 0.163452 0.000000
0.000000 0.325989 0.000000
0.048615 0.330475 0.000000
0.159821 0.327148 0.000000
0.316803 0.320099 0.000000
0.484955 0.310242 0.000000
0.644135 0.298889 0.000000
0.792511 0.286987 0.000000
0.920715 0.277191 0.000000
0.000000 0.442322 0.000000
0.097260 0.436371 0.000000
0.253540 0.428131 0.000000
0.428253 0.418518 0.000000
0.577759 0.408417 0.000000
0.716309 0.398895 0.000000
0.836548 0.390900 0.000000
0.934662 0.383972 0.000000
0.000000 0.533203 0.000000
0.173523 0.525299 0.000000
0.369476 0.517242 0.000000
0.521851 0.508850 0.000000
0.650421 0.501190 0.000000
0.758789 0.494995 0.000000
0.820190 0.491608 0.000000
0.914032 0.491608 0.000000
0.000000 0.629333 0.000000
0.282898 0.621429 0.000000
0.457733 0.613525 0.000000
0.576660 0.607513 0.000000
0.625275 0.603516 0.000000
0.698730 0.603516 0.000000
0.789764 0.603516 0.000000
0.903168 0.603516 0.000000
0.000000 0.740631 0.000000
0.342957 0.735809 0.000000
0.431183 0.731934 0.000000
0.502197 0.731934 0.000000
0.575500 0.731934 0.000000
0.667114 0.731934 0.000000
0.780090 0.740601 0.000000
0.904572 0.755219 0.000000
0.000000 0.878113 0.000000
0.263000 0.878113 0.000000
0.369476 0.878113 0.000000
0.461426 0.878113 0.000000
0.559326 0.882599 0.000000
0.670654 0.890442 0.000000
0.792725 0.896851 0.000000
0.914001 0.903900 0.000000
0.000000 0.000000 0.155273
0.039337 0.000000 0.174103
0.109772 0.000000 0.198517
0.207367 0.000000 0.223511
0.326294 0.000000 0.243683
0.484741 0.000000 0.253418
0.660553 0.000000 0.261688
0.860748 0.000000 0.269775
0.000000 0.159546 0.197723
0.039337 0.181335 0.222778
0.109772 0.193970 0.243195
0.239349 0.194061 0.253143
0.400543 0.189178 0.261414
0.565521 0.181030 0.269531
0.744812 0.170715 0.276672
0.900635 0.159241 0.280548
0.000000 0.329346 0.242645
0.055481 0.329773 0.252838
0.175415 0.324921 0.261169
0.337311 0.316742 0.269226
0.504669 0.306213 0.276489
0.658630 0.294464 0.280548
0.802124 0.282745 0.280548
0.924469 0.274384 0.280548
0.000000 0.440430 0.260895
0.108582 0.433594 0.268982
0.272247 0.424713 0.276276
0.447784 0.414825 0.280548
0.593414 0.404816 0.280548
0.727448 0.395752 0.280548
0.841827 0.388580 0.280548
0.933716 0.380951 0.246887
0.000000 0.530334 0.276062
0.196228 0.522339 0.280548
0.389893 0.514313 0.280548
0.535858 0.505829 0.280548
0.659393 0.498993 0.280548
0.757507 0.491608 0.250031
0.814056 0.491608 0.181610
0.911316 0.491608 0.153137
0.000000 0.626831 0.280548
0.298645 0.618286 0.280548
0.467896 0.611237 0.280548
0.576660 0.603516 0.253052
0.614990 0.603516 0.182617
0.690887 0.603516 0.153961
0.785767 0.603516 0.140015
0.902710 0.604889 0.136108
0.000000 0.738678 0.280548
0.342957 0.731934 0.255951
0.419250 0.731934 0.183777
0.492432 0.731934 0.154755
0.568909 0.731934 0.140320
0.665649 0.732788 0.136108
0.780304 0.746368 0.143066
0.906006 0.759827 0.172943
0.000000 0.878113 0.184753
0.251221 0.878113 0.155579
0.360748 0.878113 0.140594
0.459137 0.878387 0.136108
0.559418 0.885742 0.142700
0.674622 0.892670 0.171692
0.796600 0.899384 0.212830
0.915771 0.906464 0.250580
0.000000 0.000000 0.296051
0.039337 0.000000 0.318085
0.109772 0.000000 0.343719
0.207367 0.000000 0.367889
0.337250 0.000000 0.384674
0.496704 0.000000 0.392883
0.674622 0.000000 0.401245
0.869843 0.000000 0.409027
0.000000 0.168060 0.342896
0.039337 0.187378 0.367218
0.118805 0.194855 0.384399
0.254639 0.192688 0.392578
0.418884 0.186523 0.400940
0.584351 0.177460 0.408813
0.757629 0.166595 0.415497
0.905579 0.154968 0.417084
0.000000 0.330505 0.384155
0.063538 0.328461 0.392273
0.192139 0.322266 0.400635
0.358612 0.313080 0.408569
0.522552 0.302002 0.415314
0.672699 0.290100 0.417084
0.811310 0.279388 0.417084
0.927765 0.271820 0.417084
0.000000 0.438202 0.400421
0.120300 0.430511 0.408295
0.293549 0.421143 0.415100
0.466522 0.411133 0.417084
0.608368 0.401337 0.417084
0.737396 0.392853 0.417084
0.845825 0.386688 0.417084
0.924835 0.380951 0.340729
0.000000 0.527435 0.414917
0.218079 0.519348 0.417084
0.408478 0.511200 0.417084
0.548523 0.503021 0.417084
0.666382 0.497162 0.417084
0.732788 0.491608 0.345337
0.807922 0.491608 0.305695
0.908844 0.491608 0.279572
0.000000 0.623901 0.417084
0.312531 0.615417 0.417084
0.475830 0.609314 0.417084
0.546997 0.603516 0.349121
0.604980 0.603516 0.306671
0.683685 0.603516 0.280151
0.782654 0.603516 0.266968
0.902710 0.609894 0.266296
0.000000 0.737000 0.417084
0.315460 0.731934 0.352905
0.407135 0.731934 0.307800
0.483276 0.731934 0.280701
0.563721 0.731934 0.267212
0.665649 0.736969 0.265991
0.782196 0.752106 0.284576
0.907654 0.764771 0.323303
0.000000 0.878113 0.308777
0.240417 0.878113 0.281281
0.353760 0.878113 0.267517
0.459137 0.880646 0.265717
0.562286 0.888855 0.283325
0.679291 0.895050 0.321960
0.800598 0.901978 0.363739
0.917480 0.908997 0.397797
0.000000 0.000000 0.421936
0.039337 0.000000 0.442322
0.109772 0.000000 0.463989
0.207367 0.000000 0.482880
0.348694 0.000000 0.493256
0.510040 0.000000 0.500275
0.689484 0.000000 0.507294
0.879150 0.000000 0.513763
0.000000 0.176056 0.463348
0.039337 0.191833 0.482330
0.128662 0.194641 0.493011
0.271606 0.190857 0.500061
0.437958 0.183502 0.507050
0.604004 0.173615 0.513550
0.768311 0.162292 0.518494
0.910400 0.150787 0.518494
0.000000 0.330322 0.492767
0.072754 0.326599 0.499847
0.209717 0.319214 0.506836
0.379669 0.309143 0.513367
0.538971 0.297699 0.518494
0.686401 0.285797 0.518494
0.819763 0.276428 0.518494
0.930634 0.269562 0.518494
0.000000 0.435608 0.506622
0.132172 0.427246 0.513123
0.317200 0.417480 0.518494
0.484528 0.407410 0.518494
0.622345 0.398010 0.518494
0.746094 0.390228 0.518494
0.847137 0.382172 0.508972
0.920898 0.380951 0.439819
0.000000 0.524475 0.518433
0.238861 0.516418 0.518494
0.425354 0.507965 0.518494
0.559540 0.500549 0.518494
0.669037 0.493317 0.510773
0.718689 0.491608 0.440643
0.802032 0.491608 0.414917
0.906616 0.491608 0.394623
0.000000 0.620514 0.518494
0.324341 0.612854 0.518494
0.479218 0.605774 0.512451
0.527222 0.603516 0.441711
0.595367 0.603516 0.415680
0.677399 0.603516 0.395233
0.780579 0.603516 0.384735
0.902710 0.616028 0.391663
0.000000 0.734406 0.514282
0.291351 0.731934 0.442566
0.394989 0.731934 0.416443
0.475098 0.731934 0.395782
0.560272 0.731934 0.384857
0.665649 0.742096 0.391113
0.784760 0.756470 0.417175
0.909454 0.769897 0.452057
0.000000 0.878113 0.417358
0.230743 0.878113 0.396271
0.348938 0.878113 0.385010
0.459137 0.883423 0.390533
0.566223 0.890991 0.415955
0.684448 0.897552 0.450928
0.804596 0.904602 0.485016
0.919312 0.911652 0.510834
0.000000 0.000000 0.533661
0.039337 0.000000 0.551666
0.109772 0.000000 0.570374
0.209229 0.000000 0.585571
0.362122 0.000000 0.592682
0.524933 0.000000 0.599396
0.705200 0.000000 0.605957
0.888489 0.000000 0.611725
0.000000 0.183075 0.569702
0.039642 0.194427 0.585205
0.140625 0.193726 0.592438
0.290039 0.188507 0.599182
0.457916 0.180054 0.605774
0.624298 0.169586 0.611542
0.778717 0.158051 0.614227
0.914917 0.146973 0.614227
0.000000 0.329468 0.592224
0.082642 0.324249 0.598938
0.227905 0.315796 0.605499
0.400604 0.305084 0.611389
0.555420 0.293304 0.614227
0.699585 0.281616 0.614227
0.827484 0.273682 0.614227
0.932922 0.267639 0.614227
0.000000 0.432770 0.605316
0.144379 0.423737 0.611237
0.340057 0.413818 0.614227
0.501007 0.403870 0.614227
0.635162 0.394928 0.614227
0.753052 0.388031 0.614227
0.841034 0.380951 0.578491
0.917938 0.380951 0.534485
0.000000 0.521484 0.614227
0.258392 0.513580 0.614227
0.440460 0.505005 0.614227
0.568695 0.498444 0.614227
0.661102 0.491608 0.581116
0.710144 0.491608 0.535187
0.796509 0.491608 0.515503
0.904846 0.491608 0.499695
0.000000 0.617462 0.614227
0.333954 0.610626 0.614227
0.473053 0.603516 0.583740
0.516541 0.603516 0.536041
0.586304 0.603516 0.516083
0.672180 0.603516 0.500092
0.780090 0.606140 0.494934
0.903076 0.623352 0.509460
0.000000 0.731934 0.586304
0.279388 0.731934 0.536713
0.383575 0.731934 0.516602
0.468231 0.731934 0.500458
0.559326 0.733826 0.494843
0.666534 0.748108 0.508575
0.787842 0.761200 0.534027
0.911346 0.775177 0.564575
0.000000 0.878113 0.517273
0.222534 0.878113 0.500854
0.347229 0.878937 0.494812
0.460022 0.886688 0.507812
0.571228 0.893311 0.533142
0.689880 0.900085 0.563599
0.808380 0.907166 0.592285
0.921417 0.914581 0.615936
0.000000 0.000000 0.648926
0.039337 0.000000 0.665070
0.109772 0.000000 0.680481
0.221741 0.000000 0.690735
0.377380 0.000000 0.696350
0.541138 0.000000 0.702057
0.721619 0.000000 0.707458
0.893646 0.000000 0.712006
0.000000 0.188690 0.679932
0.046417 0.194855 0.690552
0.154510 0.192230 0.696167
0.309540 0.185730 0.701874
0.477753 0.176422 0.707306
0.638916 0.165436 0.711884
0.788910 0.153809 0.712585
0.919189 0.144989 0.712585
0.000000 0.328003 0.695984
0.093292 0.321472 0.701691
0.246460 0.312042 0.707092
0.420990 0.300812 0.711731
0.571960 0.288910 0.712585
0.712006 0.278564 0.712585
0.834320 0.271179 0.712585
0.934601 0.266083 0.712585
0.000000 0.429626 0.706970
0.165131 0.420135 0.711609
0.361847 0.410126 0.712585
0.516479 0.400391 0.712585
0.646515 0.392090 0.712585
0.758209 0.386261 0.712585
0.822510 0.380951 0.656708
0.915070 0.380951 0.637421
0.000000 0.518524 0.712585
0.276764 0.510254 0.712585
0.453522 0.502319 0.712585
0.575500 0.496735 0.712585
0.628906 0.491608 0.657379
0.701721 0.491608 0.638000
0.791473 0.491608 0.621277
0.903503 0.491608 0.608368
0.000000 0.614655 0.712585
0.341156 0.608856 0.712585
0.437073 0.603516 0.659088
0.505920 0.603516 0.638550
0.578186 0.603516 0.621826
0.668213 0.603516 0.608582
0.780090 0.611511 0.609772
0.904114 0.629639 0.629944
0.000000 0.731934 0.661499
0.267303 0.731934 0.639252
0.373016 0.731934 0.622437
0.462921 0.731934 0.608856
0.559326 0.738312 0.609436
0.669312 0.753204 0.629150
0.791382 0.766144 0.653259
0.913269 0.780609 0.679871
0.000000 0.878113 0.623047
0.216217 0.878113 0.609100
0.347229 0.881378 0.609070
0.463623 0.889465 0.628510
0.576813 0.895752 0.652435
0.695374 0.902679 0.678925
0.811920 0.909698 0.701111
0.923645 0.917664 0.721893
0.000000 0.000000 0.772125
0.039337 0.000000 0.783997
0.109772 0.000000 0.794342
0.234070 0.000000 0.799774
0.394165 0.000000 0.803925
0.558899 0.000000 0.808014
0.738556 0.000000 0.811707
0.898834 0.000000 0.814117
0.000000 0.192780 0.794037
0.052856 0.194489 0.799652
0.169647 0.190247 0.803802
0.329834 0.182617 0.807861
0.497559 0.172516 0.811615
0.653229 0.161224 0.814117
0.798737 0.149658 0.814117
0.923096 0.143097 0.814117
0.000000 0.326050 0.803619
0.104462 0.318298 0.807770
0.265472 0.308044 0.811493
0.440796 0.296509 0.814117
0.587830 0.284637 0.814117
0.723541 0.275665 0.814117
0.840057 0.268982 0.814117
0.934662 0.261475 0.803436
0.000000 0.426300 0.811371
0.188080 0.416504 0.814117
0.382477 0.406494 0.814117
0.530945 0.397125 0.814117
0.656219 0.389618 0.814117
0.758789 0.380951 0.804749
0.816284 0.380951 0.768127
0.912262 0.380951 0.754852
0.000000 0.515656 0.814117
0.293152 0.507111 0.814117
0.464508 0.499969 0.814117
0.576660 0.491638 0.806000
0.618835 0.491608 0.768677
0.693665 0.491608 0.755219
0.787170 0.491608 0.741943
0.902710 0.491608 0.734741
0.000000 0.612183 0.814117
0.342957 0.604034 0.807220
0.423615 0.603516 0.769135
0.495911 0.603516 0.755615
0.571136 0.603516 0.742310
0.665833 0.603516 0.734772
0.780090 0.617950 0.742310
0.905457 0.635712 0.759888
0.000000 0.731934 0.769592
0.255554 0.731934 0.756073
0.363739 0.731934 0.742706
0.459564 0.731934 0.734863
0.559326 0.743713 0.741791
0.673096 0.757751 0.759338
0.795197 0.771332 0.778198
0.915161 0.785980 0.796906
0.000000 0.878113 0.743103
0.212097 0.878113 0.734955
0.347229 0.884308 0.741302
0.468353 0.891602 0.758667
0.582916 0.898254 0.777588
0.700775 0.905273 0.796295
0.815918 0.912415 0.811157
0.925995 0.920868 0.826477
0.000000 0.000000 0.900970
0.039337 0.000000 0.906555
0.115173 0.000000 0.910950
0.248901 0.000000 0.912903
0.412109 0.000000 0.914886
0.577423 0.000000 0.916779
0.753815 0.000000 0.918457
0.903839 0.000000 0.919037
0.000000 0.194763 0.910828
0.060516 0.193390 0.912842
0.185974 0.187775 0.914825
0.350647 0.179138 0.916718
0.516632 0.168457 0.918427
0.667389 0.156952 0.919037
0.808044 0.146423 0.919037
0.926605 0.141388 0.919037
0.000000 0.323517 0.914764
0.116028 0.314789 0.916687
0.284821 0.303925 0.918365
0.459839 0.292145 0.919037
0.603027 0.280792 0.919037
0.733917 0.272980 0.919037
0.844543 0.267181 0.919037
0.928650 0.261475 0.904999
0.000000 0.422821 0.918304
0.210297 0.412781 0.919037
0.401611 0.402924 0.919037
0.544128 0.394104 0.919037
0.664062 0.387482 0.919037
0.743256 0.380951 0.905823
0.810120 0.380951 0.894409
0.909698 0.380951 0.888428
0.000000 0.512756 0.919037
0.307709 0.504242 0.919037
0.473175 0.497955 0.919037
0.559814 0.491608 0.906677
0.608582 0.491608 0.894592
0.686188 0.491608 0.888580
0.783661 0.491608 0.881439
0.902710 0.496002 0.880005
0.000000 0.610138 0.919037
0.328491 0.603516 0.907471
0.411530 0.603516 0.894836
0.486511 0.603516 0.888763
0.565491 0.603516 0.881653
0.665649 0.607513 0.879883
0.781403 0.625366 0.887756
0.907043 0.642242 0.896149
0.000000 0.731934 0.895081
0.244415 0.731934 0.888977
0.356049 0.731934 0.881775
0.459137 0.734985 0.879791
0.561096 0.749908 0.887390
0.677551 0.762543 0.895844
0.799164 0.776642 0.905243
0.916870 0.791260 0.913513
0.000000 0.878113 0.881958
0.211334 0.879547 0.879730
0.349304 0.887665 0.887024
0.474060 0.893921 0.895508
0.589325 0.900818 0.904938
0.705963 0.907867 0.913300
0.820374 0.915405 0.920258
0.928467 0.924133 0.927643
