Avant Garde/Striped Purple - Woelfelly Neon.cube
#Created by: Adobe Photoshop Export Color Lookup Plugin
#Copyright: (C) Copyright 2018 Striped Purple - Austin Barrett
TITLE "Woelfelly Neon"
#LUT size
LUT_3D_SIZE 8
#data domain
#LUT data points
DOMAIN_MIN 0.000000 0.000000 0.000000
DOMAIN_MAX 0.903226 0.903226 0.903226
0.000000 0.000000 0.000000
0.050262 0.000000 0.000000
0.167755 0.000000 0.000000
0.316895 0.000000 0.000000
0.457367 0.000000 0.000000
0.578674 0.000000 0.000000
0.730164 0.000000 0.000000
0.891327 0.000000 0.000000
0.000000 0.022797 0.000000
0.061951 0.022339 0.000000
0.195343 0.020630 0.000000
0.347900 0.018097 0.000000
0.481476 0.014984 0.000000
0.603027 0.011322 0.000000
0.751312 0.007385 0.000000
0.901550 0.003357 0.000000
0.000000 0.088531 0.000000
0.068329 0.088531 0.000000
0.212738 0.082336 0.000000
0.371552 0.072083 0.000000
0.500305 0.059692 0.000000
0.624664 0.045807 0.000000
0.769653 0.031128 0.000000
0.910187 0.016479 0.000000
0.000000 0.189728 0.000000
0.089813 0.189728 0.000000
0.220490 0.186401 0.000000
0.388550 0.163971 0.000000
0.515686 0.137634 0.000000
0.643829 0.108795 0.000000
0.785767 0.079041 0.000000
0.917786 0.050323 0.000000
0.000000 0.313721 0.000000
0.113098 0.313721 0.000000
0.247192 0.313721 0.000000
0.399933 0.294769 0.000000
0.528748 0.253662 0.000000
0.660736 0.209198 0.000000
0.795807 0.165619 0.000000
0.919159 0.123932 0.000000
0.000000 0.442749 0.000000
0.137238 0.442749 0.000000
0.282776 0.442749 0.000000
0.415344 0.442749 0.000000
0.537018 0.410126 0.000000
0.665222 0.365845 0.000000
0.796875 0.321106 0.000000
0.919006 0.277252 0.000000
0.000000 0.569153 0.000000
0.161530 0.569153 0.000000
0.320679 0.569153 0.000000
0.447876 0.569153 0.000000
0.543732 0.569153 0.000000
0.665863 0.550385 0.000000
0.796417 0.528595 0.000000
0.918213 0.510254 0.000000
0.000000 0.771637 0.000000
0.203979 0.771637 0.000000
0.362091 0.771637 0.000000
0.476898 0.771637 0.000000
0.569458 0.771637 0.000000
0.676636 0.771637 0.000000
0.794647 0.769196 0.000000
0.916992 0.756592 0.000000
0.000000 0.104889 0.202087
0.048981 0.080475 0.205292
0.166016 0.012573 0.205566
0.317841 0.000000 0.201019
0.458801 0.000000 0.191742
0.580292 0.000000 0.178009
0.731506 0.000000 0.159790
0.891846 0.000000 0.140381
0.000000 0.125977 0.200684
0.061340 0.096069 0.208405
0.196136 0.020508 0.209290
0.350494 0.017975 0.203796
0.483734 0.014832 0.193542
0.605560 0.011200 0.182159
0.753235 0.007263 0.170410
0.902252 0.003265 0.153503
0.000000 0.175415 0.174286
0.067505 0.146698 0.191162
0.217346 0.081879 0.194824
0.376434 0.071503 0.191528
0.503754 0.059021 0.189056
0.628662 0.045166 0.180450
0.772614 0.030609 0.166382
0.911499 0.016235 0.161774
0.000000 0.255737 0.141937
0.088409 0.223236 0.160492
0.229584 0.185364 0.180634
0.396332 0.162628 0.178192
0.521210 0.136139 0.172455
0.649689 0.107361 0.168396
0.790253 0.077942 0.166016
0.919403 0.049835 0.166351
0.000000 0.369263 0.159637
0.109894 0.340607 0.186798
0.253937 0.313721 0.214264
0.408264 0.292664 0.214233
0.535339 0.251282 0.201782
0.667175 0.207092 0.189880
0.799255 0.164490 0.181274
0.920593 0.123444 0.175323
0.000000 0.482208 0.180328
0.131744 0.460693 0.213379
0.289307 0.442749 0.243683
0.421661 0.442749 0.258453
0.542725 0.408051 0.252502
0.670319 0.364136 0.243805
0.800415 0.319885 0.237457
0.920502 0.276703 0.233337
0.000000 0.604889 0.199829
0.153931 0.583557 0.239471
0.328674 0.569153 0.272339
0.453552 0.569153 0.286407
0.548492 0.569153 0.299866
0.671082 0.549469 0.297180
0.799957 0.528046 0.292206
0.919800 0.510040 0.289093
0.000000 0.797577 0.217468
0.199188 0.779480 0.269043
0.369293 0.771637 0.299438
0.481873 0.771637 0.312439
0.574249 0.771637 0.324646
0.681030 0.771637 0.336243
0.798157 0.768799 0.343964
0.918457 0.756470 0.341187
0.000000 0.210419 0.366913
0.048401 0.189270 0.372528
0.159393 0.129486 0.376526
0.315002 0.027679 0.379211
0.460205 0.000000 0.373383
0.581909 0.000000 0.363525
0.733032 0.000000 0.352417
0.892395 0.000000 0.344879
0.000000 0.232635 0.371521
0.059509 0.206818 0.382721
0.187256 0.138153 0.387817
0.350372 0.028961 0.391785
0.485565 0.014648 0.386414
0.607727 0.011047 0.382141
0.755127 0.007141 0.378510
0.903137 0.003235 0.376038
0.000000 0.277069 0.356812
0.062103 0.253265 0.380280
0.206512 0.179504 0.389099
0.378723 0.070862 0.396637
0.505951 0.058350 0.396057
0.631470 0.044495 0.395050
0.775024 0.030090 0.394318
0.912567 0.015991 0.395172
0.000000 0.339905 0.319611
0.079956 0.314514 0.353668
0.216644 0.261566 0.387573
0.399078 0.161224 0.396423
0.523987 0.134644 0.397491
0.653107 0.105896 0.398315
0.793121 0.076782 0.400208
0.919586 0.049530 0.404144
0.000000 0.418732 0.260864
0.098328 0.394501 0.307312
0.238312 0.359070 0.361237
0.414368 0.292419 0.388031
0.540253 0.251373 0.390472
0.670135 0.208679 0.393555
0.800903 0.167297 0.398376
0.921112 0.127563 0.404327
0.000000 0.511414 0.260773
0.116730 0.491180 0.304138
0.272186 0.464905 0.354767
0.427826 0.442749 0.396057
0.548431 0.406036 0.395203
0.675415 0.362427 0.393616
0.803955 0.318665 0.393707
0.921997 0.276428 0.395721
0.000000 0.632721 0.271912
0.139313 0.608978 0.330444
0.315521 0.583618 0.386200
0.459137 0.569153 0.420715
0.553345 0.569153 0.432465
0.676208 0.548523 0.433533
0.803589 0.527496 0.433960
0.921326 0.509796 0.435425
0.000000 0.815002 0.298401
0.178131 0.795868 0.364227
0.361237 0.779358 0.415527
0.486694 0.771637 0.443146
0.579010 0.771637 0.453461
0.685455 0.771637 0.463135
0.801636 0.768433 0.470032
0.919952 0.756287 0.471008
0.000000 0.312317 0.488922
0.046906 0.293732 0.493958
0.150848 0.241364 0.498138
0.297089 0.151947 0.501709
0.459137 0.021332 0.504822
0.583588 0.000000 0.502228
0.734589 0.000000 0.498444
0.893097 0.000000 0.494995
0.000000 0.333008 0.493591
0.056610 0.310272 0.503815
0.176117 0.250397 0.509064
0.329803 0.154785 0.513794
0.486694 0.020935 0.518158
0.610107 0.010864 0.516327
0.757355 0.007019 0.514282
0.904083 0.003143 0.512909
0.000000 0.369812 0.484894
0.055420 0.349640 0.506775
0.191711 0.284576 0.514557
0.358643 0.184082 0.520203
0.508362 0.057678 0.525177
0.634644 0.043854 0.524475
0.777710 0.029602 0.524200
0.913879 0.015717 0.524963
0.000000 0.419159 0.462921
0.070465 0.396301 0.490845
0.198364 0.346954 0.514435
0.384277 0.245087 0.520874
0.527100 0.133087 0.526031
0.657043 0.104431 0.526794
0.796326 0.075653 0.528198
0.919952 0.049194 0.531250
0.000000 0.476746 0.426514
0.086121 0.454712 0.462677
0.214233 0.422821 0.499390
0.403778 0.346100 0.516266
0.544037 0.253235 0.521637
0.672363 0.211517 0.524078
0.802307 0.170807 0.527435
0.921692 0.131836 0.531799
0.000000 0.543365 0.374542
0.101898 0.521545 0.420959
0.245239 0.496979 0.465485
0.420380 0.469208 0.505066
0.552246 0.416443 0.513306
0.678497 0.376617 0.516968
0.805756 0.337036 0.521515
0.922638 0.298950 0.526672
0.000000 0.659180 0.382843
0.124939 0.632599 0.426270
0.292847 0.605560 0.465576
0.454376 0.581055 0.498199
0.558136 0.569153 0.518066
0.681335 0.547638 0.519897
0.807068 0.526947 0.521667
0.922791 0.509583 0.524109
0.000000 0.830383 0.406525
0.158905 0.809937 0.453461
0.341949 0.792969 0.488800
0.484436 0.777893 0.518097
0.583771 0.771637 0.535889
0.689789 0.771637 0.544800
0.805115 0.768066 0.551544
0.921417 0.756165 0.553680
0.000000 0.406219 0.594513
0.044525 0.389618 0.600739
0.140381 0.344299 0.606384
0.276276 0.266541 0.611481
0.443451 0.151855 0.616302
0.585358 0.000000 0.620941
0.736267 0.000000 0.617249
0.893860 0.000000 0.613037
0.000000 0.423157 0.601624
0.052551 0.402924 0.613892
0.162842 0.351135 0.620819
0.306396 0.267944 0.627350
0.474152 0.148956 0.632416
0.612671 0.010712 0.635498
0.759644 0.006897 0.632660
0.905212 0.003113 0.630646
0.000000 0.450745 0.595581
0.047363 0.433228 0.620789
0.175110 0.375519 0.628662
0.338165 0.285767 0.633881
0.499268 0.163696 0.638794
0.638000 0.043152 0.642426
0.780640 0.029053 0.641388
0.915283 0.015442 0.641693
0.000000 0.485626 0.577454
0.059998 0.464783 0.604095
0.178650 0.419281 0.627319
0.367645 0.327911 0.633362
0.520905 0.207031 0.639160
0.661133 0.102997 0.643188
0.798309 0.074799 0.644165
0.920410 0.048859 0.646729
0.000000 0.526886 0.547760
0.073212 0.504456 0.576752
0.189087 0.475739 0.611908
0.390594 0.404633 0.627625
0.539948 0.297882 0.634338
0.674774 0.214081 0.639221
0.803864 0.173981 0.642181
0.922302 0.135681 0.646179
0.000000 0.588928 0.513702
0.086609 0.562653 0.543701
0.218689 0.533234 0.578827
0.408112 0.504547 0.616852
0.549561 0.445007 0.625275
0.681244 0.393097 0.630951
0.807556 0.355103 0.635223
0.923431 0.318481 0.640289
0.000000 0.685303 0.479279
0.109711 0.656036 0.509857
0.272858 0.628265 0.543396
0.444000 0.603363 0.577454
0.557312 0.581360 0.611115
0.685394 0.551697 0.618835
0.809631 0.532013 0.623993
0.923798 0.515533 0.629517
0.000000 0.844849 0.496887
0.139648 0.822968 0.529816
0.325378 0.805420 0.559967
0.475922 0.789948 0.588867
0.583984 0.776215 0.616180
0.694031 0.771637 0.631348
0.808411 0.767731 0.638367
0.922791 0.756012 0.641235
0.000000 0.487762 0.716248
0.041199 0.473053 0.722321
0.127808 0.434601 0.727814
0.252441 0.368103 0.732727
0.427246 0.268494 0.737518
0.573456 0.132446 0.742249
0.738098 0.000000 0.742554
0.894775 0.000000 0.737823
0.000000 0.499603 0.723572
0.047424 0.481720 0.735046
0.147614 0.437592 0.741669
0.280304 0.365997 0.747803
0.461731 0.260254 0.750793
0.604004 0.120575 0.753143
0.762146 0.006744 0.753845
0.906403 0.003021 0.751099
0.000000 0.518799 0.718994
0.038177 0.502258 0.742859
0.156921 0.451355 0.747528
0.318298 0.372467 0.751129
0.490173 0.263184 0.754486
0.632721 0.124786 0.757843
0.783813 0.028503 0.759186
0.916809 0.015198 0.758453
0.000000 0.545654 0.701752
0.048523 0.521881 0.725739
0.157501 0.479218 0.744537
0.352051 0.398285 0.748779
0.513397 0.289032 0.752899
0.659241 0.154785 0.757263
0.799744 0.074127 0.759521
0.920959 0.048584 0.760834
0.000000 0.582581 0.672607
0.059540 0.554016 0.699524
0.162689 0.520691 0.730560
0.378448 0.454010 0.742188
0.532379 0.358063 0.747131
0.672699 0.247925 0.752533
0.805603 0.176819 0.755951
0.922974 0.139191 0.758575
0.000000 0.637939 0.638550
0.070831 0.606598 0.667542
0.195740 0.571625 0.699982
0.398102 0.537720 0.732178
0.543396 0.478790 0.738037
0.680695 0.417725 0.744263
0.809540 0.371155 0.748505
0.924194 0.335785 0.752228
0.000000 0.722382 0.602417
0.093445 0.689514 0.634521
0.256439 0.659149 0.666443
0.435669 0.632050 0.696991
0.551636 0.608185 0.725891
0.685883 0.565491 0.732941
0.811676 0.540283 0.737793
0.924683 0.523438 0.742157
0.000000 0.858612 0.589539
0.119995 0.835175 0.622070
0.311035 0.816986 0.650238
0.468719 0.801117 0.676086
0.578186 0.786987 0.699921
0.695740 0.774597 0.721466
0.811584 0.767395 0.730835
0.924133 0.755859 0.733795
0.000000 0.567657 0.838104
0.036804 0.548615 0.842285
0.113220 0.509766 0.845947
0.225647 0.454193 0.849182
0.410889 0.369049 0.852325
0.562653 0.248932 0.854614
0.732391 0.090973 0.854858
0.895844 0.000000 0.853027
0.000000 0.578430 0.843018
0.041107 0.553894 0.850952
0.130371 0.508331 0.855377
0.251984 0.447174 0.858673
0.449799 0.354980 0.859589
0.594666 0.230957 0.860382
0.759094 0.077606 0.861389
0.907745 0.002930 0.860413
0.000000 0.595093 0.839020
0.029663 0.570465 0.855377
0.137207 0.513062 0.857391
0.299133 0.444824 0.858978
0.481598 0.348297 0.860474
0.625275 0.223572 0.861908
0.783264 0.076385 0.863678
0.918365 0.014923 0.863586
0.000000 0.616028 0.824280
0.036163 0.584625 0.841431
0.134888 0.531097 0.853455
0.337433 0.457275 0.855591
0.506927 0.359314 0.857635
0.653748 0.236816 0.859863
0.798737 0.105164 0.862549
0.921570 0.048248 0.863464
0.000000 0.645050 0.801086
0.045074 0.609467 0.820740
0.135010 0.568787 0.842773
0.367523 0.495300 0.849274
0.525940 0.409546 0.852051
0.666321 0.308899 0.855164
0.805450 0.199036 0.858490
0.923737 0.142456 0.860321
0.000000 0.689880 0.773956
0.054565 0.652954 0.795776
0.175934 0.611938 0.819489
0.389923 0.571503 0.840820
0.538300 0.507538 0.844360
0.675812 0.451538 0.848175
0.810150 0.391541 0.852051
0.925018 0.351318 0.854584
0.000000 0.760315 0.744873
0.076202 0.722900 0.770142
0.241852 0.689697 0.793762
0.428497 0.660309 0.815582
0.547516 0.633606 0.834991
0.682312 0.587952 0.839355
0.812836 0.550781 0.843628
0.925568 0.530853 0.846619
0.000000 0.872681 0.715271
0.099945 0.847961 0.743073
0.298767 0.829376 0.766235
0.462860 0.813324 0.786926
0.573761 0.799103 0.805634
0.692139 0.786621 0.822174
0.813416 0.771667 0.833282
0.925140 0.759125 0.836273
0.000000 0.671936 0.942596
0.031311 0.643921 0.944061
0.096527 0.591217 0.945312
0.196167 0.525330 0.946320
0.394867 0.452148 0.947266
0.552826 0.347809 0.947388
0.723999 0.208466 0.947021
0.895325 0.038879 0.946808
0.000000 0.678101 0.944031
0.033783 0.642883 0.947235
0.111389 0.582153 0.948700
0.228027 0.512390 0.949280
0.438446 0.433838 0.949158
0.586517 0.325317 0.949066
0.752625 0.188202 0.949036
0.908142 0.030579 0.949219
0.000000 0.686584 0.941223
0.020386 0.651001 0.947784
0.115845 0.578369 0.948212
0.281097 0.503540 0.948425
0.473694 0.419861 0.948578
0.618927 0.308624 0.948792
0.778717 0.175110 0.949188
0.918243 0.032135 0.949768
0.000000 0.696533 0.932831
0.022827 0.656403 0.940613
0.110931 0.588989 0.945435
0.323944 0.505890 0.945892
0.501648 0.418915 0.946381
0.646912 0.309631 0.946960
0.793365 0.188904 0.947784
0.921753 0.060883 0.948792
0.000000 0.713531 0.920959
0.029846 0.670044 0.930054
0.106171 0.621460 0.940033
0.357635 0.533356 0.942139
0.520569 0.453247 0.943054
0.660980 0.361572 0.944061
0.801422 0.259827 0.945282
0.924194 0.153351 0.946533
0.000000 0.744263 0.907196
0.039032 0.700317 0.917633
0.158813 0.653717 0.928467
0.382996 0.606232 0.937500
0.534119 0.535767 0.938812
0.671814 0.480499 0.940216
0.807129 0.424957 0.941711
0.925690 0.367676 0.943268
0.000000 0.798340 0.892303
0.058014 0.756042 0.904724
0.229034 0.719879 0.915741
0.422485 0.688110 0.925659
0.544525 0.658051 0.933960
0.679443 0.609894 0.935699
0.810669 0.570587 0.937439
0.926300 0.538757 0.939148
0.000000 0.890930 0.877045
0.079376 0.864258 0.891083
0.289062 0.844635 0.902161
0.458374 0.827820 0.911804
0.570587 0.812988 0.920258
0.689667 0.800018 0.927673
0.811768 0.784210 0.932373
0.925873 0.764282 0.934143
