Avant Garde/Striped Purple - Woelfelly Neon.cube
#Created by: Adobe Photoshop Export Color Lookup Plugin
#Copyright: (C) Copyright 2018 Striped Purple - Austin Barrett
TITLE "Woelfelly Neon"
#LUT size
LUT_3D_SIZE 5
#data domain
#LUT data points
DOMAIN_MIN 0.000000 0.000000 0.000000
DOMAIN_MAX 0.903226 0.903226 0.903226
0.000000 0.000000 0.000000
0.133789 0.000000 0.000000
0.390442 0.000000 0.000000
0.613953 0.000000 0.000000
0.891327 0.000000 0.000000
0.000000 0.068420 0.000000
0.169647 0.064636 0.000000
0.436249 0.050568 0.000000
0.654877 0.032013 0.000000
0.908142 0.011871 0.000000
0.000000 0.249817 0.000000
0.196045 0.249817 0.000000
0.464539 0.208191 0.000000
0.687714 0.144318 0.000000
0.918945 0.080933 0.000000
0.000000 0.473267 0.000000
0.255341 0.473267 0.000000
0.479156 0.471619 0.000000
0.698730 0.408783 0.000000
0.918854 0.345886 0.000000
0.000000 0.771637 0.000000
0.326996 0.771637 0.000000
0.521576 0.771637 0.000000
0.705048 0.771637 0.000000
0.916992 0.756592 0.000000
0.000000 0.184235 0.329590
0.127838 0.119843 0.337708
0.392853 0.000000 0.335571
0.616852 0.000000 0.314148
0.892303 0.000000 0.293701
0.000000 0.238831 0.322845
0.165344 0.160217 0.347870
0.441620 0.049713 0.350800
0.660248 0.031158 0.347351
0.910004 0.011505 0.345551
0.000000 0.358765 0.248444
0.189423 0.304474 0.325165
0.474243 0.204865 0.348999
0.697266 0.141144 0.352234
0.920380 0.080170 0.360443
0.000000 0.529663 0.249542
0.244537 0.491821 0.329620
0.489838 0.468567 0.378113
0.707092 0.406494 0.373718
0.921539 0.345093 0.374420
0.000000 0.810944 0.270752
0.322723 0.779633 0.382721
0.529755 0.771637 0.422821
0.712433 0.771637 0.441071
0.919586 0.756317 0.446564
0.000000 0.360504 0.538910
0.116333 0.309479 0.548401
0.368347 0.154510 0.556152
0.619965 0.000000 0.558502
0.893463 0.000000 0.551941
0.000000 0.402740 0.540710
0.145264 0.340698 0.567230
0.427979 0.168793 0.577209
0.665527 0.030273 0.580597
0.912170 0.011169 0.579956
0.000000 0.477295 0.506317
0.154541 0.431519 0.558411
0.469116 0.268127 0.577209
0.702576 0.138428 0.583344
0.921143 0.079468 0.589111
0.000000 0.586670 0.441833
0.202148 0.541351 0.504456
0.491394 0.489471 0.562256
0.713135 0.421173 0.571625
0.923187 0.366791 0.580688
0.000000 0.837708 0.454163
0.284241 0.803406 0.514923
0.532227 0.777039 0.565613
0.719635 0.771637 0.589325
0.922089 0.756104 0.596649
0.000000 0.505920 0.747437
0.099487 0.466400 0.757080
0.329041 0.347565 0.765198
0.610809 0.123749 0.772186
0.895081 0.000000 0.768036
0.000000 0.530884 0.752045
0.119629 0.478851 0.775635
0.402069 0.340698 0.780701
0.663116 0.110687 0.785339
0.914642 0.010773 0.785187
0.000000 0.578186 0.719849
0.115814 0.524811 0.764984
0.453156 0.385742 0.775726
0.701965 0.174774 0.783234
0.922241 0.078766 0.787048
0.000000 0.667786 0.663269
0.160187 0.607269 0.714966
0.480438 0.540771 0.760040
0.715240 0.450439 0.770142
0.924591 0.392303 0.776733
0.000000 0.861938 0.617249
0.253876 0.824036 0.669464
0.521454 0.796478 0.712067
0.724487 0.774200 0.748047
0.924469 0.755829 0.757507
0.000000 0.671936 0.942596
0.076965 0.606171 0.945038
0.288818 0.491425 0.946808
0.593018 0.316162 0.947266
0.895325 0.038879 0.946808
0.000000 0.684174 0.942230
0.089813 0.596802 0.948578
0.378326 0.467316 0.948822
0.651093 0.280060 0.949066
0.916809 0.029266 0.949768
0.000000 0.703796 0.927246
0.073151 0.625061 0.942749
0.440155 0.473663 0.944489
0.691010 0.297150 0.945923
0.923096 0.088776 0.947784
0.000000 0.755157 0.903564
0.114838 0.676910 0.922791
0.472321 0.593811 0.936951
0.708496 0.496460 0.939545
0.925934 0.415222 0.942352
0.000000 0.890930 0.877045
0.231415 0.849182 0.899536
0.514801 0.820190 0.916168
0.719818 0.797028 0.929382
0.925873 0.764282 0.934143
