Avant Garde/Striped Purple - Sugar Plums.cube
#Created by: Adobe Photoshop Export Color Lookup Plugin
#Copyright: (C) Copyright 2019 Sugar Plums by Striped Purple © Austin Barrett All Rights Reserved.
TITLE "Sugar Plums"
#LUT size
LUT_3D_SIZE 8
#data domain
#LUT data points
DOMAIN_MIN 0.000000 0.000000 0.000000
DOMAIN_MAX 0.903226 0.903226 0.903226
0.000000 0.000000 0.000000
0.083374 0.000000 0.000000
0.182098 0.000000 0.000000
0.295288 0.000000 0.000000
0.421143 0.000000 0.000000
0.557678 0.000000 0.000000
0.716949 0.000000 0.000000
0.885651 0.000000 0.000000
0.000000 0.090393 0.000000
0.085510 0.094696 0.000000
0.185181 0.095215 0.000000
0.296509 0.088989 0.000000
0.433685 0.084167 0.000000
0.598083 0.082764 0.000000
0.767487 0.082764 0.000000
0.909149 0.082764 0.000000
0.000000 0.200562 0.000000
0.086151 0.190338 0.000000
0.194305 0.181763 0.000000
0.336884 0.179230 0.000000
0.505188 0.179230 0.000000
0.664093 0.179230 0.000000
0.799103 0.179230 0.000000
0.916962 0.189758 0.000000
0.000000 0.292755 0.000000
0.104736 0.289398 0.000000
0.248627 0.289398 0.000000
0.414062 0.289398 0.000000
0.563354 0.289398 0.000000
0.690979 0.301697 0.000000
0.809631 0.325104 0.000000
0.920685 0.321564 0.000000
0.000000 0.413300 0.000000
0.153412 0.413300 0.000000
0.315735 0.413300 0.000000
0.454834 0.425629 0.000000
0.583710 0.450012 0.000000
0.703552 0.447479 0.000000
0.815887 0.438477 0.000000
0.922516 0.430542 0.000000
0.000000 0.550903 0.000000
0.192566 0.561615 0.000000
0.341156 0.583588 0.000000
0.473694 0.582489 0.000000
0.595795 0.574280 0.000000
0.709747 0.566895 0.000000
0.817719 0.574890 0.000000
0.921936 0.586884 0.000000
0.000000 0.726562 0.000000
0.210480 0.726532 0.000000
0.356293 0.720245 0.000000
0.483032 0.714600 0.000000
0.599457 0.720184 0.000000
0.707977 0.729401 0.000000
0.811554 0.738098 0.000000
0.917145 0.744934 0.000000
0.000000 0.876343 0.000000
0.219421 0.873535 0.000000
0.360962 0.876068 0.000000
0.480743 0.880676 0.000000
0.587982 0.885040 0.000000
0.692169 0.888489 0.000000
0.800171 0.891327 0.000000
0.914917 0.894897 0.000000
0.000000 0.000000 0.083923
0.083740 0.000000 0.090851
0.182800 0.000000 0.099945
0.295990 0.000000 0.108734
0.421356 0.000000 0.114624
0.558563 0.000000 0.115051
0.722778 0.000000 0.115509
0.890900 0.000000 0.127777
0.000000 0.092224 0.099670
0.085846 0.095520 0.108490
0.185364 0.093811 0.114502
0.296753 0.085571 0.115051
0.441681 0.083191 0.115143
0.611694 0.082764 0.127380
0.776672 0.082764 0.149750
0.911713 0.082764 0.171051
0.000000 0.198334 0.114349
0.085938 0.184143 0.115051
0.200378 0.180115 0.115051
0.350861 0.179230 0.126892
0.519775 0.179230 0.149017
0.672882 0.179230 0.170471
0.801453 0.181091 0.176392
0.917816 0.196045 0.166656
0.000000 0.290680 0.115051
0.111267 0.289398 0.126526
0.261230 0.289398 0.148285
0.426971 0.289398 0.169739
0.567932 0.291321 0.176544
0.693787 0.309387 0.167175
0.811127 0.327026 0.147675
0.921173 0.318420 0.121277
0.000000 0.413300 0.147552
0.165619 0.413300 0.169128
0.321594 0.414917 0.176666
0.459045 0.433624 0.167603
0.586578 0.453186 0.148712
0.705200 0.444153 0.121826
0.816589 0.435394 0.104156
0.922607 0.429749 0.089417
0.000000 0.551910 0.176849
0.196533 0.568848 0.168030
0.344727 0.587769 0.149902
0.476166 0.579437 0.122375
0.597168 0.571381 0.104675
0.710175 0.565491 0.089508
0.817596 0.579254 0.087158
0.921265 0.591370 0.086395
0.000000 0.730560 0.150909
0.212830 0.724213 0.122925
0.358002 0.718079 0.105316
0.483704 0.712921 0.089569
0.599274 0.723480 0.087219
0.705841 0.732819 0.086395
0.809387 0.740753 0.086395
0.916138 0.747070 0.086395
0.000000 0.875244 0.105865
0.220123 0.872620 0.089966
0.360840 0.877747 0.087311
0.477661 0.882385 0.086395
0.583893 0.886414 0.086395
0.688782 0.889557 0.086395
0.800140 0.892731 0.086395
0.915161 0.895966 0.086395
0.000000 0.000000 0.184784
0.084167 0.000000 0.198517
0.183502 0.000000 0.214264
0.296509 0.000000 0.227936
0.421204 0.000000 0.234253
0.565125 0.000000 0.234253
0.732056 0.000000 0.242615
0.896393 0.000000 0.265320
0.000000 0.093811 0.213776
0.086121 0.095642 0.227600
0.185303 0.091370 0.234253
0.303558 0.084808 0.234253
0.454529 0.082764 0.241821
0.625977 0.082764 0.264465
0.782990 0.082764 0.290710
0.913544 0.082764 0.310303
0.000000 0.194305 0.234253
0.089111 0.182861 0.234253
0.209900 0.179230 0.241180
0.365936 0.179230 0.263611
0.531921 0.179230 0.289948
0.679413 0.179230 0.310150
0.803558 0.185669 0.308594
0.918579 0.203156 0.294312
0.000000 0.289398 0.240540
0.118286 0.289398 0.262543
0.276276 0.289398 0.289154
0.437317 0.289398 0.309906
0.571991 0.296844 0.308929
0.696381 0.318115 0.295013
0.812439 0.323883 0.265442
0.921600 0.315247 0.233490
0.000000 0.413300 0.288361
0.175842 0.413300 0.309692
0.326630 0.420593 0.309204
0.462921 0.442719 0.295563
0.589172 0.449890 0.266663
0.706604 0.440857 0.234619
0.817108 0.432495 0.205322
0.922638 0.435974 0.188904
0.000000 0.556976 0.309540
0.200256 0.577118 0.296112
0.347992 0.584717 0.267853
0.478302 0.576416 0.235596
0.598206 0.568726 0.206177
0.710266 0.571228 0.189026
0.816895 0.583435 0.185394
0.920471 0.595459 0.185394
0.000000 0.728271 0.269287
0.214874 0.721893 0.236542
0.359314 0.716003 0.207245
0.483887 0.717346 0.189148
0.598053 0.726715 0.185394
0.703217 0.735931 0.185394
0.807098 0.743286 0.185394
0.915192 0.748993 0.185394
0.000000 0.874237 0.208130
0.220306 0.874634 0.189301
0.359467 0.879303 0.185425
0.473755 0.884003 0.185394
0.579529 0.887634 0.185394
0.685577 0.890564 0.185394
0.800232 0.894012 0.185394
0.915558 0.897827 0.188538
0.000000 0.000000 0.301849
0.084564 0.000000 0.320435
0.184113 0.000000 0.339600
0.296906 0.000000 0.354248
0.420380 0.000000 0.357605
0.572174 0.000000 0.357605
0.741760 0.000000 0.377472
0.901825 0.000000 0.403259
0.000000 0.095001 0.339050
0.086304 0.094940 0.353912
0.184723 0.087952 0.357605
0.310760 0.083923 0.357605
0.468353 0.082764 0.376465
0.640259 0.082764 0.402466
0.789093 0.082764 0.426147
0.914734 0.082764 0.437958
0.000000 0.188629 0.357605
0.092590 0.181305 0.357605
0.220490 0.179230 0.375641
0.380737 0.179230 0.401672
0.543488 0.179230 0.425323
0.683472 0.179230 0.437836
0.805542 0.191284 0.430664
0.919281 0.210907 0.414520
0.000000 0.289398 0.374817
0.125305 0.289398 0.400696
0.290649 0.289398 0.424622
0.443542 0.289398 0.437714
0.575775 0.303711 0.431061
0.698792 0.327789 0.415131
0.813660 0.320709 0.380615
0.921936 0.312225 0.343018
0.000000 0.413300 0.423950
0.181732 0.413300 0.437561
0.331360 0.427704 0.431427
0.466492 0.452667 0.415863
0.591461 0.446564 0.381805
0.707825 0.437622 0.344177
0.817505 0.429840 0.309814
0.922638 0.441223 0.299683
0.000000 0.563507 0.431793
0.203644 0.586182 0.416412
0.350891 0.581635 0.382965
0.480103 0.573486 0.345612
0.598969 0.566254 0.310791
0.710266 0.576050 0.299835
0.815735 0.588135 0.297058
0.919556 0.599182 0.297058
0.000000 0.725922 0.384369
0.216614 0.719635 0.346771
0.360321 0.714081 0.311798
0.483887 0.721100 0.299957
0.595886 0.730347 0.297058
0.700165 0.738800 0.297058
0.804779 0.745544 0.297058
0.914795 0.751465 0.297058
0.000000 0.873260 0.312988
0.220306 0.876556 0.300110
0.356903 0.881134 0.297058
0.469299 0.885437 0.297058
0.575165 0.888794 0.297058
0.683990 0.891754 0.297058
0.800537 0.895172 0.297058
0.916077 0.901093 0.311798
0.000000 0.000000 0.433258
0.084991 0.000000 0.453613
0.184662 0.000000 0.472748
0.297058 0.000000 0.484833
0.423584 0.000000 0.485107
0.580872 0.000000 0.488739
0.752563 0.000000 0.516144
0.905365 0.000000 0.537811
0.000000 0.095612 0.472137
0.086395 0.093262 0.484619
0.186523 0.085388 0.485107
0.319458 0.082916 0.487915
0.483887 0.082764 0.515259
0.651489 0.082764 0.537170
0.794678 0.082764 0.556213
0.915741 0.084747 0.558655
0.000000 0.183807 0.485107
0.096527 0.179626 0.487091
0.232086 0.179230 0.514221
0.395264 0.179230 0.536499
0.554260 0.179230 0.555573
0.686829 0.182251 0.558868
0.807343 0.197815 0.549286
0.919922 0.208649 0.529236
0.000000 0.289398 0.513336
0.135590 0.289398 0.535858
0.304047 0.289398 0.555023
0.448608 0.292694 0.559021
0.579315 0.311707 0.549683
0.700958 0.326141 0.530182
0.814697 0.317535 0.494843
0.922241 0.309357 0.455902
0.000000 0.413300 0.554504
0.186584 0.416229 0.559204
0.335724 0.436035 0.550110
0.469788 0.452301 0.531128
0.593475 0.443237 0.496094
0.708801 0.434570 0.457031
0.817719 0.431519 0.427460
0.922516 0.445862 0.422363
0.000000 0.571045 0.550476
0.206726 0.586945 0.532227
0.353424 0.578583 0.497345
0.481567 0.570679 0.458435
0.599426 0.567078 0.427643
0.709869 0.580292 0.422577
0.814178 0.592529 0.421387
0.918549 0.602661 0.421387
0.000000 0.723572 0.498627
0.218018 0.717499 0.459656
0.360931 0.714172 0.427826
0.483429 0.724426 0.422729
0.592926 0.733704 0.421387
0.696869 0.741455 0.421387
0.802551 0.747620 0.421387
0.914795 0.754181 0.421387
0.000000 0.872986 0.428070
0.219971 0.878174 0.422913
0.353333 0.882812 0.421387
0.464417 0.886749 0.421387
0.570801 0.889862 0.421387
0.683960 0.893097 0.421387
0.801117 0.896240 0.421387
0.916656 0.904022 0.451324
0.000000 0.000000 0.575867
0.085358 0.000000 0.594666
0.185059 0.000000 0.610474
0.296753 0.000000 0.616699
0.430908 0.000000 0.616699
0.593262 0.000000 0.629089
0.763519 0.000000 0.651520
0.908142 0.000000 0.667877
0.000000 0.095551 0.609985
0.086273 0.090515 0.616699
0.192200 0.084595 0.616699
0.332153 0.082764 0.628296
0.499542 0.082764 0.650970
0.660828 0.082764 0.667389
0.798126 0.082764 0.678589
0.916656 0.087677 0.676270
0.000000 0.182465 0.616699
0.102478 0.179230 0.627502
0.244080 0.179230 0.650330
0.409241 0.179230 0.666901
0.561462 0.179230 0.678467
0.689911 0.187134 0.676483
0.809052 0.205231 0.666931
0.920502 0.206116 0.646637
0.000000 0.289398 0.649780
0.148804 0.289398 0.666412
0.313354 0.289398 0.678345
0.453247 0.298615 0.676697
0.582550 0.320648 0.667358
0.702911 0.322998 0.647400
0.815582 0.314453 0.612366
0.922455 0.306671 0.577850
0.000000 0.413300 0.678223
0.191040 0.422424 0.676910
0.339752 0.445374 0.667725
0.472717 0.448975 0.648163
0.595245 0.439972 0.613495
0.709534 0.431732 0.578827
0.817719 0.437500 0.561981
0.922119 0.450714 0.558289
0.000000 0.579529 0.668091
0.209503 0.583923 0.649078
0.355591 0.575592 0.614624
0.482727 0.568024 0.579865
0.599457 0.572662 0.562134
0.708618 0.584747 0.558289
0.812286 0.596527 0.558289
0.917542 0.605804 0.558289
0.000000 0.721283 0.615784
0.219116 0.715485 0.581085
0.360962 0.718475 0.562286
0.481689 0.727692 0.558289
0.589386 0.736755 0.558289
0.693451 0.743866 0.558289
0.800476 0.749542 0.558289
0.914886 0.756683 0.558289
0.000000 0.875214 0.562439
0.218414 0.879822 0.558289
0.348969 0.884369 0.558289
0.459351 0.887970 0.558289
0.566772 0.890808 0.558289
0.684204 0.894348 0.558289
0.802124 0.898682 0.564636
0.917328 0.906097 0.601135
0.000000 0.000000 0.726562
0.085724 0.000000 0.740509
0.185333 0.000000 0.750732
0.295837 0.000000 0.752472
0.438690 0.000000 0.752472
0.606537 0.000000 0.769073
0.774323 0.000000 0.782593
0.910797 0.000000 0.793030
0.000000 0.094574 0.750519
0.085846 0.086853 0.752472
0.198151 0.083649 0.752472
0.345520 0.082764 0.768341
0.515076 0.082764 0.782257
0.669678 0.082764 0.792664
0.800659 0.083069 0.797058
0.917511 0.091187 0.792999
0.000000 0.180878 0.752472
0.108734 0.179230 0.767731
0.256195 0.179230 0.781891
0.422424 0.179230 0.792358
0.566406 0.179443 0.797119
0.692780 0.193024 0.793213
0.810577 0.210480 0.785095
0.921021 0.203552 0.765778
0.000000 0.289398 0.781464
0.161316 0.289398 0.792053
0.319580 0.289398 0.797119
0.457550 0.305817 0.793396
0.585510 0.328430 0.785675
0.704620 0.319824 0.766663
0.816345 0.311401 0.739014
0.922607 0.304230 0.714264
0.000000 0.413300 0.797058
0.195129 0.429901 0.793579
0.343475 0.454681 0.786133
0.475311 0.445648 0.767517
0.596680 0.436798 0.740021
0.710052 0.429138 0.714935
0.817719 0.442352 0.709534
0.921539 0.455719 0.707855
0.000000 0.588776 0.786530
0.212006 0.580811 0.768372
0.357422 0.572693 0.740875
0.483521 0.565613 0.715668
0.599457 0.577179 0.709595
0.706696 0.589355 0.707855
0.810181 0.600159 0.707855
0.916504 0.608673 0.707855
0.000000 0.719055 0.741730
0.219910 0.713623 0.716522
0.360962 0.722015 0.709686
0.478943 0.731262 0.707855
0.585388 0.739594 0.707855
0.689972 0.746155 0.707855
0.800140 0.752258 0.707855
0.915070 0.758911 0.707855
0.000000 0.877014 0.709808
0.215912 0.881622 0.707855
0.344055 0.885803 0.707855
0.454254 0.889069 0.707855
0.565796 0.892120 0.707855
0.684753 0.895477 0.707855
0.803314 0.902039 0.721313
0.917999 0.908295 0.753510
0.000000 0.000000 0.882080
0.086029 0.000000 0.888580
0.185394 0.000000 0.892365
0.301025 0.000000 0.892365
0.449615 0.000000 0.894562
0.620819 0.000000 0.903748
0.780731 0.000000 0.908783
0.913055 0.000000 0.912933
0.000000 0.092590 0.892365
0.087952 0.085175 0.892365
0.206146 0.082764 0.894287
0.360321 0.082764 0.903564
0.527588 0.082764 0.908630
0.677704 0.082764 0.912903
0.802826 0.085510 0.912994
0.918304 0.095245 0.910492
0.000000 0.179230 0.893982
0.115723 0.179230 0.903381
0.270905 0.179230 0.908478
0.434631 0.179230 0.912811
0.570557 0.183472 0.913055
0.695465 0.199768 0.910645
0.811981 0.207977 0.905579
0.921448 0.201019 0.893951
0.000000 0.289398 0.908295
0.172913 0.289398 0.912689
0.324768 0.294098 0.913086
0.461548 0.314087 0.910736
0.588257 0.325287 0.905792
0.706116 0.316681 0.894379
0.816925 0.308594 0.880829
0.922638 0.308868 0.871918
0.000000 0.417755 0.913147
0.198944 0.438507 0.910828
0.346832 0.451447 0.906067
0.477539 0.442322 0.894806
0.597870 0.433777 0.881226
0.710266 0.433289 0.871979
0.817230 0.447052 0.870209
0.920776 0.460327 0.870056
0.000000 0.586121 0.906281
0.214172 0.577759 0.895264
0.358887 0.569946 0.881714
0.483887 0.568726 0.872040
0.598602 0.581421 0.870270
0.704224 0.593658 0.870056
0.807953 0.603485 0.870056
0.915527 0.611267 0.870056
0.000000 0.716919 0.882141
0.220306 0.715363 0.872101
0.360107 0.725281 0.870331
0.475250 0.734589 0.870056
0.581116 0.742157 0.870056
0.686707 0.748169 0.870056
0.800171 0.754883 0.870056
0.915375 0.761292 0.870361
0.000000 0.878632 0.870392
0.212555 0.883270 0.870056
0.338806 0.887115 0.870056
0.449341 0.890106 0.870056
0.565857 0.893463 0.870056
0.685760 0.896515 0.870117
0.804688 0.904572 0.882080
0.918732 0.910522 0.899872
