Avant Garde/Striped Purple - Cherry Champagne.cube
#Created by: Adobe Photoshop Export Color Lookup Plugin
#Copyright: (C) Copyright 2019 Cherry Champagne by Striped Purple © Austin Barrett All rights reserved.
TITLE "Cherry Champagne"
#LUT size
LUT_3D_SIZE 5
#data domain
#LUT data points
DOMAIN_MIN 0.000000 0.000000 0.000000
DOMAIN_MAX 0.903226 0.903226 0.903226
0.176880 0.334869 0.398224
0.438721 0.334869 0.398224
0.643524 0.334869 0.398224
0.787292 0.334869 0.398224
0.899963 0.334869 0.398224
0.176880 0.435089 0.398224
0.438721 0.435089 0.398224
0.643524 0.435089 0.398224
0.787292 0.435089 0.398224
0.899963 0.435089 0.398224
0.176880 0.550903 0.398224
0.438721 0.550903 0.398224
0.643524 0.550903 0.398224
0.787292 0.550903 0.398224
0.899963 0.550903 0.398224
0.176880 0.693665 0.398224
0.438721 0.693665 0.398224
0.643524 0.693665 0.398224
0.787292 0.693665 0.398224
0.899963 0.693665 0.398224
0.176880 0.859894 0.398224
0.438721 0.859894 0.398224
0.643524 0.859894 0.398224
0.787292 0.859894 0.398224
0.899963 0.859894 0.398224
0.176880 0.334869 0.504486
0.438721 0.334869 0.504486
0.643524 0.334869 0.504486
0.787292 0.334869 0.504486
0.899963 0.334869 0.504486
0.176880 0.435089 0.504486
0.438721 0.435089 0.504486
0.643524 0.435089 0.504486
0.787292 0.435089 0.504486
0.899963 0.435089 0.504486
0.176880 0.550903 0.504486
0.438721 0.550903 0.504486
0.643524 0.550903 0.504486
0.787292 0.550903 0.504486
0.899963 0.550903 0.504486
0.176880 0.693665 0.504486
0.438721 0.693665 0.504486
0.643524 0.693665 0.504486
0.787292 0.693665 0.504486
0.899963 0.693665 0.504486
0.176880 0.859894 0.504486
0.438721 0.859894 0.504486
0.643524 0.859894 0.504486
0.787292 0.859894 0.504486
0.899963 0.859894 0.504486
0.176880 0.334869 0.618866
0.438721 0.334869 0.618866
0.643524 0.334869 0.618866
0.787292 0.334869 0.618866
0.899963 0.334869 0.618866
0.176880 0.435089 0.618866
0.438721 0.435089 0.618866
0.643524 0.435089 0.618866
0.787292 0.435089 0.618866
0.899963 0.435089 0.618866
0.176880 0.550903 0.618866
0.438721 0.550903 0.618866
0.643524 0.550903 0.618866
0.787292 0.550903 0.618866
0.899963 0.550903 0.618866
0.176880 0.693665 0.618866
0.438721 0.693665 0.618866
0.643524 0.693665 0.618866
0.787292 0.693665 0.618866
0.899963 0.693665 0.618866
0.176880 0.859894 0.618866
0.438721 0.859894 0.618866
0.643524 0.859894 0.618866
0.787292 0.859894 0.618866
0.899963 0.859894 0.618866
0.176880 0.334869 0.745026
0.438721 0.334869 0.745026
0.643524 0.334869 0.745026
0.787292 0.334869 0.745026
0.899963 0.334869 0.745026
0.176880 0.435089 0.745026
0.438721 0.435089 0.745026
0.643524 0.435089 0.745026
0.787292 0.435089 0.745026
0.899963 0.435089 0.745026
0.176880 0.550903 0.745026
0.438721 0.550903 0.745026
0.643524 0.550903 0.745026
0.787292 0.550903 0.745026
0.899963 0.550903 0.745026
0.176880 0.693665 0.745026
0.438721 0.693665 0.745026
0.643524 0.693665 0.745026
0.787292 0.693665 0.745026
0.899963 0.693665 0.745026
0.176880 0.859894 0.745026
0.438721 0.859894 0.745026
0.643524 0.859894 0.745026
0.787292 0.859894 0.745026
0.899963 0.859894 0.745026
0.176880 0.334869 0.880157
0.438721 0.334869 0.880157
0.643524 0.334869 0.880157
0.787292 0.334869 0.880157
0.899963 0.334869 0.880157
0.176880 0.435089 0.880157
0.438721 0.435089 0.880157
0.643524 0.435089 0.880157
0.787292 0.435089 0.880157
0.899963 0.435089 0.880157
0.176880 0.550903 0.880157
0.438721 0.550903 0.880157
0.643524 0.550903 0.880157
0.787292 0.550903 0.880157
0.899963 0.550903 0.880157
0.176880 0.693665 0.880157
0.438721 0.693665 0.880157
0.643524 0.693665 0.880157
0.787292 0.693665 0.880157
0.899963 0.693665 0.880157
0.176880 0.859894 0.880157
0.438721 0.859894 0.880157
0.643524 0.859894 0.880157
0.787292 0.859894 0.880157
0.899963 0.859894 0.880157
