Avant Garde/Striped Purple - Arcade Dayz.cube
#Created by: Adobe Photoshop Export Color Lookup Plugin
#Copyright: (C) Copyright 2018 Striped Purple - Austin Barrett
TITLE "Arcade Dayz"
#LUT size
LUT_3D_SIZE 32
#data domain
DOMAIN_MIN 0.0 0.0 0.0
DOMAIN_MAX 1.0 1.0 1.0
#LUT data points
0.000000 0.000000 0.000000
0.006744 0.000000 0.000000
0.015594 0.000000 0.000000
0.026489 0.000000 0.000000
0.039337 0.000000 0.000000
0.054138 0.000000 0.000000
0.070831 0.000000 0.000000
0.089447 0.000000 0.000000
0.109772 0.000000 0.000000
0.131805 0.000000 0.000000
0.155487 0.000000 0.000000
0.180725 0.000000 0.000000
0.207367 0.000000 0.000000
0.235321 0.000000 0.000000
0.264587 0.000000 0.000000
0.294952 0.000000 0.000000
0.326294 0.000000 0.000000
0.358521 0.000000 0.000000
0.394257 0.000000 0.000000
0.434906 0.000000 0.000000
0.474304 0.000000 0.000000
0.513763 0.000000 0.000000
0.555786 0.000000 0.000000
0.600677 0.000000 0.000000
0.647919 0.000000 0.000000
0.697388 0.000000 0.000000
0.748413 0.000000 0.000000
0.800110 0.000000 0.000000
0.852081 0.000000 0.000000
0.903229 0.000000 0.000000
0.952850 0.000000 0.000000
1.000000 0.000000 0.000000
0.000000 0.033966 0.000000
0.006744 0.034576 0.000000
0.015594 0.035248 0.000000
0.026489 0.035980 0.000000
0.039337 0.036835 0.000000
0.054138 0.037689 0.000000
0.070831 0.039673 0.000000
0.089447 0.042114 0.000000
0.109772 0.044556 0.000000
0.131805 0.046967 0.000000
0.155487 0.049164 0.000000
0.180725 0.051270 0.000000
0.207367 0.053192 0.000000
0.235321 0.054749 0.000000
0.264587 0.056061 0.000000
0.294952 0.056976 0.000000
0.329102 0.057556 0.000000
0.369385 0.057678 0.000000
0.408600 0.057587 0.000000
0.448639 0.057434 0.000000
0.488708 0.057098 0.000000
0.529022 0.056671 0.000000
0.572174 0.056152 0.000000
0.617798 0.055511 0.000000
0.665192 0.054840 0.000000
0.714355 0.054047 0.000000
0.764343 0.053192 0.000000
0.814362 0.052277 0.000000
0.863861 0.051270 0.000000
0.911804 0.050262 0.000000
0.957520 0.049164 0.000000
1.000000 0.048035 0.000000
0.000000 0.069916 0.000000
0.006744 0.071411 0.000000
0.015594 0.072906 0.000000
0.026489 0.074585 0.000000
0.039337 0.077850 0.000000
0.054138 0.082062 0.000000
0.070831 0.086304 0.000000
0.089447 0.090271 0.000000
0.109772 0.094147 0.000000
0.131805 0.097748 0.000000
0.155487 0.100861 0.000000
0.180725 0.103638 0.000000
0.207367 0.105865 0.000000
0.235321 0.107452 0.000000
0.267242 0.108429 0.000000
0.306183 0.108582 0.000000
0.344757 0.108521 0.000000
0.384583 0.108185 0.000000
0.424866 0.107666 0.000000
0.465485 0.106934 0.000000
0.505737 0.106079 0.000000
0.547150 0.105042 0.000000
0.591187 0.103882 0.000000
0.637238 0.102509 0.000000
0.684509 0.101105 0.000000
0.732941 0.099518 0.000000
0.781372 0.097870 0.000000
0.829468 0.096130 0.000000
0.876221 0.094269 0.000000
0.920685 0.092407 0.000000
0.962158 0.090424 0.000000
1.000000 0.088440 0.000000
0.000000 0.108368 0.000000
0.006744 0.110718 0.000000
0.015594 0.114838 0.000000
0.026489 0.120239 0.000000
0.039337 0.125427 0.000000
0.054138 0.130646 0.000000
0.070831 0.135590 0.000000
0.089447 0.140045 0.000000
0.109772 0.144104 0.000000
0.131805 0.147644 0.000000
0.155487 0.150452 0.000000
0.180725 0.152557 0.000000
0.209747 0.153778 0.000000
0.246613 0.153992 0.000000
0.283600 0.153900 0.000000
0.322205 0.153503 0.000000
0.362366 0.152863 0.000000
0.403259 0.151978 0.000000
0.444153 0.150879 0.000000
0.484894 0.149536 0.000000
0.525452 0.148071 0.000000
0.567841 0.146362 0.000000
0.612518 0.144562 0.000000
0.658691 0.142548 0.000000
0.705475 0.140472 0.000000
0.752838 0.138275 0.000000
0.799500 0.135925 0.000000
0.845245 0.133514 0.000000
0.888702 0.131042 0.000000
0.927399 0.128540 0.000000
0.964569 0.125977 0.000000
1.000000 0.123383 0.000000
0.000000 0.150726 0.000000
0.006744 0.156647 0.000000
0.015594 0.162689 0.000000
0.026489 0.168518 0.000000
0.039337 0.173950 0.000000
0.054138 0.179077 0.000000
0.070831 0.183716 0.000000
0.089447 0.187561 0.000000
0.109772 0.190796 0.000000
0.131805 0.193176 0.000000
0.157257 0.194580 0.000000
0.191559 0.194855 0.000000
0.225952 0.194794 0.000000
0.262939 0.194336 0.000000
0.301910 0.193604 0.000000
0.342041 0.192657 0.000000
0.383301 0.191406 0.000000
0.424805 0.189941 0.000000
0.465729 0.188293 0.000000
0.506165 0.186401 0.000000
0.547638 0.184326 0.000000
0.590759 0.182129 0.000000
0.635742 0.179779 0.000000
0.681396 0.177338 0.000000
0.727722 0.174713 0.000000
0.773651 0.171967 0.000000
0.818146 0.169220 0.000000
0.857513 0.166382 0.000000
0.895599 0.163452 0.000000
0.932098 0.160614 0.000000
0.966949 0.157684 0.000000
1.000000 0.154755 0.000000
0.000000 0.198151 0.000000
0.006744 0.204163 0.000000
0.015594 0.210022 0.000000
0.026489 0.215454 0.000000
0.039337 0.220184 0.000000
0.054138 0.224396 0.000000
0.070831 0.227814 0.000000
0.089447 0.230286 0.000000
0.111145 0.231781 0.000000
0.141754 0.232147 0.000000
0.173035 0.232056 0.000000
0.207428 0.231628 0.000000
0.244171 0.230865 0.000000
0.283142 0.229858 0.000000
0.323700 0.228577 0.000000
0.364899 0.227051 0.000000
0.406769 0.225281 0.000000
0.448364 0.223328 0.000000
0.488922 0.221191 0.000000
0.529480 0.218842 0.000000
0.571899 0.216370 0.000000
0.615540 0.213776 0.000000
0.660492 0.210999 0.000000
0.705597 0.208221 0.000000
0.750732 0.205292 0.000000
0.790405 0.202301 0.000000
0.828918 0.199310 0.000000
0.866394 0.196228 0.000000
0.902405 0.193146 0.000000
0.936646 0.190125 0.000000
0.969269 0.187073 0.000000
1.000000 0.184113 0.000000
0.000000 0.244202 0.000000
0.006744 0.249542 0.000000
0.015594 0.254486 0.000000
0.026489 0.258728 0.000000
0.039337 0.262177 0.000000
0.054138 0.264740 0.000000
0.071777 0.266327 0.000000
0.097778 0.266693 0.000000
0.125397 0.266632 0.000000
0.156281 0.266174 0.000000
0.190399 0.265411 0.000000
0.227203 0.264404 0.000000
0.265869 0.263123 0.000000
0.306519 0.261566 0.000000
0.348175 0.259827 0.000000
0.389954 0.257874 0.000000
0.431976 0.255676 0.000000
0.473267 0.253326 0.000000
0.513214 0.250885 0.000000
0.554749 0.248199 0.000000
0.597473 0.245514 0.000000
0.641663 0.242615 0.000000
0.686310 0.239655 0.000000
0.725891 0.236694 0.000000
0.764893 0.233612 0.000000
0.802917 0.230499 0.000000
0.839600 0.227448 0.000000
0.875092 0.224335 0.000000
0.908966 0.221252 0.000000
0.941040 0.218262 0.000000
0.971436 0.215607 0.000000
1.000000 0.213806 0.000000
0.000000 0.287109 0.000000
0.006744 0.291229 0.000000
0.015594 0.294708 0.000000
0.026489 0.297272 0.000000
0.039734 0.298798 0.000000
0.060608 0.299255 0.000000
0.083771 0.299164 0.000000
0.110565 0.298737 0.000000
0.141022 0.298035 0.000000
0.174561 0.297028 0.000000
0.211121 0.295776 0.000000
0.250031 0.294250 0.000000
0.290375 0.292572 0.000000
0.332184 0.290619 0.000000
0.374542 0.288452 0.000000
0.416504 0.286163 0.000000
0.458252 0.283722 0.000000
0.498840 0.281128 0.000000
0.539185 0.278412 0.000000
0.581543 0.275574 0.000000
0.624664 0.272705 0.000000
0.664337 0.269745 0.000000
0.703339 0.266724 0.000000
0.741486 0.263702 0.000000
0.778900 0.260620 0.000000
0.815155 0.257538 0.000000
0.849915 0.254578 0.000000
0.883331 0.251556 0.000000
0.915100 0.248871 0.000000
0.945068 0.246887 0.000000
0.973389 0.244995 0.000000
1.000000 0.243195 0.000000
0.000000 0.325989 0.000000
0.006744 0.328461 0.000000
0.015717 0.330048 0.000000
0.030640 0.330505 0.000000
0.048615 0.330475 0.000000
0.070679 0.330048 0.000000
0.096649 0.329346 0.000000
0.126526 0.328369 0.000000
0.159821 0.327148 0.000000
0.195862 0.325714 0.000000
0.234619 0.324036 0.000000
0.275238 0.322113 0.000000
0.316803 0.320099 0.000000
0.359406 0.317810 0.000000
0.402039 0.315399 0.000000
0.443817 0.312927 0.000000
0.484955 0.310242 0.000000
0.525177 0.307495 0.000000
0.566498 0.304688 0.000000
0.605652 0.301788 0.000000
0.644135 0.298889 0.000000
0.682465 0.295898 0.000000
0.720184 0.292877 0.000000
0.756805 0.289948 0.000000
0.792511 0.286987 0.000000
0.826874 0.284058 0.000000
0.859650 0.281403 0.000000
0.890991 0.279266 0.000000
0.920715 0.277191 0.000000
0.948700 0.275269 0.000000
0.975128 0.273407 0.000000
1.000000 0.271729 0.000000
0.000000 0.360199 0.000000
0.008209 0.360657 0.000000
0.020599 0.360626 0.000000
0.037262 0.360229 0.000000
0.058136 0.359558 0.000000
0.083344 0.358643 0.000000
0.112305 0.357483 0.000000
0.145111 0.356079 0.000000
0.181061 0.354462 0.000000
0.219360 0.352661 0.000000
0.259979 0.350616 0.000000
0.302032 0.348450 0.000000
0.344513 0.346161 0.000000
0.387482 0.343719 0.000000
0.430054 0.341125 0.000000
0.471283 0.338501 0.000000
0.511566 0.335724 0.000000
0.549500 0.332977 0.000000
0.587708 0.330109 0.000000
0.625793 0.327209 0.000000
0.663269 0.324341 0.000000
0.700348 0.321442 0.000000
0.736603 0.318542 0.000000
0.771515 0.315826 0.000000
0.805359 0.313080 0.000000
0.837799 0.310852 0.000000
0.868591 0.308746 0.000000
0.897949 0.306671 0.000000
0.925629 0.304779 0.000000
0.951813 0.302948 0.000000
0.976562 0.301300 0.000000
1.000000 0.299805 0.000000
0.000000 0.389709 0.000000
0.010590 0.389404 0.000000
0.025787 0.388733 0.000000
0.045441 0.387848 0.000000
0.069702 0.386719 0.000000
0.098114 0.385406 0.000000
0.130127 0.383850 0.000000
0.165771 0.382050 0.000000
0.204193 0.380157 0.000000
0.244507 0.378113 0.000000
0.286682 0.375854 0.000000
0.329773 0.373505 0.000000
0.372772 0.371063 0.000000
0.415802 0.368530 0.000000
0.457550 0.365906 0.000000
0.496521 0.363190 0.000000
0.533875 0.360413 0.000000
0.571136 0.357697 0.000000
0.608612 0.354889 0.000000
0.645721 0.352081 0.000000
0.681976 0.349396 0.000000
0.717621 0.346619 0.000000
0.752167 0.343994 0.000000
0.785278 0.341736 0.000000
0.817200 0.339508 0.000000
0.847656 0.337372 0.000000
0.876495 0.335388 0.000000
0.903870 0.333496 0.000000
0.929779 0.331818 0.000000
0.954315 0.330231 0.000000
0.977661 0.328857 0.000000
1.000000 0.327667 0.000000
0.000000 0.416870 0.000000
0.013611 0.416077 0.000000
0.032074 0.414978 0.000000
0.055206 0.413727 0.000000
0.082855 0.412201 0.000000
0.114563 0.410553 0.000000
0.149628 0.408722 0.000000
0.187897 0.406769 0.000000
0.228546 0.404602 0.000000
0.270569 0.402405 0.000000
0.313995 0.400024 0.000000
0.357758 0.397583 0.000000
0.400940 0.395111 0.000000
0.442932 0.392487 0.000000
0.481964 0.389923 0.000000
0.519043 0.387238 0.000000
0.556000 0.384583 0.000000
0.592590 0.381958 0.000000
0.629089 0.379303 0.000000
0.665009 0.376678 0.000000
0.699799 0.374207 0.000000
0.733765 0.371826 0.000000
0.766541 0.369537 0.000000
0.797760 0.367432 0.000000
0.827728 0.365356 0.000000
0.856079 0.363464 0.000000
0.883087 0.361694 0.000000
0.908691 0.360077 0.000000
0.932953 0.358673 0.000000
0.956116 0.357452 0.000000
0.978241 0.354645 0.000000
1.000000 0.351868 0.000000
0.000000 0.442322 0.000000
0.017151 0.441071 0.000000
0.039307 0.439667 0.000000
0.066101 0.438110 0.000000
0.097260 0.436371 0.000000
0.132263 0.434479 0.000000
0.170166 0.432495 0.000000
0.210938 0.430359 0.000000
0.253540 0.428131 0.000000
0.296997 0.425842 0.000000
0.341309 0.423431 0.000000
0.385620 0.421021 0.000000
0.428253 0.418518 0.000000
0.468201 0.415985 0.000000
0.505127 0.413513 0.000000
0.541473 0.410919 0.000000
0.577759 0.408417 0.000000
0.613434 0.405975 0.000000
0.648712 0.403534 0.000000
0.683167 0.401154 0.000000
0.716309 0.398895 0.000000
0.748474 0.396698 0.000000
0.779297 0.394623 0.000000
0.808563 0.392700 0.000000
0.836548 0.390900 0.000000
0.863007 0.389313 0.000000
0.888184 0.387848 0.000000
0.912140 0.386597 0.000000
0.934662 0.383972 0.000000
0.956421 0.380951 0.000000
0.976929 0.380951 0.000000
1.000000 0.380951 0.000000
0.000000 0.466248 0.000000
0.021118 0.464752 0.000000
0.047272 0.463104 0.000000
0.077881 0.461334 0.000000
0.112579 0.459442 0.000000
0.150787 0.457428 0.000000
0.191437 0.455353 0.000000
0.234375 0.453156 0.000000
0.278687 0.450897 0.000000
0.325256 0.448639 0.000000
0.370972 0.446259 0.000000
0.413818 0.443909 0.000000
0.454315 0.441498 0.000000
0.492126 0.439117 0.000000
0.527649 0.436798 0.000000
0.563324 0.434418 0.000000
0.598663 0.432129 0.000000
0.633087 0.429779 0.000000
0.666931 0.427490 0.000000
0.699677 0.425262 0.000000
0.731018 0.423218 0.000000
0.761261 0.421265 0.000000
0.789948 0.419525 0.000000
0.817322 0.417847 0.000000
0.843353 0.416412 0.000000
0.868011 0.415192 0.000000
0.890961 0.412628 0.000000
0.912842 0.409485 0.000000
0.931244 0.409485 0.000000
0.949646 0.409485 0.000000
0.973724 0.409485 0.000000
1.000000 0.409485 0.000000
0.000000 0.488983 0.000000
0.025421 0.487335 0.000000
0.055756 0.485535 0.000000
0.090240 0.483704 0.000000
0.128479 0.481689 0.000000
0.169708 0.479614 0.000000
0.212860 0.477539 0.000000
0.261383 0.475372 0.000000
0.309540 0.473206 0.000000
0.355896 0.470947 0.000000
0.399750 0.468719 0.000000
0.440521 0.466492 0.000000
0.478851 0.464264 0.000000
0.514526 0.462067 0.000000
0.549347 0.459930 0.000000
0.584015 0.457581 0.000000
0.618134 0.455292 0.000000
0.651062 0.453156 0.000000
0.683197 0.451080 0.000000
0.714081 0.449158 0.000000
0.743439 0.447388 0.000000
0.771637 0.445770 0.000000
0.798309 0.444397 0.000000
0.823700 0.443115 0.000000
0.847137 0.440643 0.000000
0.869080 0.437469 0.000000
0.885742 0.437469 0.000000
0.900024 0.437469 0.000000
0.921814 0.437469 0.000000
0.946320 0.437469 0.000000
0.972351 0.437469 0.000000
1.000000 0.437469 0.000000
0.000000 0.510956 0.000000
0.029999 0.509155 0.000000
0.064606 0.507263 0.000000
0.102966 0.505371 0.000000
0.144623 0.503326 0.000000
0.193695 0.501312 0.000000
0.244476 0.499298 0.000000
0.293793 0.497192 0.000000
0.340454 0.495148 0.000000
0.384979 0.493011 0.000000
0.426758 0.490936 0.000000
0.465271 0.488922 0.000000
0.501251 0.486908 0.000000
0.535767 0.484589 0.000000
0.569611 0.482422 0.000000
0.603027 0.480255 0.000000
0.635590 0.478241 0.000000
0.666779 0.476379 0.000000
0.696991 0.474640 0.000000
0.725708 0.473053 0.000000
0.753174 0.471649 0.000000
0.779205 0.470398 0.000000
0.803101 0.468201 0.000000
0.825134 0.464813 0.000000
0.840454 0.464813 0.000000
0.851501 0.464813 0.000000
0.870636 0.464813 0.000000
0.893555 0.464813 0.000000
0.917908 0.464813 0.000000
0.943634 0.464813 0.000000
0.971039 0.464813 0.000000
1.000000 0.464813 0.000000
0.000000 0.533203 0.000000
0.034729 0.531281 0.000000
0.073608 0.529297 0.000000
0.120697 0.527344 0.000000
0.173523 0.525299 0.000000
0.226257 0.523254 0.000000
0.276611 0.521240 0.000000
0.324585 0.519196 0.000000
0.369476 0.517242 0.000000
0.411987 0.515228 0.000000
0.451538 0.513306 0.000000
0.487732 0.511078 0.000000
0.521851 0.508850 0.000000
0.555328 0.506714 0.000000
0.587830 0.504761 0.000000
0.619690 0.502899 0.000000
0.650421 0.501190 0.000000
0.679688 0.499664 0.000000
0.707764 0.498291 0.000000
0.734436 0.497101 0.000000
0.758789 0.494995 0.000000
0.780975 0.491608 0.000000
0.795685 0.491608 0.000000
0.803284 0.491608 0.000000
0.820190 0.491608 0.000000
0.841766 0.491608 0.000000
0.864410 0.491608 0.000000
0.888428 0.491608 0.000000
0.914032 0.491608 0.000000
0.941071 0.491608 0.000000
0.969757 0.491608 0.000000
1.000000 0.491608 0.000000
0.000000 0.555969 0.000000
0.042023 0.553986 0.000000
0.093323 0.552032 0.000000
0.148315 0.550049 0.000000
0.203857 0.548035 0.000000
0.257294 0.546021 0.000000
0.306885 0.544098 0.000000
0.353241 0.542175 0.000000
0.396149 0.540314 0.000000
0.436462 0.537994 0.000000
0.473633 0.535736 0.000000
0.507538 0.533600 0.000000
0.540405 0.531555 0.000000
0.572510 0.529633 0.000000
0.603394 0.527924 0.000000
0.633392 0.526337 0.000000
0.662048 0.524902 0.000000
0.689148 0.523743 0.000000
0.714142 0.521667 0.000000
0.736511 0.518158 0.000000
0.750610 0.518158 0.000000
0.755646 0.518158 0.000000
0.770599 0.518158 0.000000
0.790710 0.518158 0.000000
0.811951 0.518158 0.000000
0.834503 0.518158 0.000000
0.858276 0.518158 0.000000
0.883575 0.518158 0.000000
0.910431 0.518158 0.000000
0.938782 0.518158 0.000000
0.968658 0.518158 0.000000
1.000000 0.518158 0.000000
0.000000 0.579468 0.000000
0.054840 0.577484 0.000000
0.114716 0.575562 0.000000
0.174744 0.573669 0.000000
0.232574 0.571747 0.000000
0.285828 0.569916 0.000000
0.334747 0.568054 0.000000
0.379211 0.565765 0.000000
0.420013 0.563477 0.000000
0.458008 0.561279 0.000000
0.492737 0.559204 0.000000
0.524841 0.557312 0.000000
0.556305 0.555511 0.000000
0.586670 0.553894 0.000000
0.615692 0.552490 0.000000
0.643463 0.551239 0.000000
0.669037 0.549255 0.000000
0.691620 0.545593 0.000000
0.705505 0.545593 0.000000
0.709076 0.545593 0.000000
0.721497 0.545593 0.000000
0.740479 0.545593 0.000000
0.760559 0.545593 0.000000
0.781555 0.545593 0.000000
0.803833 0.545593 0.000000
0.827576 0.545593 0.000000
0.852631 0.545593 0.000000
0.879211 0.545593 0.000000
0.907288 0.545593 0.000000
0.936829 0.545593 0.000000
0.967773 0.545593 0.000000
1.000000 0.545593 0.000000
0.000000 0.603882 0.000000
0.067230 0.602020 0.000000
0.135040 0.600128 0.000000
0.199524 0.598358 0.000000
0.259064 0.596619 0.000000
0.312195 0.594360 0.000000
0.359711 0.592041 0.000000
0.402161 0.589844 0.000000
0.440674 0.587799 0.000000
0.476257 0.585846 0.000000
0.508606 0.584045 0.000000
0.539185 0.582458 0.000000
0.568848 0.580994 0.000000
0.597168 0.579742 0.000000
0.623199 0.577911 0.000000
0.646179 0.574036 0.000000
0.660645 0.574036 0.000000
0.662292 0.574036 0.000000
0.673065 0.574036 0.000000
0.691223 0.574036 0.000000
0.709991 0.574036 0.000000
0.729736 0.574036 0.000000
0.750732 0.574036 0.000000
0.772858 0.574036 0.000000
0.796326 0.574036 0.000000
0.821320 0.574036 0.000000
0.847656 0.574036 0.000000
0.875519 0.574036 0.000000
0.904816 0.574036 0.000000
0.935394 0.574036 0.000000
0.967194 0.574036 0.000000
1.000000 0.574188 0.000000
0.000000 0.629333 0.000000
0.078949 0.627625 0.000000
0.153778 0.625977 0.000000
0.222198 0.623718 0.000000
0.282898 0.621429 0.000000
0.335480 0.619293 0.000000
0.381378 0.617218 0.000000
0.421570 0.615295 0.000000
0.457733 0.613525 0.000000
0.490814 0.611908 0.000000
0.521088 0.610443 0.000000
0.549835 0.609253 0.000000
0.576660 0.607513 0.000000
0.600037 0.603516 0.000000
0.614960 0.603516 0.000000
0.615784 0.603516 0.000000
0.625275 0.603516 0.000000
0.642487 0.603516 0.000000
0.660339 0.603516 0.000000
0.679169 0.603516 0.000000
0.698730 0.603516 0.000000
0.719482 0.603516 0.000000
0.741638 0.603516 0.000000
0.764984 0.603516 0.000000
0.789764 0.603516 0.000000
0.816071 0.603516 0.000000
0.843750 0.603516 0.000000
0.872833 0.603516 0.000000
0.903168 0.603516 0.000000
0.934631 0.603577 0.000000
0.967072 0.606567 0.000000
1.000000 0.610199 0.000000
0.000000 0.656067 0.000000
0.089813 0.653900 0.000000
0.170990 0.651703 0.000000
0.242371 0.649567 0.000000
0.303650 0.647522 0.000000
0.355316 0.645630 0.000000
0.399292 0.643890 0.000000
0.437164 0.642303 0.000000
0.470856 0.640900 0.000000
0.501404 0.639679 0.000000
0.529022 0.638031 0.000000
0.553009 0.634033 0.000000
0.568695 0.634033 0.000000
0.569977 0.634033 0.000000
0.577698 0.634033 0.000000
0.594360 0.634033 0.000000
0.611694 0.634033 0.000000
0.629395 0.634033 0.000000
0.647949 0.634033 0.000000
0.667664 0.634033 0.000000
0.688324 0.634033 0.000000
0.710266 0.634033 0.000000
0.733673 0.634033 0.000000
0.758392 0.634033 0.000000
0.784607 0.634033 0.000000
0.812195 0.634033 0.000000
0.841125 0.634033 0.000000
0.871307 0.634033 0.000000
0.902710 0.636902 0.000000
0.934631 0.640472 0.000000
0.967072 0.644440 0.000000
1.000000 0.649017 0.000000
0.000000 0.682739 0.000000
0.099548 0.680695 0.000000
0.186066 0.678741 0.000000
0.259644 0.676880 0.000000
0.320892 0.675171 0.000000
0.371246 0.673676 0.000000
0.413086 0.672302 0.000000
0.448456 0.671082 0.000000
0.479218 0.669678 0.000000
0.504608 0.665619 0.000000
0.522034 0.665588 0.000000
0.523376 0.665588 0.000000
0.530487 0.665588 0.000000
0.546997 0.665588 0.000000
0.563599 0.665588 0.000000
0.580566 0.665588 0.000000
0.598450 0.665588 0.000000
0.616943 0.665588 0.000000
0.636444 0.665588 0.000000
0.657257 0.665588 0.000000
0.679230 0.665588 0.000000
0.702545 0.665588 0.000000
0.727386 0.665588 0.000000
0.753540 0.665588 0.000000
0.781128 0.665588 0.000000
0.810028 0.665588 0.000000
0.840363 0.668335 0.000000
0.871307 0.671661 0.000000
0.902710 0.675568 0.000000
0.934631 0.679962 0.000000
0.967194 0.684662 0.000000
1.000000 0.688690 0.000000
0.000000 0.710815 0.000000
0.107941 0.709076 0.000000
0.198700 0.707428 0.000000
0.273560 0.705963 0.000000
0.334198 0.704651 0.000000
0.382874 0.703522 0.000000
0.422028 0.702240 0.000000
0.451965 0.698334 0.000000
0.472595 0.698242 0.000000
0.475586 0.698242 0.000000
0.483276 0.698242 0.000000
0.499908 0.698242 0.000000
0.516174 0.698242 0.000000
0.532867 0.698242 0.000000
0.549805 0.698242 0.000000
0.567444 0.698242 0.000000
0.586182 0.698242 0.000000
0.605743 0.698242 0.000000
0.626465 0.698242 0.000000
0.648621 0.698242 0.000000
0.671997 0.698242 0.000000
0.696899 0.698242 0.000000
0.723145 0.698242 0.000000
0.750763 0.698242 0.000000
0.780090 0.700684 0.000000
0.809998 0.703918 0.000000
0.840363 0.707642 0.000000
0.871307 0.711700 0.000000
0.903107 0.716309 0.000000
0.935364 0.720123 0.000000
0.967712 0.723328 0.000000
1.000000 0.726837 0.000000
0.000000 0.740631 0.000000
0.114807 0.739227 0.000000
0.208557 0.738007 0.000000
0.283783 0.736938 0.000000
0.342957 0.735809 0.000000
0.386688 0.732239 0.000000
0.415527 0.731934 0.000000
0.421783 0.731934 0.000000
0.431183 0.731934 0.000000
0.450195 0.731934 0.000000
0.468292 0.731934 0.000000
0.485443 0.731934 0.000000
0.502197 0.731934 0.000000
0.519379 0.731934 0.000000
0.537079 0.731934 0.000000
0.555664 0.731934 0.000000
0.575500 0.731934 0.000000
0.596313 0.731934 0.000000
0.618500 0.731934 0.000000
0.642151 0.731934 0.000000
0.667114 0.731934 0.000000
0.693604 0.731934 0.000000
0.721863 0.734192 0.000000
0.750702 0.737213 0.000000
0.780090 0.740601 0.000000
0.809998 0.744507 0.000000
0.841003 0.748779 0.000000
0.872650 0.752258 0.000000
0.904572 0.755219 0.000000
0.936554 0.758392 0.000000
0.968414 0.761597 0.000000
1.000000 0.765015 0.000000
0.000000 0.772369 0.000000
0.119873 0.771362 0.000000
0.215149 0.770477 0.000000
0.287231 0.767120 0.000000
0.337189 0.766785 0.000000
0.357422 0.766785 0.000000
0.371918 0.766785 0.000000
0.394562 0.766785 0.000000
0.415039 0.766785 0.000000
0.434479 0.766785 0.000000
0.453217 0.766785 0.000000
0.471313 0.766785 0.000000
0.489166 0.766785 0.000000
0.507263 0.766785 0.000000
0.526001 0.766785 0.000000
0.545807 0.766785 0.000000
0.566986 0.766785 0.000000
0.589355 0.766785 0.000000
0.613190 0.766785 0.000000
0.638458 0.766785 0.000000
0.665649 0.768799 0.000000
0.693481 0.771454 0.000000
0.721863 0.774628 0.000000
0.750702 0.778168 0.000000
0.780823 0.781982 0.000000
0.811890 0.785248 0.000000
0.843292 0.787903 0.000000
0.874908 0.790619 0.000000
0.906555 0.793518 0.000000
0.938019 0.796478 0.000000
0.969238 0.799591 0.000000
1.000000 0.802795 0.000000
0.000000 0.806122 0.000000
0.121582 0.803101 0.000000
0.211548 0.802765 0.000000
0.262299 0.802765 0.000000
0.295013 0.802765 0.000000
0.328583 0.802765 0.000000
0.355042 0.802765 0.000000
0.377838 0.802765 0.000000
0.398895 0.802765 0.000000
0.419067 0.802765 0.000000
0.438812 0.802765 0.000000
0.458191 0.802765 0.000000
0.477509 0.802765 0.000000
0.497101 0.802765 0.000000
0.517151 0.802765 0.000000
0.538452 0.802765 0.000000
0.561249 0.802765 0.000000
0.585327 0.802765 0.000000
0.611481 0.804413 0.000000
0.638306 0.806824 0.000000
0.665649 0.809631 0.000000
0.693481 0.812683 0.000000
0.722717 0.816132 0.000000
0.753052 0.819061 0.000000
0.783813 0.821259 0.000000
0.815033 0.823669 0.000000
0.846405 0.826172 0.000000
0.877686 0.828705 0.000000
0.908875 0.831421 0.000000
0.939697 0.834076 0.000000
0.970123 0.836823 0.000000
1.000000 0.839630 0.000000
0.000000 0.839844 0.000000
0.109619 0.839844 0.000000
0.180481 0.839844 0.000000
0.236816 0.839844 0.000000
0.279144 0.839844 0.000000
0.311676 0.839844 0.000000
0.338104 0.839844 0.000000
0.361481 0.839844 0.000000
0.383392 0.839844 0.000000
0.404724 0.839844 0.000000
0.425934 0.839844 0.000000
0.446899 0.839844 0.000000
0.468018 0.839844 0.000000
0.489410 0.839844 0.000000
0.511169 0.839844 0.000000
0.534210 0.839844 0.000000
