Avant Garde/Striped Purple - Pendleton.cube
#Created by: Adobe Photoshop Export Color Lookup Plugin
#Copyright: (C) Copyright 2019 Pendleton by Striped Purple - © Austin Barrett All Rights Reserved.
TITLE "Striped Purple - Pendleton"
#LUT size
LUT_3D_SIZE 32
#data domain
DOMAIN_MIN 0.0 0.0 0.0
DOMAIN_MAX 1.0 1.0 1.0
#LUT data points
0.062439 0.059784 0.060852
0.072906 0.063232 0.069489
0.083557 0.066925 0.076385
0.094910 0.069183 0.082306
0.106354 0.071747 0.088379
0.119324 0.073273 0.094025
0.135529 0.070282 0.097656
0.149750 0.072510 0.104309
0.162811 0.077240 0.111725
0.180237 0.078125 0.117157
0.197235 0.081726 0.122681
0.219940 0.081116 0.127014
0.246277 0.074432 0.130188
0.274200 0.074646 0.132904
0.313202 0.073395 0.131805
0.368378 0.065033 0.133789
0.399170 0.062469 0.151794
0.426178 0.062347 0.146271
0.442017 0.061676 0.157227
0.479553 0.063782 0.164764
0.518585 0.066223 0.173126
0.539429 0.067017 0.194397
0.572174 0.069183 0.210815
0.599457 0.070526 0.223999
0.612976 0.070221 0.234680
0.642731 0.071594 0.245605
0.681763 0.073608 0.255798
0.720337 0.075378 0.265289
0.771637 0.077881 0.271057
0.804138 0.078552 0.278259
0.804504 0.076569 0.293488
0.858398 0.078888 0.300140
0.060944 0.073120 0.060822
0.079895 0.077454 0.067596
0.089691 0.071198 0.067749
0.098053 0.059937 0.062653
0.109711 0.059479 0.069031
0.122375 0.065552 0.079163
0.133698 0.072449 0.089172
0.149506 0.071564 0.093262
0.170197 0.062195 0.092102
0.187317 0.062469 0.097778
0.205231 0.064423 0.104370
0.222565 0.074127 0.113525
0.245209 0.077209 0.117950
0.273438 0.074188 0.119995
0.299316 0.063934 0.121338
0.334320 0.063690 0.120850
0.388245 0.062073 0.118988
0.412079 0.068176 0.119385
0.440674 0.070526 0.122711
0.460754 0.066437 0.138214
0.491638 0.063080 0.150085
0.508301 0.063385 0.165833
0.546112 0.066010 0.175690
0.598907 0.070160 0.184998
0.630157 0.071960 0.204193
0.653320 0.072723 0.222015
0.653625 0.070923 0.234314
0.696930 0.073242 0.244293
0.764221 0.077484 0.252167
0.806488 0.078949 0.258118
0.848633 0.080322 0.263000
0.878174 0.080536 0.272858
0.071991 0.093414 0.073395
0.086914 0.096313 0.076141
0.100952 0.097961 0.075928
0.112701 0.092010 0.070374
0.121185 0.080505 0.068726
0.130219 0.072998 0.069763
0.139343 0.067841 0.071533
0.151276 0.070251 0.080109
0.166229 0.068726 0.085083
0.184784 0.066406 0.088226
0.204346 0.064575 0.092010
0.224243 0.064270 0.096771
0.245514 0.064270 0.101624
0.269562 0.065857 0.106262
0.298218 0.065552 0.107880
0.329742 0.063721 0.107758
0.347107 0.064819 0.113861
0.360443 0.067963 0.120239
0.385101 0.067719 0.127838
0.414612 0.067841 0.134644
0.446075 0.070740 0.139130
0.473755 0.073395 0.144653
0.503632 0.069519 0.157501
0.546143 0.068756 0.164612
0.585632 0.067169 0.176239
0.612335 0.068481 0.192596
0.643677 0.069946 0.206451
0.667389 0.070465 0.220245
0.712006 0.072693 0.227356
0.744507 0.073730 0.240479
0.771637 0.074158 0.254547
0.809753 0.075378 0.265015
0.065857 0.109283 0.065704
0.084106 0.111328 0.069183
0.099945 0.112244 0.067993
0.118866 0.114899 0.072723
0.137146 0.116608 0.074493
0.146851 0.102325 0.072021
0.157166 0.091675 0.071716
0.168884 0.078522 0.066071
0.179260 0.072662 0.069336
0.192169 0.066223 0.070404
0.208466 0.067444 0.078491
0.226044 0.067810 0.085083
0.244598 0.064575 0.089264
0.269745 0.067841 0.094177
0.300201 0.069031 0.094788
0.324890 0.063995 0.095428
0.342255 0.066711 0.100861
0.358215 0.076660 0.102539
0.379974 0.079285 0.106934
0.406464 0.076843 0.115265
0.432190 0.073303 0.125519
0.460358 0.075104 0.131439
0.490662 0.083740 0.131287
0.518738 0.088104 0.135193
0.551208 0.078949 0.153534
0.596893 0.076385 0.163025
0.655457 0.073639 0.171051
0.720062 0.075043 0.174286
0.755920 0.076294 0.184326
0.758270 0.074646 0.204254
0.810516 0.077026 0.210480
0.846436 0.078003 0.224945
0.073486 0.128815 0.073975
0.088928 0.130859 0.074310
0.104828 0.132355 0.074036
0.123413 0.134796 0.077454
0.144073 0.139404 0.086914
0.160797 0.140381 0.084625
0.174316 0.129639 0.081421
0.185211 0.114349 0.075592
0.196808 0.101898 0.073120
0.210449 0.091034 0.071594
0.225159 0.084473 0.074982
0.240936 0.074310 0.071899
0.260040 0.067657 0.070862
0.281189 0.065277 0.073700
0.300873 0.060974 0.075836
0.320007 0.063812 0.082153
0.335876 0.065643 0.089722
0.351318 0.064087 0.096710
0.374481 0.068054 0.101562
0.400482 0.073547 0.105591
0.426086 0.072540 0.113129
0.451874 0.070374 0.122345
0.478302 0.073181 0.128571
0.502686 0.071747 0.139587
0.527588 0.069489 0.152588
0.556641 0.073486 0.158569
0.589874 0.075989 0.166077
0.634949 0.079620 0.170654
0.686523 0.082001 0.174988
0.724945 0.078705 0.188080
0.762573 0.078735 0.197571
0.783112 0.076172 0.212799
0.063782 0.147675 0.063110
0.084198 0.149078 0.067047
0.104309 0.150757 0.071014
0.121857 0.151794 0.070465
0.141266 0.153534 0.072296
0.161987 0.156494 0.077576
0.181915 0.158203 0.078583
0.202118 0.156433 0.086090
0.216156 0.139557 0.080475
0.233398 0.134003 0.095154
0.249847 0.122345 0.094238
0.266479 0.106445 0.082458
0.280487 0.088226 0.067200
0.302155 0.076813 0.061584
0.324371 0.073273 0.061218
0.326660 0.070160 0.062836
0.340240 0.068573 0.068939
0.356384 0.078278 0.076019
0.378540 0.075623 0.083344
0.400635 0.069672 0.092896
0.422241 0.069427 0.101685
0.447784 0.075134 0.106232
0.472839 0.071259 0.116638
0.498322 0.073822 0.123688
0.528839 0.085571 0.123779
0.555969 0.087677 0.131317
0.581024 0.081482 0.146423
0.619080 0.093262 0.145294
0.653107 0.095306 0.153137
0.696381 0.090057 0.166687
0.728424 0.086395 0.180481
0.773773 0.091217 0.183655
0.096893 0.167725 0.099487
0.115112 0.171234 0.106506
0.132355 0.175110 0.113129
0.145752 0.179108 0.111877
0.161804 0.182892 0.114227
0.178650 0.186798 0.116913
0.194641 0.189026 0.113678
0.211731 0.189819 0.106567
0.234222 0.190948 0.103424
0.252655 0.169861 0.089661
0.273804 0.156342 0.092712
0.286255 0.136902 0.078705
0.312653 0.123779 0.075104
0.345245 0.112152 0.070038
0.349274 0.098785 0.059967
0.352051 0.090820 0.059448
0.362885 0.089355 0.061371
0.373810 0.081787 0.061523
0.389069 0.078094 0.064545
0.408386 0.084961 0.071381
0.428925 0.090271 0.076874
0.450378 0.093475 0.082184
0.473602 0.095764 0.088013
0.496826 0.097412 0.094727
0.517426 0.102478 0.099030
0.545990 0.104736 0.104279
0.573547 0.107971 0.109406
0.599670 0.112762 0.112823
0.632141 0.116821 0.116943
0.675690 0.116089 0.125580
0.714722 0.118286 0.132050
0.752899 0.120911 0.137054
0.109070 0.186554 0.112976
0.128052 0.190033 0.121948
0.142029 0.194794 0.124451
0.155853 0.199432 0.124969
0.172943 0.203888 0.131714
0.187439 0.208221 0.128754
0.204468 0.212341 0.131134
0.222961 0.217590 0.140015
0.239960 0.222198 0.143066
0.269470 0.225525 0.138519
0.299500 0.209106 0.120697
0.325714 0.185059 0.094116
0.353363 0.166840 0.085236
0.391571 0.150360 0.074554
0.409607 0.138000 0.064056
0.399597 0.131042 0.063171
0.410248 0.122803 0.063599
0.421570 0.115234 0.064117
0.430634 0.105042 0.063690
0.440369 0.097748 0.063995
0.455261 0.089447 0.064484
0.473602 0.087708 0.067932
0.494843 0.089355 0.074280
0.514008 0.092621 0.080658
0.536957 0.095581 0.087402
0.559265 0.099426 0.093872
0.583588 0.100281 0.102600
0.606964 0.105438 0.108551
0.633392 0.107269 0.117340
0.667572 0.112335 0.121063
0.706909 0.112335 0.129791
0.744049 0.113892 0.137909
0.102936 0.209747 0.108063
0.125275 0.213257 0.119110
0.137756 0.217255 0.116791
0.151642 0.220642 0.114166
0.174408 0.225586 0.127319
0.193726 0.230438 0.136169
0.209900 0.235016 0.138428
0.226715 0.237610 0.133759
0.245483 0.241638 0.136292
0.265656 0.246063 0.139648
0.299805 0.247345 0.126984
0.337158 0.238251 0.111298
0.379303 0.212799 0.081238
0.407471 0.192291 0.063354
0.423889 0.180328 0.063416
0.430939 0.167145 0.063110
0.450684 0.156250 0.064026
0.458588 0.144012 0.063660
0.476898 0.136108 0.064850
0.488922 0.127228 0.065247
0.499695 0.116974 0.065338
0.510376 0.107391 0.065399
0.524384 0.096924 0.065643
0.555145 0.085724 0.067291
0.572754 0.083710 0.071838
0.585785 0.090637 0.079071
0.604828 0.091980 0.087402
0.634247 0.096191 0.094940
0.666901 0.098724 0.103241
0.696533 0.097809 0.113464
0.726440 0.103760 0.120056
0.753204 0.106384 0.128815
0.096985 0.233154 0.104706
0.114410 0.236572 0.107697
0.129578 0.239899 0.106049
0.147400 0.243286 0.107513
0.167053 0.246735 0.112091
0.189514 0.251434 0.122101
0.205933 0.253845 0.117371
0.225616 0.257599 0.120392
0.246033 0.260254 0.119904
0.265015 0.260468 0.112762
0.289124 0.264252 0.114075
0.326813 0.266632 0.106476
0.366455 0.266174 0.095490
0.411102 0.241943 0.067108
0.424133 0.221954 0.061310
0.447205 0.207367 0.062195
0.451477 0.189880 0.061188
0.466400 0.176483 0.061584
0.490265 0.166687 0.063049
0.506805 0.155914 0.063751
0.521881 0.145386 0.064331
0.534485 0.133881 0.064606
0.554657 0.125885 0.065857
0.570862 0.115997 0.066528
0.588257 0.106415 0.067261
0.613007 0.096100 0.068451
0.633698 0.080292 0.068207
0.659668 0.078217 0.075043
0.687744 0.083466 0.085022
0.709167 0.083099 0.095154
0.736511 0.084412 0.105316
0.770294 0.091675 0.113953
0.070709 0.259644 0.072998
0.088257 0.261749 0.071655
0.110565 0.263092 0.076996
0.130463 0.265106 0.077484
0.148560 0.266479 0.073700
0.168793 0.268127 0.071899
0.192749 0.270447 0.079163
0.213379 0.271667 0.077179
0.236237 0.273621 0.077087
0.259857 0.275543 0.077881
0.285034 0.277832 0.080200
0.315765 0.282440 0.086487
0.348114 0.283600 0.078308
0.383240 0.284332 0.070038
0.412689 0.267639 0.059875
0.431946 0.248657 0.059143
0.458374 0.233337 0.060425
0.475311 0.217712 0.060852
0.492432 0.203857 0.061493
0.505829 0.190216 0.061707
0.518829 0.176849 0.061890
0.536774 0.165222 0.062653
0.566833 0.157654 0.064728
0.580872 0.145081 0.064819
0.601471 0.133789 0.065491
0.623474 0.122498 0.066254
0.647125 0.110748 0.066864
0.679474 0.102570 0.068756
0.704163 0.090118 0.069214
0.736420 0.078674 0.070404
0.760651 0.076447 0.078156
0.776367 0.078461 0.088928
0.076874 0.284302 0.082520
0.098907 0.286438 0.087830
0.114990 0.289459 0.083984
0.135986 0.291626 0.086823
0.155029 0.293854 0.085144
0.176239 0.296051 0.084961
0.202332 0.300385 0.099640
0.223541 0.303406 0.100189
0.248596 0.308685 0.110962
0.271332 0.312012 0.111664
0.293915 0.311707 0.102112
0.319916 0.310638 0.092163
0.351624 0.314087 0.091309
0.387421 0.317596 0.086151
0.423126 0.317108 0.072083
0.466400 0.310883 0.061615
0.478607 0.288391 0.061462
0.495270 0.269287 0.061829
0.521484 0.254669 0.063202
0.536560 0.238831 0.063629
0.560303 0.226654 0.064850
0.581543 0.213806 0.065826
0.591370 0.199249 0.065521
0.607819 0.186188 0.065887
0.647064 0.179352 0.068481
0.672760 0.168243 0.069458
0.694336 0.155212 0.069824
0.718231 0.141815 0.070190
0.727905 0.126312 0.069214
0.750854 0.115082 0.069702
0.771912 0.103241 0.069977
0.803040 0.091248 0.070923
0.101196 0.309784 0.118408
0.109924 0.314392 0.106323
0.124115 0.317627 0.099609
0.148315 0.321533 0.109741
0.173035 0.325592 0.119385
0.192139 0.329224 0.119141
0.214722 0.333771 0.124878
0.235962 0.337524 0.126068
0.253326 0.338379 0.115112
0.275787 0.341492 0.114258
0.304047 0.346436 0.119080
0.335358 0.350586 0.123627
0.368317 0.355133 0.125763
0.394318 0.353394 0.111328
0.434326 0.357330 0.101044
0.486053 0.361389 0.078796
0.521729 0.359253 0.065125
0.546112 0.338409 0.066040
0.560913 0.317383 0.066223
0.577240 0.298004 0.066559
0.601807 0.282196 0.067627
0.622437 0.266479 0.068298
0.645782 0.252930 0.069244
0.659485 0.237366 0.069122
0.670898 0.221313 0.068817
0.715332 0.213470 0.071320
0.743561 0.201385 0.072296
0.758148 0.186340 0.071930
0.802216 0.177673 0.074219
0.835968 0.166199 0.075470
0.860168 0.153046 0.075867
0.879272 0.142365 0.076233
0.104065 0.338898 0.122284
0.123260 0.343933 0.125732
0.145081 0.348572 0.133759
0.161530 0.353119 0.130981
0.186462 0.358490 0.144470
0.212585 0.364868 0.160675
0.235443 0.370636 0.169922
0.250183 0.373474 0.155334
0.269104 0.377625 0.150726
0.294189 0.384521 0.160461
0.319122 0.385529 0.147217
0.354187 0.392426 0.160736
0.386566 0.394226 0.154449
0.414886 0.396667 0.150665
0.447754 0.401093 0.144867
0.491364 0.402588 0.119049
0.541077 0.403595 0.078400
0.600586 0.410553 0.070801
0.628540 0.395752 0.071808
0.646454 0.373840 0.072083
0.670898 0.355042 0.072876
0.692352 0.336090 0.073364
0.702606 0.314667 0.072937
0.745148 0.303131 0.075073
0.763550 0.285522 0.075043
0.792633 0.270752 0.075897
0.816498 0.256195 0.076385
0.848206 0.243652 0.077454
0.858887 0.227753 0.076904
0.878693 0.214020 0.077057
0.903137 0.200653 0.077576
0.936707 0.188690 0.078674
0.088654 0.370270 0.098389
0.106445 0.374695 0.096222
0.130829 0.377808 0.105164
0.151794 0.381256 0.106903
0.178680 0.386139 0.120483
0.193878 0.388184 0.108063
0.215698 0.391449 0.108337
0.237915 0.394592 0.109772
0.263336 0.399750 0.118591
0.284241 0.400482 0.108856
0.310303 0.402069 0.104523
0.339386 0.405334 0.105896
0.368530 0.407837 0.105225
0.402710 0.411835 0.111725
0.437286 0.418793 0.119812
0.476990 0.428375 0.127869
0.515381 0.428955 0.099396
0.549530 0.425659 0.073608
0.592072 0.431335 0.070007
0.631592 0.428009 0.070770
0.645111 0.403320 0.070312
0.657410 0.379883 0.069824
0.694855 0.364227 0.071350
0.718811 0.345886 0.071747
0.760315 0.333344 0.073578
0.778900 0.313843 0.073425
0.790161 0.294006 0.072723
0.803284 0.276733 0.072296
0.829254 0.262604 0.072876
0.881348 0.255157 0.075500
0.895020 0.238831 0.075104
0.913513 0.223969 0.075073
0.092316 0.401245 0.102814
0.113464 0.406219 0.105377
0.131897 0.409241 0.102295
0.159424 0.413239 0.116058
0.178955 0.416473 0.113831
0.196442 0.418365 0.103973
0.216431 0.420624 0.098969
0.241852 0.424438 0.106354
0.265839 0.428436 0.109070
0.291992 0.432861 0.114471
0.324310 0.441681 0.132355
0.348267 0.439636 0.117828
0.382019 0.445923 0.127655
0.409332 0.444275 0.117279
0.433807 0.441986 0.104431
0.470062 0.449890 0.115173
0.509003 0.457703 0.117126
0.550018 0.460114 0.088409
0.580780 0.458038 0.076019
0.621490 0.463135 0.072815
0.652710 0.462891 0.071472
0.673615 0.440552 0.071228
0.713196 0.426117 0.072601
0.717133 0.397675 0.071106
0.740570 0.377991 0.071198
0.767822 0.360809 0.071655
0.786682 0.341583 0.071503
0.809814 0.324768 0.071747
0.837769 0.309906 0.072357
0.861481 0.294983 0.072693
0.886688 0.280579 0.073212
0.914368 0.267670 0.074310
0.101501 0.433044 0.115662
0.115112 0.438019 0.105042
0.140900 0.441620 0.114014
0.160034 0.444641 0.109711
0.179718 0.447205 0.105103
0.203461 0.450592 0.109131
0.228302 0.454193 0.115021
0.256104 0.459778 0.129486
0.281067 0.463348 0.131622
0.299744 0.462860 0.115540
0.321045 0.463165 0.102417
0.352295 0.470215 0.117859
0.390717 0.478455 0.136597
0.413055 0.473450 0.116302
0.441986 0.474121 0.110321
0.468750 0.475159 0.104279
0.496948 0.476807 0.100647
0.538116 0.484955 0.106232
0.585297 0.492462 0.089355
0.633575 0.498322 0.083344
0.675476 0.502594 0.077576
0.716400 0.507690 0.075562
0.717255 0.481659 0.073547
0.742737 0.461151 0.073395
0.780243 0.446320 0.074280
0.798706 0.423492 0.073669
0.828705 0.407288 0.074219
0.846069 0.386688 0.073853
0.876495 0.372253 0.074585
0.893829 0.352753 0.074310
0.907379 0.334717 0.074127
0.920807 0.318359 0.074310
0.092285 0.465942 0.098663
0.120667 0.468933 0.109161
0.146973 0.471954 0.117859
0.170380 0.476318 0.122223
0.185577 0.479431 0.110687
0.217224 0.484070 0.130890
0.244995 0.489136 0.141937
0.265259 0.490540 0.132660
0.289490 0.493500 0.133728
0.310974 0.494995 0.125641
0.338165 0.499329 0.131500
0.355408 0.497345 0.107697
0.387115 0.501556 0.114929
0.427155 0.509155 0.132843
0.446930 0.503998 0.109833
0.475739 0.506012 0.109131
0.508636 0.510925 0.114594
0.535980 0.511169 0.106262
0.569214 0.513947 0.099792
0.613800 0.519653 0.086731
0.645355 0.520477 0.079742
0.695465 0.528381 0.078247
0.746796 0.538177 0.077087
0.767334 0.526550 0.076477
0.780609 0.498718 0.075104
0.811035 0.482025 0.075256
0.823975 0.457916 0.074127
0.839661 0.435944 0.073364
0.876465 0.424561 0.074402
0.893585 0.405212 0.074097
0.897156 0.381470 0.072937
0.925842 0.371582 0.074463
0.093323 0.498138 0.099792
0.119446 0.502075 0.104919
0.142487 0.504333 0.104797
0.166687 0.507904 0.108185
0.193756 0.511444 0.118591
0.220032 0.515686 0.127960
0.238586 0.516907 0.115479
0.264374 0.521149 0.122009
0.290619 0.522980 0.121826
0.315857 0.525696 0.123749
0.339966 0.532745 0.131500
0.363251 0.534546 0.124420
0.395599 0.538116 0.125671
0.430817 0.542053 0.132660
0.454102 0.536591 0.113495
0.480804 0.537048 0.110657
0.507263 0.539246 0.106628
0.542969 0.544495 0.114288
0.591309 0.556030 0.128571
0.629913 0.560028 0.120758
0.650482 0.553223 0.088409
0.690399 0.557922 0.084167
0.725616 0.559845 0.079163
0.763306 0.563843 0.077545
0.808929 0.570709 0.078888
0.825165 0.542725 0.077637
0.845856 0.521515 0.076996
0.866364 0.500946 0.076324
0.875458 0.474396 0.074799
0.891388 0.455200 0.074341
0.909943 0.439880 0.074402
0.924713 0.422241 0.074249
0.123688 0.530731 0.152313
0.146332 0.537048 0.155243
0.163910 0.540985 0.146149
0.184906 0.544403 0.142822
0.215546 0.551697 0.163574
0.236176 0.556091 0.162476
0.259705 0.563416 0.170837
0.285126 0.572418 0.186218
0.306976 0.578033 0.188477
0.341980 0.588440 0.217926
0.373779 0.605103 0.250702
0.395325 0.626892 0.279572
0.432434 0.628296 0.270752
0.471588 0.618256 0.241791
0.527618 0.612976 0.243347
0.567749 0.617371 0.257080
0.600739 0.622986 0.259583
0.634766 0.626007 0.251617
0.672424 0.630524 0.240936
0.719666 0.635712 0.226898
0.767914 0.640686 0.204437
0.804626 0.647797 0.170410
0.843048 0.652374 0.124298
0.883057 0.660095 0.101166
0.916931 0.668152 0.089233
0.920074 0.658386 0.087311
0.913879 0.622925 0.084564
0.933594 0.602753 0.084229
0.936310 0.574341 0.082672
0.938873 0.547913 0.081238
0.958527 0.536438 0.081970
0.976715 0.528839 0.083069
0.166199 0.565704 0.221039
0.192505 0.573303 0.234894
0.213440 0.581024 0.238739
0.231506 0.590149 0.241119
0.253235 0.599396 0.253448
0.277649 0.608795 0.267487
0.296936 0.618561 0.272430
0.310638 0.629608 0.269775
0.328278 0.634491 0.258667
0.351562 0.643768 0.261963
0.381653 0.657928 0.296021
0.399811 0.656433 0.252197
0.421631 0.670563 0.255981
0.450806 0.675659 0.254364
0.493347 0.662659 0.232513
0.551147 0.654388 0.234924
0.582001 0.647247 0.211487
0.618256 0.651794 0.211029
0.657349 0.656128 0.212006
0.696289 0.659515 0.203461
0.722290 0.656799 0.175018
0.772827 0.668182 0.178925
0.805786 0.671143 0.165039
0.836609 0.674164 0.131470
0.884491 0.686829 0.099396
0.922363 0.697113 0.090088
0.928894 0.687653 0.089142
0.949432 0.689362 0.089966
0.942078 0.650116 0.085968
0.935699 0.610168 0.083160
0.952759 0.596832 0.083679
0.957336 0.569305 0.082214
0.166809 0.600708 0.213226
0.184265 0.609131 0.210419
0.216522 0.617249 0.234192
0.242920 0.625916 0.248688
0.254211 0.632599 0.223907
0.276489 0.643097 0.237732
0.299103 0.653442 0.245178
0.321808 0.661224 0.250671
0.336090 0.671661 0.245056
0.353821 0.673492 0.226227
0.381439 0.684204 0.242310
0.402802 0.688629 0.228699
0.425720 0.704041 0.237488
0.446320 0.706146 0.223297
0.481171 0.706696 0.226135
0.528625 0.695312 0.215027
0.563660 0.672913 0.178040
0.602448 0.677917 0.180603
0.621582 0.672302 0.159821
0.646332 0.670166 0.146240
0.697784 0.678955 0.154297
0.753510 0.693817 0.169708
0.790833 0.699707 0.168182
0.827728 0.706970 0.169769
0.861359 0.711243 0.146057
0.868134 0.699738 0.110657
0.913208 0.713348 0.090881
0.938568 0.730835 0.093170
0.951904 0.737274 0.094177
0.950775 0.701660 0.091095
0.956421 0.671692 0.088562
0.968903 0.657928 0.087738
0.162231 0.645630 0.203461
0.179993 0.652344 0.189667
0.208130 0.659515 0.199768
0.235962 0.667480 0.210876
0.265778 0.677826 0.231354
0.286682 0.678802 0.223572
0.301758 0.686615 0.213715
0.321320 0.697998 0.222382
0.346222 0.713348 0.245361
0.365540 0.725433 0.253876
0.387939 0.727539 0.238586
0.412262 0.736542 0.242920
0.429474 0.738770 0.222473
0.449371 0.743347 0.210541
0.470551 0.746613 0.209259
0.520905 0.743561 0.214264
0.579346 0.720276 0.195343
0.594635 0.710632 0.166046
0.638611 0.719147 0.176697
0.691406 0.730988 0.194153
0.707153 0.721283 0.168030
0.770660 0.738586 0.194489
0.805634 0.744049 0.191772
0.836731 0.748230 0.192322
0.875946 0.758331 0.201660
0.903992 0.760468 0.165649
0.944061 0.772980 0.151947
0.943207 0.767517 0.107239
0.949158 0.770569 0.112640
0.973724 0.803741 0.121216
0.971313 0.769714 0.104492
0.971680 0.732727 0.094330
0.204773 0.688629 0.283997
0.216492 0.699951 0.264374
0.239655 0.709503 0.269562
0.267883 0.719025 0.287537
0.286865 0.727783 0.280914
0.317230 0.735535 0.307404
0.341522 0.745972 0.320587
0.361786 0.755371 0.321045
0.374603 0.775635 0.332001
0.389252 0.789856 0.331848
0.399628 0.792267 0.290527
0.425568 0.805786 0.315369
0.444489 0.807343 0.286865
0.463531 0.826874 0.279663
0.485291 0.839447 0.304382
0.541473 0.816254 0.281738
0.613281 0.795502 0.276184
0.658630 0.793732 0.271027
0.698456 0.791382 0.262482
0.743011 0.789520 0.257690
0.775818 0.790283 0.249695
0.825409 0.798492 0.264893
0.863556 0.807220 0.270996
0.897858 0.816864 0.281433
0.925720 0.822144 0.287384
0.946594 0.824219 0.273163
0.976440 0.832672 0.233734
0.983856 0.842804 0.197418
0.984589 0.848450 0.165192
0.989502 0.864471 0.164124
0.988647 0.868561 0.157440
0.992584 0.867188 0.149780
0.198639 0.737091 0.264832
0.225861 0.746277 0.276703
0.246094 0.755219 0.274139
0.280334 0.765350 0.309692
0.293182 0.773621 0.285553
0.319824 0.783356 0.306519
0.340332 0.792847 0.303772
0.358734 0.799225 0.296722
0.374542 0.818512 0.290527
0.391479 0.838989 0.296692
0.407501 0.851440 0.291840
0.426788 0.851349 0.271179
0.447723 0.855896 0.268463
0.471069 0.879150 0.274994
0.489685 0.888123 0.263214
0.530487 0.869019 0.263885
0.601318 0.846619 0.272400
0.645386 0.828583 0.247925
0.704956 0.833099 0.269684
0.760254 0.834412 0.281738
0.803040 0.835663 0.281464
0.840637 0.838135 0.282654
0.865906 0.843414 0.284088
0.889465 0.847504 0.276642
0.917480 0.853058 0.274719
0.945618 0.858734 0.280731
0.978699 0.868683 0.307739
0.984772 0.878357 0.263000
0.988190 0.884460 0.213623
0.985596 0.890045 0.199310
0.988129 0.901947 0.192291
0.992096 0.921234 0.186188
0.216827 0.781647 0.291870
0.248108 0.789917 0.314911
0.271179 0.799194 0.323639
0.289124 0.809875 0.319550
0.314911 0.818237 0.340027
0.331451 0.828674 0.327240
0.351990 0.838104 0.333618
0.372742 0.850372 0.342041
0.388123 0.866608 0.341125
0.395264 0.880219 0.297485
0.413391 0.896332 0.287109
0.437317 0.913605 0.277405
0.458374 0.925049 0.255005
0.475800 0.924164 0.244598
0.493835 0.930450 0.247498
0.532135 0.931305 0.278320
0.586548 0.889374 0.267395
0.667236 0.876312 0.283173
0.723785 0.878143 0.301819
0.767303 0.878418 0.301849
0.813202 0.875885 0.295929
0.841431 0.875305 0.285095
0.876190 0.882263 0.301422
0.899750 0.885254 0.298370
0.941956 0.896698 0.326385
0.969086 0.902100 0.335114
0.986084 0.906952 0.339020
0.984100 0.909851 0.341339
0.988434 0.916107 0.290436
0.992310 0.927826 0.260864
0.991791 0.942566 0.232361
0.990082 0.950226 0.203491
0.230591 0.826782 0.310638
0.257446 0.836273 0.326904
0.269562 0.844788 0.304962
0.296509 0.853943 0.326233
0.321533 0.862091 0.338165
0.338318 0.870087 0.329712
0.365967 0.880310 0.356445
0.386810 0.888885 0.363281
0.400360 0.902222 0.349792
0.408844 0.918518 0.317932
0.417664 0.933319 0.295044
0.440613 0.948883 0.288055
0.459961 0.951019 0.237427
0.480408 0.957367 0.241943
0.499146 0.962585 0.246643
0.518372 0.972656 0.286713
0.572510 0.958679 0.326019
0.656464 0.929321 0.322662
0.707916 0.910706 0.283905
0.752808 0.909760 0.283325
0.811768 0.913940 0.308746
0.855560 0.912598 0.307526
0.873199 0.912689 0.293823
0.903656 0.919586 0.306885
0.944275 0.928314 0.342316
0.953522 0.925598 0.317352
0.973572 0.931030 0.322327
0.981598 0.939056 0.342316
0.981842 0.937958 0.335541
0.990814 0.949860 0.315216
0.989044 0.963837 0.260406
0.989594 0.973663 0.220490
0.224609 0.870483 0.302032
0.259918 0.878174 0.329010
0.287842 0.885590 0.353363
0.311066 0.893311 0.363892
0.332825 0.902405 0.370758
0.355927 0.909668 0.384491
0.371094 0.919373 0.366180
0.395935 0.927704 0.383087
0.414154 0.936951 0.387268
0.419250 0.952820 0.366547
0.429016 0.969940 0.364288
0.443054 0.988007 0.357513
0.463806 0.990784 0.331238
0.483093 0.990356 0.299225
