Avant Garde/Striped Purple - Veggie Crisps.cube
#Created by: Adobe Photoshop Export Color Lookup Plugin
#Copyright: (C) Copyright 2019 Veggie Crisps by Striped Purple - © Austin Barrett All Rights Reserved.
TITLE "Veggie Crisps"
#LUT size
LUT_3D_SIZE 32
#data domain
DOMAIN_MIN 0.0 0.0 0.0
DOMAIN_MAX 1.0 1.0 1.0
#LUT data points
0.164703 0.164703 0.164703
0.171112 0.162537 0.162537
0.178802 0.159882 0.159882
0.187927 0.156799 0.156799
0.198486 0.153290 0.153290
0.210388 0.149353 0.149353
0.223785 0.145050 0.145050
0.238678 0.140472 0.140472
0.255035 0.135651 0.135651
0.273041 0.130768 0.130768
0.292603 0.125946 0.125946
0.313934 0.121338 0.121338
0.337097 0.117157 0.117157
0.362183 0.113617 0.113617
0.389435 0.110901 0.110901
0.418884 0.109161 0.109161
0.450348 0.108337 0.108337
0.484131 0.108398 0.108398
0.520081 0.109253 0.109253
0.557922 0.110748 0.110748
0.597626 0.112823 0.112823
0.639038 0.115204 0.115204
0.681915 0.117645 0.117645
0.726044 0.119904 0.119904
0.770966 0.121460 0.121460
0.816406 0.121979 0.121979
0.861755 0.120819 0.120819
0.906525 0.117371 0.117371
0.950348 0.111267 0.111267
0.993652 0.102875 0.102875
1.000000 0.108490 0.108490
1.000000 0.115997 0.115997
0.157379 0.171997 0.157379
0.163666 0.170044 0.154846
0.171295 0.167664 0.151825
0.180298 0.164886 0.148315
0.190674 0.161621 0.144287
0.202423 0.157990 0.139893
0.215668 0.154083 0.135193
0.230316 0.149872 0.130188
0.246399 0.145477 0.125000
0.264008 0.140961 0.119751
0.283203 0.136536 0.114624
0.304047 0.132324 0.109772
0.326721 0.128540 0.105408
0.351257 0.125305 0.101715
0.377808 0.122864 0.098877
0.406738 0.121368 0.097015
0.438019 0.120667 0.096039
0.471344 0.120819 0.095978
0.506805 0.121735 0.096710
0.544312 0.123291 0.098145
0.583740 0.125397 0.100128
0.624908 0.127808 0.102448
0.667633 0.130280 0.104858
0.711609 0.132568 0.107056
0.756561 0.134247 0.108643
0.801941 0.134827 0.109100
0.847412 0.133820 0.107971
0.892273 0.130524 0.104492
0.935822 0.124634 0.098419
0.978912 0.116425 0.089996
1.000000 0.115784 0.090088
1.000000 0.123260 0.099091
0.148346 0.181091 0.148346
0.154510 0.179504 0.145386
0.161957 0.177429 0.141876
0.170837 0.174957 0.137878
0.181030 0.172028 0.133423
0.192596 0.168762 0.128601
0.205597 0.165161 0.123474
0.219971 0.161255 0.118134
0.235779 0.157196 0.112701
0.253082 0.153015 0.107269
0.271942 0.148895 0.102081
0.292389 0.144928 0.097198
0.314453 0.141327 0.092804
0.338654 0.138275 0.089081
0.365082 0.135925 0.086182
0.393646 0.134430 0.084259
0.424500 0.133759 0.083252
0.457489 0.133911 0.083130
0.492706 0.134857 0.083862
0.529968 0.136414 0.085266
0.569122 0.138489 0.087158
0.610138 0.140930 0.089447
0.652649 0.143433 0.091797
0.696564 0.145813 0.093964
0.741516 0.147614 0.095520
0.786865 0.148407 0.095947
0.831696 0.147614 0.094788
0.875732 0.144623 0.091400
0.919281 0.139038 0.085419
0.963013 0.130890 0.076904
1.000000 0.123871 0.070129
1.000000 0.131256 0.080902
0.137512 0.192322 0.137512
0.143524 0.191071 0.134064
0.150848 0.189301 0.130096
0.159576 0.187134 0.125671
0.169739 0.184540 0.120941
0.181152 0.181549 0.115814
0.194000 0.178223 0.110504
0.208221 0.174561 0.105072
0.223816 0.170654 0.099579
0.240845 0.166656 0.094208
0.259308 0.162659 0.089081
0.279480 0.158813 0.084259
0.301483 0.155182 0.079834
0.325409 0.152130 0.076172
0.351501 0.149811 0.073334
0.379852 0.148315 0.071472
0.410400 0.147614 0.070435
0.443115 0.147705 0.070282
0.478027 0.148621 0.070953
0.515045 0.150177 0.072296
0.554016 0.152283 0.074158
0.594818 0.154785 0.076355
0.637268 0.157440 0.078644
0.680969 0.159973 0.080688
0.724823 0.161926 0.082092
0.768707 0.162933 0.082520
0.812958 0.162445 0.081482
0.857452 0.159851 0.078339
0.901978 0.154480 0.072388
0.946899 0.146332 0.063660
0.993195 0.135864 0.052612
1.000000 0.140350 0.061615
0.125153 0.205811 0.125153
0.131104 0.204803 0.121307
0.138458 0.203400 0.117065
0.147186 0.201477 0.112427
0.157288 0.199066 0.107513
0.168701 0.196228 0.102325
0.181458 0.193024 0.097046
0.195587 0.189362 0.091705
0.210938 0.185577 0.086395
0.227814 0.181580 0.081146
0.246338 0.177582 0.076141
0.266357 0.173676 0.071411
0.288177 0.170105 0.067200
0.311829 0.166992 0.063568
0.337708 0.164642 0.060822
0.365753 0.163055 0.058899
0.396027 0.162323 0.057861
0.428467 0.162415 0.057678
0.463135 0.163300 0.058258
0.499878 0.164948 0.059509
0.538574 0.167114 0.061218
0.579163 0.169800 0.063293
0.620148 0.172577 0.065338
0.661835 0.175201 0.067230
0.704407 0.177338 0.068665
0.748199 0.178619 0.069214
0.793274 0.178497 0.068359
0.839142 0.176208 0.065338
0.886414 0.170868 0.059235
0.933167 0.162628 0.050201
0.979523 0.152191 0.038940
1.000000 0.151062 0.041718
0.111816 0.221588 0.111816
0.117920 0.220825 0.107819
0.125397 0.219543 0.103455
0.134216 0.217712 0.098785
0.144440 0.215332 0.093964
0.155945 0.212494 0.089020
0.168671 0.209290 0.083984
0.182739 0.205627 0.078827
0.198242 0.201752 0.073700
0.215057 0.197693 0.068634
0.233398 0.193634 0.063812
0.253296 0.189697 0.059265
0.274902 0.186066 0.055145
0.298340 0.182892 0.051575
0.323914 0.180481 0.048798
0.351685 0.178894 0.046875
0.381622 0.178162 0.045746
0.413757 0.178284 0.045441
0.448090 0.179291 0.045868
0.484436 0.181061 0.046906
0.521606 0.183441 0.048401
0.559601 0.186096 0.050201
0.598755 0.188904 0.052124
0.639832 0.191650 0.054016
0.682831 0.194092 0.055573
0.727875 0.195709 0.056305
0.776642 0.195953 0.055634
0.825653 0.193726 0.052460
0.873383 0.188446 0.046204
0.920105 0.180389 0.037140
0.966400 0.170166 0.025818
1.000000 0.163788 0.021393
0.098358 0.239685 0.098358
0.104797 0.238953 0.094452
0.112549 0.237640 0.090240
0.121643 0.235718 0.085846
0.132019 0.233246 0.081329
0.143555 0.230316 0.076599
0.156464 0.226929 0.071777
0.170624 0.223236 0.066925
0.185974 0.219208 0.061981
0.202789 0.215088 0.057159
0.220947 0.210938 0.052460
0.240631 0.206970 0.048004
0.261993 0.203278 0.043915
0.285217 0.200165 0.040405
0.310455 0.197784 0.037567
0.337830 0.196198 0.035492
0.367432 0.195618 0.034241
0.399078 0.195923 0.033722
0.431793 0.197113 0.033905
0.465302 0.198914 0.034698
0.500275 0.201202 0.035980
0.536987 0.203857 0.037628
0.576202 0.206818 0.039581
0.618225 0.209778 0.041534
0.665466 0.212677 0.043365
0.714874 0.214661 0.044250
0.764557 0.215088 0.043549
0.813538 0.213074 0.040344
0.861267 0.208038 0.034088
0.907990 0.200134 0.024872
0.955292 0.189972 0.013214
1.000000 0.179321 0.001312
0.085754 0.259827 0.085754
0.092621 0.258911 0.082153
0.100708 0.257416 0.078278
0.110016 0.255341 0.074188
0.120636 0.252686 0.069946
0.132324 0.249573 0.065521
0.145203 0.246033 0.060944
0.159302 0.242157 0.056274
0.174652 0.238129 0.051605
0.191254 0.233948 0.046906
0.209229 0.229797 0.042297
0.228668 0.225861 0.037903
0.249756 0.222260 0.033813
0.272552 0.219208 0.030182
0.297363 0.216949 0.027191
0.324432 0.215668 0.025024
0.352356 0.215363 0.023560
0.381104 0.215820 0.022888
0.411255 0.216888 0.022858
0.443207 0.218628 0.023468
0.477753 0.220856 0.024567
0.515198 0.223663 0.026215
0.558807 0.227020 0.028381
0.606049 0.230530 0.030701
0.654633 0.233643 0.032532
0.704071 0.235870 0.033447
0.753693 0.236481 0.032684
0.802887 0.234772 0.029480
0.853882 0.229523 0.022583
0.902313 0.221405 0.012817
0.947815 0.211792 0.001465
0.976227 0.207062 0.000031
0.074951 0.281830 0.074951
0.082123 0.280670 0.071625
0.090485 0.278900 0.068054
0.100006 0.276581 0.064270
0.110657 0.273712 0.060272
0.122406 0.270447 0.056122
0.135254 0.266785 0.051758
0.149261 0.262878 0.047272
0.164429 0.258820 0.042725
0.180786 0.254669 0.038086
0.198486 0.250671 0.033539
0.217621 0.246857 0.029114
0.238342 0.243500 0.024963
0.260742 0.240723 0.021210
0.284088 0.238953 0.018158
0.308258 0.237915 0.015930
0.333557 0.237671 0.014435
0.360474 0.238007 0.013550
0.389893 0.239014 0.013306
0.422150 0.240692 0.013733
0.460938 0.243195 0.014954
0.504211 0.246490 0.016907
0.549622 0.250153 0.019196
0.596863 0.253906 0.021515
0.645508 0.257324 0.023407
0.695099 0.259857 0.024323
0.750397 0.260712 0.023407
0.804504 0.258514 0.019348
0.855011 0.252899 0.011841
0.901215 0.245056 0.002075
0.932831 0.240112 0.000031
0.957336 0.236542 0.000031
0.066193 0.305695 0.066193
0.073669 0.304230 0.063202
0.082153 0.302185 0.059906
0.091797 0.299622 0.056396
0.102448 0.296600 0.052612
0.114075 0.293243 0.048615
0.126801 0.289551 0.044403
0.140625 0.285706 0.040039
0.155487 0.281769 0.035522
0.171631 0.277863 0.030945
0.188995 0.274139 0.026398
0.207733 0.270752 0.021912
0.227234 0.268005 0.017853
0.247040 0.265839 0.014343
0.267761 0.264221 0.011414
0.290100 0.263214 0.009094
0.314392 0.262848 0.007385
0.341492 0.263062 0.006287
0.374664 0.264099 0.005890
0.412872 0.266022 0.006378
0.453735 0.268829 0.007751
0.497009 0.272369 0.009705
0.542511 0.276367 0.012085
0.589844 0.280487 0.014496
0.646332 0.284668 0.016724
0.704468 0.287415 0.017487
0.761017 0.287750 0.015808
0.813812 0.284790 0.010773
0.861328 0.279053 0.002899
0.896851 0.274261 0.000031
0.923584 0.270721 0.000031
0.945953 0.267853 0.000031
0.059937 0.331512 0.059937
0.067505 0.329742 0.057159
0.076050 0.327484 0.054077
0.085602 0.324799 0.050720
0.096130 0.321747 0.047089
0.107605 0.318420 0.043213
0.120117 0.314911 0.039124
0.133636 0.311310 0.034790
0.148285 0.307770 0.030365
0.164093 0.304321 0.025818
0.180450 0.301392 0.021454
0.196869 0.298737 0.017395
0.214020 0.296417 0.013702
0.232025 0.294495 0.010345
0.251831 0.292847 0.007324
0.273743 0.291718 0.004730
0.301422 0.291046 0.002563
0.334137 0.291168 0.001221
0.369598 0.292358 0.000824
0.407928 0.294647 0.001434
0.448853 0.297760 0.002869
0.492249 0.301666 0.004944
0.546906 0.306702 0.007904
0.605621 0.311737 0.010864
0.665894 0.315887 0.012878
0.724670 0.318146 0.012909
0.779053 0.317535 0.010040
0.828186 0.313965 0.004089
0.867645 0.309662 0.000031
0.896851 0.306396 0.000031
0.920929 0.303619 0.000031
0.941101 0.301575 0.000031
0.056030 0.359344 0.056030
0.063538 0.357361 0.053375
0.071991 0.355072 0.050446
0.081360 0.352356 0.047180
0.091675 0.349457 0.043640
0.102905 0.346405 0.039856
0.115204 0.343323 0.035858
0.128448 0.340240 0.031616
0.142212 0.337555 0.027435
0.156128 0.334991 0.023407
0.170227 0.332611 0.019562
0.185059 0.330444 0.015900
0.201141 0.328278 0.012299
0.218842 0.326324 0.008820
0.241272 0.324188 0.005157
0.268463 0.322510 0.001892
0.298431 0.321808 0.000031
0.330963 0.322083 0.000031
0.366394 0.323700 0.000031
0.404846 0.326355 0.000031
0.455627 0.330505 0.000702
0.512787 0.335754 0.003723
0.573608 0.341461 0.007172
0.634888 0.346527 0.009979
0.694946 0.350159 0.011200
0.750519 0.351379 0.009979
0.800751 0.349854 0.005859
0.844208 0.346313 0.000031
0.875488 0.343506 0.000031
0.901398 0.341064 0.000031
0.922943 0.339233 0.000031
0.941589 0.337463 0.000031
0.054047 0.389069 0.054047
0.061401 0.387115 0.051483
0.069702 0.384949 0.048676
0.078857 0.382538 0.045532
0.088959 0.380096 0.042114
0.099945 0.377625 0.038452
0.111511 0.375336 0.034668
0.123138 0.373199 0.030975
0.134949 0.371155 0.027405
0.147308 0.369080 0.023834
0.160400 0.367096 0.020294
0.174866 0.364899 0.016571
0.193054 0.362305 0.012390
0.215424 0.359558 0.007965
0.240143 0.357300 0.004028
0.267395 0.355865 0.000824
0.297516 0.355316 0.000031
0.330170 0.355896 0.000031
0.374969 0.358215 0.000031
0.428406 0.362305 0.000031
0.486938 0.367554 0.001862
0.548828 0.373535 0.005463
0.611389 0.379395 0.008820
0.671539 0.383972 0.010895
0.728027 0.386627 0.010864
0.778412 0.386902 0.008362
0.822601 0.384857 0.003387
0.858368 0.382202 0.000031
0.885590 0.380219 0.000031
0.907318 0.378174 0.000031
0.927277 0.376495 0.000031
0.946106 0.375122 0.000031
0.053741 0.420898 0.053741
0.060944 0.419250 0.051331
0.068970 0.417511 0.048615
0.077911 0.415680 0.045593
0.087524 0.414124 0.042450
0.097198 0.412537 0.039276
0.107147 0.410919 0.036133
0.117310 0.409332 0.032959
0.128021 0.407684 0.029724
0.139832 0.405792 0.026276
0.154694 0.403412 0.022247
0.173157 0.400330 0.017517
0.193573 0.397491 0.012909
0.216034 0.394989 0.008575
0.240784 0.392975 0.004669
0.268188 0.391937 0.001617
0.307098 0.391510 0.000031
0.354431 0.392792 0.000031
0.409027 0.396484 0.000031
0.468872 0.401825 0.002045
0.530701 0.407898 0.005646
0.593384 0.414215 0.009308
0.653381 0.419525 0.011932
0.709656 0.423309 0.012817
0.760162 0.425018 0.011505
0.803772 0.424591 0.007996
0.841400 0.422821 0.002930
0.869476 0.420624 0.000031
0.892822 0.418762 0.000031
0.914307 0.417114 0.000031
0.934265 0.415710 0.000031
0.953125 0.414459 0.000031
0.054932 0.455170 0.054932
0.061920 0.454163 0.052673
0.069611 0.453247 0.050171
0.077667 0.452209 0.047577
0.085846 0.451202 0.044952
0.094238 0.450165 0.042328
0.103058 0.448975 0.039551
0.112579 0.447723 0.036652
0.124481 0.445709 0.033020
0.139740 0.443115 0.028687
0.156555 0.440308 0.024109
0.175110 0.437500 0.019470
0.195587 0.434906 0.014923
0.218140 0.432709 0.010681
0.250458 0.430237 0.005951
0.291992 0.428955 0.002258
0.341125 0.429749 0.000641
0.396057 0.432831 0.001251
0.456024 0.437866 0.003723
0.518341 0.444214 0.007355
0.579926 0.450714 0.011139
0.639618 0.456665 0.014160
0.694366 0.461182 0.015686
0.743866 0.464111 0.015381
0.786774 0.465210 0.013153
0.819763 0.464294 0.009735
0.850037 0.462708 0.005402
0.878204 0.460571 0.000336
0.901428 0.458984 0.000031
0.922638 0.457489 0.000031
0.942657 0.456116 0.000031
0.961639 0.454803 0.000031
0.057465 0.492310 0.057465
0.063904 0.491913 0.055450
0.070587 0.491455 0.053375
0.077454 0.490906 0.051239
0.084534 0.490326 0.049042
0.092102 0.489655 0.046722
0.101532 0.488403 0.043823
0.113770 0.486389 0.040070
0.127472 0.484070 0.036011
0.142761 0.481659 0.031708
0.159637 0.479126 0.027191
0.178284 0.476593 0.022644
0.205261 0.473114 0.016846
0.240570 0.469604 0.010925
0.282806 0.467468 0.006409
0.332550 0.467743 0.004150
0.388306 0.470612 0.004395
0.447388 0.475464 0.006622
0.508942 0.481781 0.010132
0.569305 0.488495 0.013947
0.627441 0.494843 0.017212
0.680908 0.500122 0.019257
0.728088 0.503876 0.019714
0.765198 0.505341 0.018707
0.798706 0.505737 0.016479
0.829590 0.505127 0.013123
0.858398 0.503845 0.008881
0.885468 0.502075 0.004028
0.910431 0.500092 0.000031
0.931458 0.498474 0.000031
0.951385 0.496826 0.000031
0.970367 0.495300 0.000031
0.061035 0.531311 0.061035
0.066498 0.531311 0.059418
0.072052 0.531281 0.057739
0.077942 0.531097 0.055969
0.085052 0.530609 0.053802
0.094482 0.529449 0.050903
0.105316 0.527924 0.047607
0.117645 0.526154 0.043945
0.131378 0.524017 0.039917
0.146698 0.521820 0.035645
0.169098 0.518280 0.029785
0.198669 0.513763 0.022919
0.235077 0.509552 0.016266
0.278320 0.506897 0.011078
0.327637 0.506714 0.008362
0.382996 0.509338 0.008270
0.441864 0.514130 0.010254
0.501282 0.520294 0.013550
0.560333 0.527191 0.017365
0.616058 0.533813 0.020721
0.666412 0.539398 0.023041
0.706818 0.542725 0.023987
0.743439 0.545105 0.023926
0.777618 0.546600 0.022736
0.809296 0.547089 0.020386
0.838715 0.546539 0.016998
0.866394 0.545410 0.012848
0.892487 0.543671 0.008087
0.917358 0.541473 0.002960
0.939880 0.539307 0.000031
0.959625 0.537262 0.000031
0.978546 0.535156 0.000031
0.065186 0.571259 0.065186
0.069519 0.571655 0.063965
0.074554 0.571930 0.062561
0.081268 0.571594 0.060547
0.089325 0.570892 0.058075
0.098785 0.569885 0.055206
0.109619 0.568481 0.051910
0.121979 0.566925 0.048279
0.140045 0.563904 0.043030
0.165009 0.559448 0.036194
0.195862 0.554413 0.028717
0.232452 0.549774 0.021667
0.275696 0.546661 0.015961
0.325195 0.546265 0.012878
0.378998 0.548553 0.012451
0.436279 0.553162 0.014160
0.494171 0.559265 0.017212
0.549927 0.565979 0.020782
0.602478 0.572662 0.024109
0.645233 0.577148 0.026367
0.684570 0.580963 0.027832
0.721558 0.584137 0.028473
0.756134 0.586426 0.028137
0.788513 0.587799 0.026733
0.818756 0.588196 0.024292
0.846985 0.587585 0.020874
0.873627 0.586243 0.016663
0.898926 0.584290 0.011932
0.923096 0.581818 0.006836
0.946350 0.579041 0.001495
0.966736 0.576263 0.000031
0.985382 0.573486 0.000031
0.069611 0.611786 0.069611
0.073578 0.612366 0.068481
0.078949 0.612579 0.066956
0.085663 0.612366 0.064941
0.093750 0.611816 0.062500
0.103241 0.610962 0.059662
0.117371 0.608856 0.055328
0.137726 0.605133 0.049255
0.163147 0.600250 0.042053
0.194489 0.594910 0.034271
0.231506 0.589935 0.026733
0.273895 0.586548 0.020782
0.322388 0.585846 0.017365
0.375153 0.587921 0.016571
0.429565 0.592163 0.017883
0.484528 0.597992 0.020569
0.537292 0.604584 0.023865
0.581604 0.609467 0.026642
0.622803 0.614105 0.029053
0.661804 0.618286 0.030884
0.698944 0.622040 0.032104
0.733948 0.625000 0.032440
0.766815 0.627045 0.031860
0.797821 0.628174 0.030304
0.826782 0.628235 0.027649
0.854065 0.627289 0.024139
0.879883 0.625580 0.019897
0.904510 0.623260 0.015167
0.928040 0.620300 0.010040
0.950714 0.616974 0.004669
0.972260 0.613373 0.000031
0.990692 0.609863 0.000031
0.073792 0.652496 0.073792
0.077789 0.653168 0.072693
0.083130 0.653473 0.071136
0.089844 0.653381 0.069122
0.100159 0.652344 0.065918
0.115662 0.649750 0.061096
0.136322 0.645721 0.054749
0.162292 0.640594 0.047241
0.193176 0.635010 0.039246
0.229767 0.629852 0.031525
0.271667 0.626190 0.025208
0.318024 0.625122 0.021423
0.368500 0.626801 0.020172
0.420502 0.630707 0.021027
0.471405 0.636078 0.023254
0.516663 0.640686 0.025787
0.558777 0.645325 0.028381
0.599457 0.650055 0.030884
0.638367 0.654541 0.032990
0.675354 0.658508 0.034576
0.710602 0.661896 0.035431
0.744019 0.664490 0.035492
0.775574 0.666168 0.034698
0.805359 0.666809 0.032898
0.833374 0.666412 0.030090
0.859802 0.664948 0.026428
0.884949 0.662720 0.022095
0.908905 0.659760 0.017273
0.931976 0.656342 0.012177
0.954102 0.652405 0.006805
0.975403 0.648071 0.001373
0.994141 0.643799 0.000031
0.077362 0.692932 0.077362
0.081329 0.693695 0.076233
0.087738 0.693787 0.074280
0.098541 0.692566 0.070862
0.114075 0.689819 0.065857
0.134430 0.685638 0.059448
0.160095 0.680389 0.051819
0.190857 0.674652 0.043610
0.226135 0.669250 0.035706
0.266510 0.665314 0.029083
0.311157 0.663818 0.024780
0.358276 0.664886 0.022980
0.406616 0.668243 0.023224
0.451050 0.671570 0.024628
0.493652 0.675598 0.026733
0.535065 0.680084 0.029144
0.575012 0.684662 0.031586
0.613556 0.689148 0.033783
0.650574 0.693329 0.035614
0.685913 0.696899 0.036896
0.719696 0.699829 0.037476
0.751862 0.701935 0.037292
0.782379 0.703064 0.036255
0.811218 0.703156 0.034210
0.838409 0.702087 0.031189
0.864227 0.700073 0.027435
0.888763 0.697174 0.022980
0.912262 0.693604 0.018127
0.934723 0.689514 0.012970
0.956238 0.685028 0.007660
0.976959 0.680237 0.002319
0.995850 0.675568 0.000031
0.079834 0.732697 0.079834
0.085571 0.733002 0.078033
0.095581 0.731781 0.074707
0.110565 0.729004 0.069763
0.130676 0.724823 0.063293
0.155457 0.719452 0.055634
0.185333 0.713562 0.047302
0.219666 0.707977 0.039154
0.257690 0.703583 0.032166
0.299530 0.701477 0.027222
0.343567 0.701935 0.024719
0.386230 0.703186 0.024170
0.428101 0.705688 0.024902
0.469238 0.709137 0.026489
0.509705 0.713226 0.028564
0.549103 0.717590 0.030823
0.587219 0.721924 0.033051
0.624115 0.726044 0.035004
0.659637 0.729767 0.036560
0.693695 0.732849 0.037567
0.726349 0.735199 0.037872
0.757568 0.736725 0.037445
0.787170 0.737183 0.036133
0.815338 0.736542 0.033875
0.841949 0.734833 0.030731
0.867279 0.732147 0.026825
0.891266 0.728668 0.022339
0.914124 0.724579 0.017517
0.936005 0.720062 0.012451
0.956940 0.715210 0.007202
0.977203 0.710236 0.001984
0.995575 0.705322 0.000031
0.080658 0.771088 0.080658
0.089752 0.770050 0.077545
0.103821 0.767303 0.072723
0.123138 0.763062 0.066284
0.147308 0.757629 0.058533
0.175720 0.751556 0.050110
0.208435 0.745728 0.041748
0.244476 0.740875 0.034271
0.282806 0.737946 0.028625
0.322815 0.736359 0.025269
0.362854 0.736542 0.023895
0.403198 0.738251 0.023865
0.443298 0.741119 0.024872
0.482635 0.744598 0.026489
0.521362 0.748535 0.028473
0.559174 0.752625 0.030579
0.595825 0.756531 0.032562
0.631409 0.760193 0.034271
0.665833 0.763367 0.035583
0.698914 0.765869 0.036346
0.730774 0.767609 0.036438
0.761322 0.768433 0.035767
0.790375 0.768250 0.034271
0.818024 0.766937 0.031830
0.844055 0.764526 0.028534
0.868713 0.761292 0.024597
0.892059 0.757324 0.020142
0.914307 0.752930 0.015381
0.935608 0.748138 0.010376
0.956085 0.743195 0.005249
0.975891 0.738190 0.000153
0.993347 0.733215 0.000031
0.079407 0.807251 0.079407
0.092621 0.804626 0.074707
0.110931 0.800323 0.068329
0.134064 0.794769 0.060547
0.161377 0.788513 0.051941
0.192017 0.782288 0.043335
0.225494 0.776917 0.035370
0.261719 0.772095 0.028931
0.299042 0.769104 0.024536
0.337524 0.768250 0.022125
0.376190 0.769012 0.021271
0.415039 0.770996 0.021545
0.453613 0.773865 0.022644
0.491547 0.777222 0.024261
0.528931 0.780853 0.026123
0.565521 0.784576 0.028076
0.601166 0.788025 0.029907
0.635864 0.791168 0.031433
0.669525 0.793762 0.032532
0.702026 0.795654 0.033112
0.733368 0.796783 0.033020
0.763397 0.796936 0.032166
0.792023 0.796082 0.030487
0.818909 0.794128 0.027924
0.844238 0.791290 0.024628
0.868225 0.787689 0.020691
0.890961 0.783508 0.016296
0.912689 0.778961 0.011597
0.933472 0.774109 0.006653
0.953522 0.769196 0.001648
0.971893 0.764221 0.000031
0.988983 0.759338 0.000031
0.075623 0.840698 0.075623
0.093109 0.836334 0.069244
0.115204 0.830627 0.061462
0.141174 0.824127 0.052704
0.170105 0.817474 0.043701
0.202637 0.810394 0.035156
0.237396 0.804291 0.027802
0.273132 0.800201 0.022339
0.309570 0.798065 0.018768
0.346985 0.797760 0.016937
0.384521 0.798798 0.016449
0.422211 0.800842 0.016907
0.459625 0.803558 0.018066
0.496552 0.806671 0.019684
0.532990 0.809937 0.021454
0.568787 0.813202 0.023285
0.603760 0.816162 0.024963
0.637970 0.818787 0.026367
0.671234 0.820831 0.027344
0.703400 0.822144 0.027771
0.734375 0.822662 0.027557
0.763702 0.822235 0.026581
0.791473 0.820892 0.024811
0.817627 0.818542 0.022186
0.842255 0.815399 0.018860
0.865631 0.811615 0.014923
0.887878 0.807404 0.010620
0.909088 0.802795 0.005951
0.929474 0.798065 0.001129
0.948120 0.793060 0.000031
0.965576 0.788147 0.000031
0.982330 0.783478 0.000031
0.069000 0.870911 0.069000
0.090363 0.865051 0.061127
0.115143 0.858215 0.052246
0.144318 0.850067 0.042755
0.176575 0.841766 0.033356
0.209991 0.834778 0.025208
0.244354 0.829468 0.018616
0.279327 0.826080 0.013947
0.315277 0.824493 0.011017
0.351868 0.824493 0.009644
0.388580 0.825562 0.009399
0.425476 0.827545 0.010040
0.462189 0.830109 0.011292
0.498474 0.832916 0.012909
0.534454 0.835846 0.014679
0.569885 0.838715 0.016479
0.604645 0.841278 0.018158
0.638641 0.843384 0.019470
0.671600 0.844940 0.020386
0.703217 0.845764 0.020721
0.733307 0.845795 0.020386
0.761841 0.844971 0.019318
0.788879 0.843262 0.017456
0.814392 0.840729 0.014801
0.838409 0.837463 0.011444
0.861267 0.833649 0.007568
0.882996 0.829437 0.003265
0.903534 0.824829 0.000031
0.922363 0.819855 0.000031
0.940338 0.815002 0.000031
0.957336 0.810211 0.000031
0.973663 0.805756 0.000031
0.059845 0.898102 0.059845
0.085114 0.890259 0.050842
0.114532 0.881134 0.040833
0.146332 0.872101 0.030792
0.179382 0.864014 0.021637
0.212921 0.857391 0.013947
0.247070 0.852600 0.007996
0.281677 0.849670 0.003967
0.317200 0.848480 0.001617
0.353333 0.848602 0.000610
0.389587 0.849701 0.000641
0.426056 0.851532 0.001434
0.462494 0.853882 0.002808
0.498627 0.856476 0.004547
0.534485 0.859100 0.006378
0.569977 0.861633 0.008240
0.604614 0.863800 0.009888
0.638123 0.865509 0.011169
0.670227 0.866638 0.011993
0.701080 0.867096 0.012238
0.730408 0.866821 0.011810
0.758270 0.865784 0.010681
0.784637 0.863892 0.008728
0.809509 0.861237 0.006012
0.833008 0.857941 0.002655
0.855164 0.853973 0.000031
0.875732 0.849365 0.000031
0.895142 0.844574 0.000031
0.913574 0.839844 0.000031
0.931061 0.835144 0.000031
0.947662 0.830566 0.000031
0.963501 0.826233 0.000031
0.049408 0.921661 0.049408
0.079376 0.911957 0.038910
0.111572 0.902008 0.028107
0.144867 0.892639 0.017853
0.178558 0.884644 0.008972
0.212524 0.878357 0.001740
0.248779 0.872162 0.000031
0.284912 0.868134 0.000031
0.320801 0.866455 0.000031
0.356659 0.866547 0.000031
0.392303 0.868042 0.000031
0.428040 0.870361 0.000031
0.463806 0.873230 0.000031
0.499390 0.876343 0.000031
