Avant Garde/Striped Purple - Cherry Champagne.cube
#Created by: Adobe Photoshop Export Color Lookup Plugin
#Copyright: (C) Copyright 2019 Cherry Champagne by Striped Purple © Austin Barrett All rights reserved.
TITLE "Cherry Champagne"
#LUT size
LUT_3D_SIZE 32
#data domain
DOMAIN_MIN 0.0 0.0 0.0
DOMAIN_MAX 1.0 1.0 1.0
#LUT data points
0.176880 0.334869 0.398224
0.216339 0.334869 0.398224
0.255371 0.334869 0.398224
0.293762 0.334869 0.398224
0.331451 0.334869 0.398224
0.368256 0.334869 0.398224
0.404053 0.334869 0.398224
0.438721 0.334869 0.398224
0.472168 0.334869 0.398224
0.504272 0.334869 0.398224
0.535034 0.334869 0.398224
0.564331 0.334869 0.398224
0.592163 0.334869 0.398224
0.618530 0.334869 0.398224
0.643524 0.334869 0.398224
0.667145 0.334869 0.398224
0.689636 0.334869 0.398224
0.710968 0.334869 0.398224
0.731262 0.334869 0.398224
0.750671 0.334869 0.398224
0.769348 0.334869 0.398224
0.787292 0.334869 0.398224
0.804657 0.334869 0.398224
0.821503 0.334869 0.398224
0.837891 0.334869 0.398224
0.853851 0.334869 0.398224
0.869446 0.334869 0.398224
0.884827 0.334869 0.398224
0.899963 0.334869 0.398224
0.914886 0.334869 0.398224
0.929688 0.334869 0.398224
0.944427 0.334869 0.398224
0.176880 0.348694 0.398224
0.216339 0.348694 0.398224
0.255371 0.348694 0.398224
0.293762 0.348694 0.398224
0.331451 0.348694 0.398224
0.368256 0.348694 0.398224
0.404053 0.348694 0.398224
0.438721 0.348694 0.398224
0.472168 0.348694 0.398224
0.504272 0.348694 0.398224
0.535034 0.348694 0.398224
0.564331 0.348694 0.398224
0.592163 0.348694 0.398224
0.618530 0.348694 0.398224
0.643524 0.348694 0.398224
0.667145 0.348694 0.398224
0.689636 0.348694 0.398224
0.710968 0.348694 0.398224
0.731262 0.348694 0.398224
0.750671 0.348694 0.398224
0.769348 0.348694 0.398224
0.787292 0.348694 0.398224
0.804657 0.348694 0.398224
0.821503 0.348694 0.398224
0.837891 0.348694 0.398224
0.853851 0.348694 0.398224
0.869446 0.348694 0.398224
0.884827 0.348694 0.398224
0.899963 0.348694 0.398224
0.914886 0.348694 0.398224
0.929688 0.348694 0.398224
0.944427 0.348694 0.398224
0.176880 0.362610 0.398224
0.216339 0.362610 0.398224
0.255371 0.362610 0.398224
0.293762 0.362610 0.398224
0.331451 0.362610 0.398224
0.368256 0.362610 0.398224
0.404053 0.362610 0.398224
0.438721 0.362610 0.398224
0.472168 0.362610 0.398224
0.504272 0.362610 0.398224
0.535034 0.362610 0.398224
0.564331 0.362610 0.398224
0.592163 0.362610 0.398224
0.618530 0.362610 0.398224
0.643524 0.362610 0.398224
0.667145 0.362610 0.398224
0.689636 0.362610 0.398224
0.710968 0.362610 0.398224
0.731262 0.362610 0.398224
0.750671 0.362610 0.398224
0.769348 0.362610 0.398224
0.787292 0.362610 0.398224
0.804657 0.362610 0.398224
0.821503 0.362610 0.398224
0.837891 0.362610 0.398224
0.853851 0.362610 0.398224
0.869446 0.362610 0.398224
0.884827 0.362610 0.398224
0.899963 0.362610 0.398224
0.914886 0.362610 0.398224
0.929688 0.362610 0.398224
0.944427 0.362610 0.398224
0.176880 0.376617 0.398224
0.216339 0.376617 0.398224
0.255371 0.376617 0.398224
0.293762 0.376617 0.398224
0.331451 0.376617 0.398224
0.368256 0.376617 0.398224
0.404053 0.376617 0.398224
0.438721 0.376617 0.398224
0.472168 0.376617 0.398224
0.504272 0.376617 0.398224
0.535034 0.376617 0.398224
0.564331 0.376617 0.398224
0.592163 0.376617 0.398224
0.618530 0.376617 0.398224
0.643524 0.376617 0.398224
0.667145 0.376617 0.398224
0.689636 0.376617 0.398224
0.710968 0.376617 0.398224
0.731262 0.376617 0.398224
0.750671 0.376617 0.398224
0.769348 0.376617 0.398224
0.787292 0.376617 0.398224
0.804657 0.376617 0.398224
0.821503 0.376617 0.398224
0.837891 0.376617 0.398224
0.853851 0.376617 0.398224
0.869446 0.376617 0.398224
0.884827 0.376617 0.398224
0.899963 0.376617 0.398224
0.914886 0.376617 0.398224
0.929688 0.376617 0.398224
0.944427 0.376617 0.398224
0.176880 0.390930 0.398224
0.216339 0.390930 0.398224
0.255371 0.390930 0.398224
0.293762 0.390930 0.398224
0.331451 0.390930 0.398224
0.368256 0.390930 0.398224
0.404053 0.390930 0.398224
0.438721 0.390930 0.398224
0.472168 0.390930 0.398224
0.504272 0.390930 0.398224
0.535034 0.390930 0.398224
0.564331 0.390930 0.398224
0.592163 0.390930 0.398224
0.618530 0.390930 0.398224
0.643524 0.390930 0.398224
0.667145 0.390930 0.398224
0.689636 0.390930 0.398224
0.710968 0.390930 0.398224
0.731262 0.390930 0.398224
0.750671 0.390930 0.398224
0.769348 0.390930 0.398224
0.787292 0.390930 0.398224
0.804657 0.390930 0.398224
0.821503 0.390930 0.398224
0.837891 0.390930 0.398224
0.853851 0.390930 0.398224
0.869446 0.390930 0.398224
0.884827 0.390930 0.398224
0.899963 0.390930 0.398224
0.914886 0.390930 0.398224
0.929688 0.390930 0.398224
0.944427 0.390930 0.398224
0.176880 0.405365 0.398224
0.216339 0.405365 0.398224
0.255371 0.405365 0.398224
0.293762 0.405365 0.398224
0.331451 0.405365 0.398224
0.368256 0.405365 0.398224
0.404053 0.405365 0.398224
0.438721 0.405365 0.398224
0.472168 0.405365 0.398224
0.504272 0.405365 0.398224
0.535034 0.405365 0.398224
0.564331 0.405365 0.398224
0.592163 0.405365 0.398224
0.618530 0.405365 0.398224
0.643524 0.405365 0.398224
0.667145 0.405365 0.398224
0.689636 0.405365 0.398224
0.710968 0.405365 0.398224
0.731262 0.405365 0.398224
0.750671 0.405365 0.398224
0.769348 0.405365 0.398224
0.787292 0.405365 0.398224
0.804657 0.405365 0.398224
0.821503 0.405365 0.398224
0.837891 0.405365 0.398224
0.853851 0.405365 0.398224
0.869446 0.405365 0.398224
0.884827 0.405365 0.398224
0.899963 0.405365 0.398224
0.914886 0.405365 0.398224
0.929688 0.405365 0.398224
0.944427 0.405365 0.398224
0.176880 0.420105 0.398224
0.216339 0.420105 0.398224
0.255371 0.420105 0.398224
0.293762 0.420105 0.398224
0.331451 0.420105 0.398224
0.368256 0.420105 0.398224
0.404053 0.420105 0.398224
0.438721 0.420105 0.398224
0.472168 0.420105 0.398224
0.504272 0.420105 0.398224
0.535034 0.420105 0.398224
0.564331 0.420105 0.398224
0.592163 0.420105 0.398224
0.618530 0.420105 0.398224
0.643524 0.420105 0.398224
0.667145 0.420105 0.398224
0.689636 0.420105 0.398224
0.710968 0.420105 0.398224
0.731262 0.420105 0.398224
0.750671 0.420105 0.398224
0.769348 0.420105 0.398224
0.787292 0.420105 0.398224
0.804657 0.420105 0.398224
0.821503 0.420105 0.398224
0.837891 0.420105 0.398224
0.853851 0.420105 0.398224
0.869446 0.420105 0.398224
0.884827 0.420105 0.398224
0.899963 0.420105 0.398224
0.914886 0.420105 0.398224
0.929688 0.420105 0.398224
0.944427 0.420105 0.398224
0.176880 0.435089 0.398224
0.216339 0.435089 0.398224
0.255371 0.435089 0.398224
0.293762 0.435089 0.398224
0.331451 0.435089 0.398224
0.368256 0.435089 0.398224
0.404053 0.435089 0.398224
0.438721 0.435089 0.398224
0.472168 0.435089 0.398224
0.504272 0.435089 0.398224
0.535034 0.435089 0.398224
0.564331 0.435089 0.398224
0.592163 0.435089 0.398224
0.618530 0.435089 0.398224
0.643524 0.435089 0.398224
0.667145 0.435089 0.398224
0.689636 0.435089 0.398224
0.710968 0.435089 0.398224
0.731262 0.435089 0.398224
0.750671 0.435089 0.398224
0.769348 0.435089 0.398224
0.787292 0.435089 0.398224
0.804657 0.435089 0.398224
0.821503 0.435089 0.398224
0.837891 0.435089 0.398224
0.853851 0.435089 0.398224
0.869446 0.435089 0.398224
0.884827 0.435089 0.398224
0.899963 0.435089 0.398224
0.914886 0.435089 0.398224
0.929688 0.435089 0.398224
0.944427 0.435089 0.398224
0.176880 0.450378 0.398224
0.216339 0.450378 0.398224
0.255371 0.450378 0.398224
0.293762 0.450378 0.398224
0.331451 0.450378 0.398224
0.368256 0.450378 0.398224
0.404053 0.450378 0.398224
0.438721 0.450378 0.398224
0.472168 0.450378 0.398224
0.504272 0.450378 0.398224
0.535034 0.450378 0.398224
0.564331 0.450378 0.398224
0.592163 0.450378 0.398224
0.618530 0.450378 0.398224
0.643524 0.450378 0.398224
0.667145 0.450378 0.398224
0.689636 0.450378 0.398224
0.710968 0.450378 0.398224
0.731262 0.450378 0.398224
0.750671 0.450378 0.398224
0.769348 0.450378 0.398224
0.787292 0.450378 0.398224
0.804657 0.450378 0.398224
0.821503 0.450378 0.398224
0.837891 0.450378 0.398224
0.853851 0.450378 0.398224
0.869446 0.450378 0.398224
0.884827 0.450378 0.398224
0.899963 0.450378 0.398224
0.914886 0.450378 0.398224
0.929688 0.450378 0.398224
0.944427 0.450378 0.398224
0.176880 0.466034 0.398224
0.216339 0.466034 0.398224
0.255371 0.466034 0.398224
0.293762 0.466034 0.398224
0.331451 0.466034 0.398224
0.368256 0.466034 0.398224
0.404053 0.466034 0.398224
0.438721 0.466034 0.398224
0.472168 0.466034 0.398224
0.504272 0.466034 0.398224
0.535034 0.466034 0.398224
0.564331 0.466034 0.398224
0.592163 0.466034 0.398224
0.618530 0.466034 0.398224
0.643524 0.466034 0.398224
0.667145 0.466034 0.398224
0.689636 0.466034 0.398224
0.710968 0.466034 0.398224
0.731262 0.466034 0.398224
0.750671 0.466034 0.398224
0.769348 0.466034 0.398224
0.787292 0.466034 0.398224
0.804657 0.466034 0.398224
0.821503 0.466034 0.398224
0.837891 0.466034 0.398224
0.853851 0.466034 0.398224
0.869446 0.466034 0.398224
0.884827 0.466034 0.398224
0.899963 0.466034 0.398224
0.914886 0.466034 0.398224
0.929688 0.466034 0.398224
0.944427 0.466034 0.398224
0.176880 0.482086 0.398224
0.216339 0.482086 0.398224
0.255371 0.482086 0.398224
0.293762 0.482086 0.398224
0.331451 0.482086 0.398224
0.368256 0.482086 0.398224
0.404053 0.482086 0.398224
0.438721 0.482086 0.398224
0.472168 0.482086 0.398224
0.504272 0.482086 0.398224
0.535034 0.482086 0.398224
0.564331 0.482086 0.398224
0.592163 0.482086 0.398224
0.618530 0.482086 0.398224
0.643524 0.482086 0.398224
0.667145 0.482086 0.398224
0.689636 0.482086 0.398224
0.710968 0.482086 0.398224
0.731262 0.482086 0.398224
0.750671 0.482086 0.398224
0.769348 0.482086 0.398224
0.787292 0.482086 0.398224
0.804657 0.482086 0.398224
0.821503 0.482086 0.398224
0.837891 0.482086 0.398224
0.853851 0.482086 0.398224
0.869446 0.482086 0.398224
0.884827 0.482086 0.398224
0.899963 0.482086 0.398224
0.914886 0.482086 0.398224
0.929688 0.482086 0.398224
0.944427 0.482086 0.398224
0.176880 0.498505 0.398224
0.216339 0.498505 0.398224
0.255371 0.498505 0.398224
0.293762 0.498505 0.398224
0.331451 0.498505 0.398224
0.368256 0.498505 0.398224
0.404053 0.498505 0.398224
0.438721 0.498505 0.398224
0.472168 0.498505 0.398224
0.504272 0.498505 0.398224
0.535034 0.498505 0.398224
0.564331 0.498505 0.398224
0.592163 0.498505 0.398224
0.618530 0.498505 0.398224
0.643524 0.498505 0.398224
0.667145 0.498505 0.398224
0.689636 0.498505 0.398224
0.710968 0.498505 0.398224
0.731262 0.498505 0.398224
0.750671 0.498505 0.398224
0.769348 0.498505 0.398224
0.787292 0.498505 0.398224
0.804657 0.498505 0.398224
0.821503 0.498505 0.398224
0.837891 0.498505 0.398224
0.853851 0.498505 0.398224
0.869446 0.498505 0.398224
0.884827 0.498505 0.398224
0.899963 0.498505 0.398224
0.914886 0.498505 0.398224
0.929688 0.498505 0.398224
0.944427 0.498505 0.398224
0.176880 0.515442 0.398224
0.216339 0.515442 0.398224
0.255371 0.515442 0.398224
0.293762 0.515442 0.398224
0.331451 0.515442 0.398224
0.368256 0.515442 0.398224
0.404053 0.515442 0.398224
0.438721 0.515442 0.398224
0.472168 0.515442 0.398224
0.504272 0.515442 0.398224
0.535034 0.515442 0.398224
0.564331 0.515442 0.398224
0.592163 0.515442 0.398224
0.618530 0.515442 0.398224
0.643524 0.515442 0.398224
0.667145 0.515442 0.398224
0.689636 0.515442 0.398224
0.710968 0.515442 0.398224
0.731262 0.515442 0.398224
0.750671 0.515442 0.398224
0.769348 0.515442 0.398224
0.787292 0.515442 0.398224
0.804657 0.515442 0.398224
0.821503 0.515442 0.398224
0.837891 0.515442 0.398224
0.853851 0.515442 0.398224
0.869446 0.515442 0.398224
0.884827 0.515442 0.398224
0.899963 0.515442 0.398224
0.914886 0.515442 0.398224
0.929688 0.515442 0.398224
0.944427 0.515442 0.398224
0.176880 0.532867 0.398224
0.216339 0.532867 0.398224
0.255371 0.532867 0.398224
0.293762 0.532867 0.398224
0.331451 0.532867 0.398224
0.368256 0.532867 0.398224
0.404053 0.532867 0.398224
0.438721 0.532867 0.398224
0.472168 0.532867 0.398224
0.504272 0.532867 0.398224
0.535034 0.532867 0.398224
0.564331 0.532867 0.398224
0.592163 0.532867 0.398224
0.618530 0.532867 0.398224
0.643524 0.532867 0.398224
0.667145 0.532867 0.398224
0.689636 0.532867 0.398224
0.710968 0.532867 0.398224
0.731262 0.532867 0.398224
0.750671 0.532867 0.398224
0.769348 0.532867 0.398224
0.787292 0.532867 0.398224
0.804657 0.532867 0.398224
0.821503 0.532867 0.398224
0.837891 0.532867 0.398224
0.853851 0.532867 0.398224
0.869446 0.532867 0.398224
0.884827 0.532867 0.398224
0.899963 0.532867 0.398224
0.914886 0.532867 0.398224
0.929688 0.532867 0.398224
0.944427 0.532867 0.398224
0.176880 0.550903 0.398224
0.216339 0.550903 0.398224
0.255371 0.550903 0.398224
0.293762 0.550903 0.398224
0.331451 0.550903 0.398224
0.368256 0.550903 0.398224
0.404053 0.550903 0.398224
0.438721 0.550903 0.398224
0.472168 0.550903 0.398224
0.504272 0.550903 0.398224
0.535034 0.550903 0.398224
0.564331 0.550903 0.398224
0.592163 0.550903 0.398224
0.618530 0.550903 0.398224
0.643524 0.550903 0.398224
0.667145 0.550903 0.398224
0.689636 0.550903 0.398224
0.710968 0.550903 0.398224
0.731262 0.550903 0.398224
0.750671 0.550903 0.398224
0.769348 0.550903 0.398224
0.787292 0.550903 0.398224
0.804657 0.550903 0.398224
0.821503 0.550903 0.398224
0.837891 0.550903 0.398224
0.853851 0.550903 0.398224
0.869446 0.550903 0.398224
0.884827 0.550903 0.398224
0.899963 0.550903 0.398224
0.914886 0.550903 0.398224
0.929688 0.550903 0.398224
0.944427 0.550903 0.398224
0.176880 0.569489 0.398224
0.216339 0.569489 0.398224
0.255371 0.569489 0.398224
0.293762 0.569489 0.398224
0.331451 0.569489 0.398224
0.368256 0.569489 0.398224
0.404053 0.569489 0.398224
0.438721 0.569489 0.398224
0.472168 0.569489 0.398224
0.504272 0.569489 0.398224
0.535034 0.569489 0.398224
0.564331 0.569489 0.398224
0.592163 0.569489 0.398224
0.618530 0.569489 0.398224
0.643524 0.569489 0.398224
0.667145 0.569489 0.398224
0.689636 0.569489 0.398224
0.710968 0.569489 0.398224
0.731262 0.569489 0.398224
0.750671 0.569489 0.398224
0.769348 0.569489 0.398224
0.787292 0.569489 0.398224
0.804657 0.569489 0.398224
0.821503 0.569489 0.398224
0.837891 0.569489 0.398224
0.853851 0.569489 0.398224
0.869446 0.569489 0.398224
0.884827 0.569489 0.398224
0.899963 0.569489 0.398224
0.914886 0.569489 0.398224
0.929688 0.569489 0.398224
0.944427 0.569489 0.398224
0.176880 0.588745 0.398224
0.216339 0.588745 0.398224
0.255371 0.588745 0.398224
0.293762 0.588745 0.398224
0.331451 0.588745 0.398224
0.368256 0.588745 0.398224
0.404053 0.588745 0.398224
0.438721 0.588745 0.398224
0.472168 0.588745 0.398224
0.504272 0.588745 0.398224
0.535034 0.588745 0.398224
0.564331 0.588745 0.398224
0.592163 0.588745 0.398224
0.618530 0.588745 0.398224
0.643524 0.588745 0.398224
0.667145 0.588745 0.398224
0.689636 0.588745 0.398224
0.710968 0.588745 0.398224
0.731262 0.588745 0.398224
0.750671 0.588745 0.398224
0.769348 0.588745 0.398224
0.787292 0.588745 0.398224
0.804657 0.588745 0.398224
0.821503 0.588745 0.398224
0.837891 0.588745 0.398224
0.853851 0.588745 0.398224
0.869446 0.588745 0.398224
0.884827 0.588745 0.398224
0.899963 0.588745 0.398224
0.914886 0.588745 0.398224
0.929688 0.588745 0.398224
0.944427 0.588745 0.398224
0.176880 0.608582 0.398224
0.216339 0.608582 0.398224
0.255371 0.608582 0.398224
0.293762 0.608582 0.398224
0.331451 0.608582 0.398224
0.368256 0.608582 0.398224
0.404053 0.608582 0.398224
0.438721 0.608582 0.398224
0.472168 0.608582 0.398224
0.504272 0.608582 0.398224
0.535034 0.608582 0.398224
0.564331 0.608582 0.398224
0.592163 0.608582 0.398224
0.618530 0.608582 0.398224
0.643524 0.608582 0.398224
0.667145 0.608582 0.398224
0.689636 0.608582 0.398224
0.710968 0.608582 0.398224
0.731262 0.608582 0.398224
0.750671 0.608582 0.398224
0.769348 0.608582 0.398224
0.787292 0.608582 0.398224
0.804657 0.608582 0.398224
0.821503 0.608582 0.398224
0.837891 0.608582 0.398224
0.853851 0.608582 0.398224
0.869446 0.608582 0.398224
0.884827 0.608582 0.398224
0.899963 0.608582 0.398224
0.914886 0.608582 0.398224
0.929688 0.608582 0.398224
0.944427 0.608582 0.398224
0.176880 0.629028 0.398224
0.216339 0.629028 0.398224
0.255371 0.629028 0.398224
0.293762 0.629028 0.398224
0.331451 0.629028 0.398224
0.368256 0.629028 0.398224
0.404053 0.629028 0.398224
0.438721 0.629028 0.398224
0.472168 0.629028 0.398224
0.504272 0.629028 0.398224
0.535034 0.629028 0.398224
0.564331 0.629028 0.398224
0.592163 0.629028 0.398224
0.618530 0.629028 0.398224
0.643524 0.629028 0.398224
0.667145 0.629028 0.398224
0.689636 0.629028 0.398224
0.710968 0.629028 0.398224
0.731262 0.629028 0.398224
0.750671 0.629028 0.398224
0.769348 0.629028 0.398224
0.787292 0.629028 0.398224
0.804657 0.629028 0.398224
0.821503 0.629028 0.398224
0.837891 0.629028 0.398224
0.853851 0.629028 0.398224
0.869446 0.629028 0.398224
0.884827 0.629028 0.398224
0.899963 0.629028 0.398224
0.914886 0.629028 0.398224
0.929688 0.629028 0.398224
0.944427 0.629028 0.398224
0.176880 0.650055 0.398224
0.216339 0.650055 0.398224
0.255371 0.650055 0.398224
0.293762 0.650055 0.398224
0.331451 0.650055 0.398224
0.368256 0.650055 0.398224
0.404053 0.650055 0.398224
0.438721 0.650055 0.398224
0.472168 0.650055 0.398224
0.504272 0.650055 0.398224
0.535034 0.650055 0.398224
0.564331 0.650055 0.398224
0.592163 0.650055 0.398224
0.618530 0.650055 0.398224
0.643524 0.650055 0.398224
0.667145 0.650055 0.398224
0.689636 0.650055 0.398224
0.710968 0.650055 0.398224
0.731262 0.650055 0.398224
0.750671 0.650055 0.398224
0.769348 0.650055 0.398224
0.787292 0.650055 0.398224
0.804657 0.650055 0.398224
0.821503 0.650055 0.398224
0.837891 0.650055 0.398224
0.853851 0.650055 0.398224
0.869446 0.650055 0.398224
0.884827 0.650055 0.398224
0.899963 0.650055 0.398224
0.914886 0.650055 0.398224
0.929688 0.650055 0.398224
0.944427 0.650055 0.398224
0.176880 0.671600 0.398224
0.216339 0.671600 0.398224
0.255371 0.671600 0.398224
0.293762 0.671600 0.398224
0.331451 0.671600 0.398224
0.368256 0.671600 0.398224
0.404053 0.671600 0.398224
0.438721 0.671600 0.398224
0.472168 0.671600 0.398224
0.504272 0.671600 0.398224
0.535034 0.671600 0.398224
0.564331 0.671600 0.398224
0.592163 0.671600 0.398224
0.618530 0.671600 0.398224
0.643524 0.671600 0.398224
0.667145 0.671600 0.398224
0.689636 0.671600 0.398224
0.710968 0.671600 0.398224
0.731262 0.671600 0.398224
0.750671 0.671600 0.398224
0.769348 0.671600 0.398224
0.787292 0.671600 0.398224
0.804657 0.671600 0.398224
0.821503 0.671600 0.398224
0.837891 0.671600 0.398224
0.853851 0.671600 0.398224
0.869446 0.671600 0.398224
0.884827 0.671600 0.398224
0.899963 0.671600 0.398224
0.914886 0.671600 0.398224
0.929688 0.671600 0.398224
0.944427 0.671600 0.398224
0.176880 0.693665 0.398224
0.216339 0.693665 0.398224
0.255371 0.693665 0.398224
0.293762 0.693665 0.398224
0.331451 0.693665 0.398224
0.368256 0.693665 0.398224
0.404053 0.693665 0.398224
0.438721 0.693665 0.398224
0.472168 0.693665 0.398224
0.504272 0.693665 0.398224
0.535034 0.693665 0.398224
0.564331 0.693665 0.398224
0.592163 0.693665 0.398224
0.618530 0.693665 0.398224
0.643524 0.693665 0.398224
0.667145 0.693665 0.398224
0.689636 0.693665 0.398224
0.710968 0.693665 0.398224
0.731262 0.693665 0.398224
0.750671 0.693665 0.398224
0.769348 0.693665 0.398224
0.787292 0.693665 0.398224
0.804657 0.693665 0.398224
0.821503 0.693665 0.398224
0.837891 0.693665 0.398224
0.853851 0.693665 0.398224
0.869446 0.693665 0.398224
0.884827 0.693665 0.398224
0.899963 0.693665 0.398224
0.914886 0.693665 0.398224
0.929688 0.693665 0.398224
0.944427 0.693665 0.398224
0.176880 0.716278 0.398224
0.216339 0.716278 0.398224
0.255371 0.716278 0.398224
0.293762 0.716278 0.398224
0.331451 0.716278 0.398224
0.368256 0.716278 0.398224
0.404053 0.716278 0.398224
0.438721 0.716278 0.398224
0.472168 0.716278 0.398224
0.504272 0.716278 0.398224
0.535034 0.716278 0.398224
0.564331 0.716278 0.398224
0.592163 0.716278 0.398224
0.618530 0.716278 0.398224
0.643524 0.716278 0.398224
0.667145 0.716278 0.398224
0.689636 0.716278 0.398224
0.710968 0.716278 0.398224
0.731262 0.716278 0.398224
0.750671 0.716278 0.398224
0.769348 0.716278 0.398224
0.787292 0.716278 0.398224
0.804657 0.716278 0.398224
0.821503 0.716278 0.398224
0.837891 0.716278 0.398224
0.853851 0.716278 0.398224
0.869446 0.716278 0.398224
0.884827 0.716278 0.398224
0.899963 0.716278 0.398224
0.914886 0.716278 0.398224
0.929688 0.716278 0.398224
0.944427 0.716278 0.398224
0.176880 0.739319 0.398224
0.216339 0.739319 0.398224
0.255371 0.739319 0.398224
0.293762 0.739319 0.398224
0.331451 0.739319 0.398224
0.368256 0.739319 0.398224
0.404053 0.739319 0.398224
0.438721 0.739319 0.398224
0.472168 0.739319 0.398224
0.504272 0.739319 0.398224
0.535034 0.739319 0.398224
0.564331 0.739319 0.398224
0.592163 0.739319 0.398224
0.618530 0.739319 0.398224
0.643524 0.739319 0.398224
0.667145 0.739319 0.398224
0.689636 0.739319 0.398224
0.710968 0.739319 0.398224
0.731262 0.739319 0.398224
0.750671 0.739319 0.398224
0.769348 0.739319 0.398224
0.787292 0.739319 0.398224
0.804657 0.739319 0.398224
0.821503 0.739319 0.398224
0.837891 0.739319 0.398224
0.853851 0.739319 0.398224
0.869446 0.739319 0.398224
0.884827 0.739319 0.398224
0.899963 0.739319 0.398224
0.914886 0.739319 0.398224
0.929688 0.739319 0.398224
0.944427 0.739319 0.398224
0.176880 0.762756 0.398224
0.216339 0.762756 0.398224
0.255371 0.762756 0.398224
0.293762 0.762756 0.398224
0.331451 0.762756 0.398224
0.368256 0.762756 0.398224
0.404053 0.762756 0.398224
0.438721 0.762756 0.398224
0.472168 0.762756 0.398224
0.504272 0.762756 0.398224
0.535034 0.762756 0.398224
0.564331 0.762756 0.398224
0.592163 0.762756 0.398224
0.618530 0.762756 0.398224
0.643524 0.762756 0.398224
0.667145 0.762756 0.398224
0.689636 0.762756 0.398224
0.710968 0.762756 0.398224
0.731262 0.762756 0.398224
0.750671 0.762756 0.398224
0.769348 0.762756 0.398224
0.787292 0.762756 0.398224
0.804657 0.762756 0.398224
0.821503 0.762756 0.398224
0.837891 0.762756 0.398224
0.853851 0.762756 0.398224
0.869446 0.762756 0.398224
0.884827 0.762756 0.398224
0.899963 0.762756 0.398224
0.914886 0.762756 0.398224
0.929688 0.762756 0.398224
0.944427 0.762756 0.398224
0.176880 0.786621 0.398224
0.216339 0.786621 0.398224
0.255371 0.786621 0.398224
0.293762 0.786621 0.398224
0.331451 0.786621 0.398224
0.368256 0.786621 0.398224
0.404053 0.786621 0.398224
0.438721 0.786621 0.398224
0.472168 0.786621 0.398224
0.504272 0.786621 0.398224
0.535034 0.786621 0.398224
0.564331 0.786621 0.398224
0.592163 0.786621 0.398224
0.618530 0.786621 0.398224
0.643524 0.786621 0.398224
0.667145 0.786621 0.398224
0.689636 0.786621 0.398224
0.710968 0.786621 0.398224
0.731262 0.786621 0.398224
0.750671 0.786621 0.398224
0.769348 0.786621 0.398224
0.787292 0.786621 0.398224
0.804657 0.786621 0.398224
0.821503 0.786621 0.398224
0.837891 0.786621 0.398224
0.853851 0.786621 0.398224
0.869446 0.786621 0.398224
0.884827 0.786621 0.398224
0.899963 0.786621 0.398224
0.914886 0.786621 0.398224
0.929688 0.786621 0.398224
0.944427 0.786621 0.398224
0.176880 0.810760 0.398224
0.216339 0.810760 0.398224
0.255371 0.810760 0.398224
0.293762 0.810760 0.398224
0.331451 0.810760 0.398224
0.368256 0.810760 0.398224
0.404053 0.810760 0.398224
0.438721 0.810760 0.398224
0.472168 0.810760 0.398224
0.504272 0.810760 0.398224
0.535034 0.810760 0.398224
0.564331 0.810760 0.398224
0.592163 0.810760 0.398224
0.618530 0.810760 0.398224
0.643524 0.810760 0.398224
0.667145 0.810760 0.398224
0.689636 0.810760 0.398224
0.710968 0.810760 0.398224
0.731262 0.810760 0.398224
0.750671 0.810760 0.398224
0.769348 0.810760 0.398224
0.787292 0.810760 0.398224
0.804657 0.810760 0.398224
0.821503 0.810760 0.398224
0.837891 0.810760 0.398224
0.853851 0.810760 0.398224
0.869446 0.810760 0.398224
0.884827 0.810760 0.398224
0.899963 0.810760 0.398224
0.914886 0.810760 0.398224
0.929688 0.810760 0.398224
0.944427 0.810760 0.398224
0.176880 0.835236 0.398224
0.216339 0.835236 0.398224
0.255371 0.835236 0.398224
0.293762 0.835236 0.398224
0.331451 0.835236 0.398224
0.368256 0.835236 0.398224
0.404053 0.835236 0.398224
0.438721 0.835236 0.398224
0.472168 0.835236 0.398224
0.504272 0.835236 0.398224
0.535034 0.835236 0.398224
0.564331 0.835236 0.398224
0.592163 0.835236 0.398224
0.618530 0.835236 0.398224
