Avant Garde/Striped Purple - Polaroid Mint Cream.cube
#Created by: Adobe Photoshop Export Color Lookup Plugin
#Copyright: (C) Copyright 2019 Polaroid Mint Cream by Striped Purple - © Austin Barrett All Rights Reserved.
TITLE "Striped Purple - Polaroid Mint Cream"
#LUT size
LUT_3D_SIZE 32
#data domain
DOMAIN_MIN 0.0 0.0 0.0
DOMAIN_MAX 1.0 1.0 1.0
#LUT data points
0.333954 0.319550 0.326660
0.337280 0.319733 0.326813
0.341248 0.319977 0.327026
0.346252 0.320282 0.327301
0.352997 0.320770 0.327698
0.361877 0.321442 0.328247
0.373627 0.322449 0.329102
0.388794 0.323944 0.330383
0.407898 0.326141 0.332214
0.431519 0.329285 0.334869
0.459869 0.333649 0.338531
0.492126 0.339203 0.343201
0.527374 0.346100 0.348999
0.564667 0.354004 0.355621
0.603058 0.362762 0.362976
0.641602 0.372162 0.370850
0.679535 0.381866 0.378998
0.715973 0.391632 0.387177
0.750305 0.401215 0.395172
0.782043 0.410309 0.402802
0.810608 0.418732 0.409821
0.835510 0.426208 0.416046
0.856842 0.432709 0.421448
0.875061 0.438293 0.426117
0.890503 0.443054 0.430084
0.903564 0.447144 0.433472
0.914581 0.450623 0.436371
0.923981 0.453613 0.438812
0.932007 0.456116 0.440887
0.939026 0.458344 0.442749
0.945374 0.460358 0.444427
0.951385 0.462280 0.446014
0.334503 0.322571 0.327057
0.337860 0.322754 0.327240
0.341766 0.322968 0.327423
0.346741 0.323273 0.327698
0.353455 0.323700 0.328064
0.362274 0.324371 0.328644
0.373932 0.325317 0.329468
0.389069 0.326721 0.330719
0.408142 0.328827 0.332550
0.431702 0.331818 0.335175
0.459991 0.335999 0.338837
0.492249 0.341370 0.343475
0.527466 0.348022 0.349243
0.564728 0.355682 0.355835
0.603119 0.364288 0.363190
0.641663 0.373505 0.371033
0.679596 0.383057 0.379150
0.716003 0.392731 0.387329
0.750336 0.402191 0.395325
0.782074 0.411255 0.402924
0.810638 0.419617 0.409912
0.835571 0.427002 0.416138
0.856903 0.433441 0.421539
0.875092 0.439056 0.426208
0.890533 0.443817 0.430176
0.903564 0.447876 0.433563
0.914612 0.451294 0.436432
0.923981 0.454254 0.438904
0.932007 0.456757 0.440979
0.939056 0.459015 0.442841
0.945404 0.460999 0.444489
0.951385 0.462921 0.446106
0.335205 0.326080 0.327545
0.338501 0.326263 0.327698
0.342407 0.326477 0.327911
0.347351 0.326752 0.328156
0.353943 0.327148 0.328552
0.362732 0.327759 0.329102
0.374329 0.328674 0.329926
0.389404 0.329987 0.331177
0.408417 0.331940 0.333008
0.431915 0.334778 0.335602
0.460175 0.338715 0.339203
0.492401 0.343903 0.343842
0.527588 0.350281 0.349518
0.564850 0.357758 0.356110
0.603180 0.366089 0.363403
0.641724 0.375122 0.371216
0.679626 0.384552 0.379333
0.716034 0.394043 0.387482
0.750397 0.403412 0.395477
0.782104 0.412354 0.403046
0.810669 0.420654 0.410034
0.835602 0.427979 0.416260
0.856903 0.434387 0.421661
0.875122 0.439941 0.426331
0.890564 0.444672 0.430298
0.903595 0.448700 0.433655
0.914642 0.452118 0.436554
0.924011 0.455048 0.438995
0.932037 0.457581 0.441101
0.939056 0.459778 0.442932
0.945435 0.461792 0.444611
0.951416 0.463684 0.446198
0.336182 0.330536 0.328186
0.339417 0.330688 0.328339
0.343262 0.330872 0.328552
0.348083 0.331116 0.328796
0.354645 0.331512 0.329163
0.363342 0.332062 0.329712
0.374908 0.332916 0.330536
0.389862 0.334137 0.331757
0.408844 0.335968 0.333588
0.432251 0.338562 0.336151
0.460449 0.342316 0.339691
0.492584 0.347229 0.344299
0.527771 0.353302 0.349945
0.565002 0.360474 0.356445
0.603302 0.368591 0.363739
0.641846 0.377289 0.371521
0.679718 0.386505 0.379578
0.716125 0.395874 0.387695
0.750458 0.405060 0.395660
0.782166 0.413879 0.403229
0.810730 0.422028 0.410248
0.835663 0.429321 0.416443
0.856964 0.435669 0.421844
0.875153 0.441132 0.426453
0.890594 0.445862 0.430420
0.903625 0.449860 0.433807
0.914673 0.453247 0.436676
0.924072 0.456146 0.439117
0.932068 0.458649 0.441223
0.939087 0.460846 0.443085
0.945465 0.462830 0.444733
0.951447 0.464722 0.446350
0.337494 0.336456 0.329132
0.340698 0.336609 0.329285
0.344482 0.336761 0.329437
0.349243 0.337006 0.329712
0.355652 0.337341 0.330078
0.364258 0.337830 0.330627
0.375671 0.338562 0.331421
0.390503 0.339691 0.332642
0.409363 0.341370 0.334412
0.432709 0.343781 0.336914
0.460815 0.347229 0.340424
0.492889 0.351776 0.344940
0.528015 0.357483 0.350525
0.565186 0.364288 0.356995
0.603485 0.372040 0.364227
0.641968 0.380463 0.371918
0.679840 0.389374 0.379944
0.716217 0.398438 0.388062
0.750519 0.407440 0.395996
0.782227 0.416046 0.403534
0.810791 0.424103 0.410492
0.835724 0.431244 0.416687
0.857025 0.437531 0.422058
0.875214 0.442902 0.426697
0.890656 0.447571 0.430634
0.903687 0.451508 0.434052
0.914764 0.454895 0.436920
0.924133 0.457764 0.439362
0.932129 0.460236 0.441437
0.939148 0.462402 0.443268
0.945496 0.464386 0.444916
0.951477 0.466248 0.446533
0.339478 0.344299 0.330475
0.342590 0.344391 0.330627
0.346222 0.344543 0.330811
0.350891 0.344757 0.331055
0.357147 0.345062 0.331390
0.365631 0.345520 0.331940
0.376862 0.346191 0.332733
0.391510 0.347168 0.333923
0.410187 0.348633 0.335602
0.433411 0.350769 0.338074
0.461365 0.353882 0.341461
0.493317 0.358032 0.345947
0.528381 0.363281 0.351410
0.565460 0.369659 0.357788
0.603699 0.376892 0.364899
0.642181 0.384888 0.372559
0.680023 0.393402 0.380524
0.716370 0.402191 0.388550
0.750641 0.410889 0.396423
0.782349 0.419281 0.403961
0.810913 0.427094 0.410919
0.835815 0.434113 0.417053
0.857117 0.440216 0.422424
0.875305 0.445557 0.427032
0.890747 0.450104 0.431000
0.903778 0.453979 0.434326
0.914856 0.457275 0.437195
0.924194 0.460114 0.439636
0.932190 0.462555 0.441742
0.939240 0.464691 0.443573
0.945587 0.466614 0.445221
0.951569 0.468445 0.446808
0.342346 0.354553 0.332458
0.345367 0.354675 0.332611
0.348816 0.354767 0.332794
0.353333 0.354950 0.333038
0.359375 0.355194 0.333374
0.367584 0.355591 0.333893
0.378571 0.356171 0.334625
0.392975 0.357025 0.335724
0.411407 0.358307 0.337372
0.434387 0.360229 0.339752
0.462189 0.362915 0.343018
0.493988 0.366577 0.347351
0.528931 0.371399 0.352661
0.565887 0.377106 0.358948
0.604095 0.383820 0.365936
0.642487 0.391296 0.373505
0.680267 0.399261 0.381348
0.716583 0.407562 0.389313
0.750885 0.415863 0.397125
0.782562 0.423950 0.404602
0.811096 0.431488 0.411499
0.835968 0.438263 0.417633
0.857269 0.444214 0.422913
0.875427 0.449371 0.427551
0.890869 0.453827 0.431458
0.903931 0.457611 0.434814
0.914978 0.460846 0.437683
0.924316 0.463593 0.440094
0.932312 0.466003 0.442169
0.939331 0.468048 0.444031
0.945679 0.469940 0.445648
0.951691 0.471771 0.447235
0.346497 0.367737 0.335297
0.349304 0.367828 0.335449
0.352570 0.367981 0.335602
0.356750 0.368103 0.335815
0.362610 0.368347 0.336151
0.370514 0.368652 0.336609
0.381134 0.369141 0.337311
0.395172 0.369873 0.338409
0.413239 0.370941 0.339935
0.435883 0.372559 0.342133
0.463379 0.374908 0.345306
0.494965 0.378113 0.349457
0.529694 0.382263 0.354614
0.566559 0.387390 0.360687
0.604645 0.393402 0.367493
0.642975 0.400208 0.374878
0.680664 0.407593 0.382599
0.716919 0.415283 0.390472
0.751160 0.423126 0.398163
0.782837 0.430695 0.405548
0.811310 0.437866 0.412384
0.836182 0.444366 0.418457
0.857452 0.450043 0.423767
0.875641 0.454987 0.428284
0.891083 0.459320 0.432220
0.904114 0.462952 0.435547
0.915161 0.466095 0.438385
0.924500 0.468719 0.440796
0.932495 0.471039 0.442871
0.939514 0.473083 0.444672
0.945862 0.474915 0.446350
0.951843 0.476685 0.447876
0.352264 0.384399 0.339294
0.354797 0.384491 0.339417
0.357819 0.384583 0.339569
0.361816 0.384705 0.339752
0.367249 0.384857 0.340088
0.374725 0.385132 0.340485
0.384857 0.385529 0.341125
0.398407 0.386108 0.342102
0.415955 0.387024 0.343506
0.438141 0.388428 0.345612
0.465240 0.390381 0.348602
0.496490 0.393097 0.352478
0.530914 0.396667 0.357422
0.567566 0.401123 0.363220
0.605469 0.406403 0.369781
0.643646 0.412415 0.376953
0.681274 0.419098 0.384491
0.717438 0.426117 0.392151
0.751617 0.433289 0.399750
0.783234 0.440338 0.406982
0.811676 0.446991 0.413696
0.836517 0.453094 0.419708
0.857819 0.458466 0.424957
0.875946 0.463165 0.429443
0.891357 0.467224 0.433350
0.904388 0.470703 0.436615
0.915436 0.473694 0.439453
0.924774 0.476227 0.441833
0.932770 0.478455 0.443878
0.939758 0.480347 0.445679
0.946106 0.482147 0.447327
0.952087 0.483795 0.448883
0.360168 0.405029 0.344727
0.362457 0.405090 0.344818
0.365173 0.405151 0.344971
0.368774 0.405273 0.345154
0.373779 0.405426 0.345398
0.380707 0.405609 0.345825
0.390228 0.405975 0.346405
0.403107 0.406464 0.347260
0.419922 0.407196 0.348572
0.441467 0.408295 0.350464
0.467957 0.409912 0.353149
0.498657 0.412201 0.356781
0.532715 0.415192 0.361389
0.569061 0.418976 0.366821
0.606750 0.423523 0.373077
0.644714 0.428772 0.379944
0.682159 0.434601 0.387238
0.718231 0.440826 0.394653
0.752350 0.447266 0.402039
0.783844 0.453705 0.409119
0.812256 0.459808 0.415741
0.837067 0.465393 0.421600
0.858307 0.470337 0.426758
0.876434 0.474701 0.431183
0.891785 0.478485 0.434998
0.904816 0.481750 0.438263
0.915833 0.484558 0.441010
0.925171 0.486908 0.443390
0.933167 0.489014 0.445404
0.940155 0.490845 0.447205
0.946503 0.492493 0.448822
0.952484 0.494080 0.450317
0.370514 0.429901 0.351868
0.372528 0.429932 0.351959
0.374939 0.429993 0.352081
0.378113 0.430054 0.352234
0.382629 0.430176 0.352448
0.388916 0.430359 0.352783
0.397705 0.430603 0.353302
0.409668 0.431000 0.354095
0.425629 0.431641 0.355225
0.446228 0.432556 0.356934
0.471893 0.433868 0.359375
0.501923 0.435760 0.362671
0.535431 0.438232 0.366821
0.571289 0.441406 0.371887
0.608582 0.445221 0.377747
0.646301 0.449738 0.384216
0.683502 0.454742 0.391113
0.719391 0.460175 0.398224
0.753326 0.465851 0.405334
0.784760 0.471527 0.412201
0.813080 0.476990 0.418579
0.837799 0.482056 0.424347
0.859039 0.486511 0.429352
0.877106 0.490479 0.433685
0.892487 0.493958 0.437439
0.905457 0.496948 0.440613
0.916443 0.499512 0.443329
0.925781 0.501709 0.445648
0.933746 0.503632 0.447632
0.940735 0.505310 0.449402
0.947083 0.506836 0.450958
0.953064 0.508301 0.452484
0.383179 0.458435 0.360657
0.384918 0.458466 0.360718
0.387024 0.458527 0.360809
0.389801 0.458588 0.360962
0.393768 0.458679 0.361145
0.399384 0.458832 0.361450
0.407349 0.459076 0.361908
0.418335 0.459412 0.362579
0.433228 0.459869 0.363556
0.452728 0.460602 0.365051
0.477356 0.461731 0.367188
0.506439 0.463287 0.370117
0.539124 0.465332 0.373901
0.574371 0.467957 0.378479
0.611176 0.471161 0.383850
0.648468 0.474976 0.389862
0.685364 0.479279 0.396332
0.721039 0.483948 0.403046
0.754791 0.488861 0.409821
0.786041 0.493805 0.416382
0.814270 0.498657 0.422546
0.838898 0.503113 0.428070
0.860016 0.507141 0.432922
0.878082 0.510712 0.437134
0.893402 0.513824 0.440765
0.906342 0.516510 0.443878
0.917328 0.518799 0.446533
0.926636 0.520813 0.448792
0.934601 0.522552 0.450714
0.941559 0.524078 0.452423
0.947876 0.525482 0.453979
0.953857 0.526825 0.455444
0.397919 0.490112 0.370819
0.399384 0.490173 0.370911
0.401215 0.490204 0.370972
0.403656 0.490265 0.371094
0.407104 0.490326 0.371246
0.412048 0.490448 0.371521
0.419098 0.490631 0.371887
0.429077 0.490906 0.372467
0.442749 0.491302 0.373322
0.460999 0.491913 0.374634
0.484344 0.492828 0.376526
0.512299 0.494110 0.379089
0.544037 0.495850 0.382416
0.578461 0.498047 0.386536
0.614624 0.500763 0.391418
0.651367 0.503967 0.396912
0.687897 0.507629 0.402924
0.723206 0.511627 0.409210
0.756714 0.515900 0.415558
0.787781 0.520233 0.421814
0.815857 0.524445 0.427643
0.840393 0.528381 0.432953
0.861420 0.531921 0.437592
0.879364 0.535065 0.441681
0.894653 0.537842 0.445160
0.907593 0.540253 0.448151
0.918488 0.542328 0.450714
0.927765 0.544128 0.452911
0.935699 0.545685 0.454773
0.942657 0.547058 0.456421
0.949005 0.548340 0.457916
0.954926 0.549561 0.459381
0.414185 0.524261 0.382111
0.415497 0.524292 0.382172
0.417053 0.524323 0.382263
0.419128 0.524353 0.382355
0.422180 0.524414 0.382507
0.426483 0.524506 0.382751
0.432739 0.524658 0.383057
0.441711 0.524933 0.383575
0.454132 0.525238 0.384308
0.471039 0.525757 0.385437
0.492950 0.526550 0.387054
0.519592 0.527618 0.389313
0.550201 0.529083 0.392273
0.583649 0.530945 0.395966
0.618988 0.533264 0.400330
0.655121 0.536011 0.405334
0.691101 0.539124 0.410828
0.726013 0.542572 0.416626
0.759186 0.546265 0.422577
0.789978 0.550018 0.428406
0.817871 0.553741 0.433960
0.842255 0.557190 0.438965
0.863190 0.560303 0.443420
0.881073 0.563141 0.447266
0.896271 0.565552 0.450623
0.909119 0.567688 0.453491
0.920044 0.569580 0.455933
0.929260 0.571167 0.458038
0.937195 0.572540 0.459869
0.944122 0.573792 0.461456
0.950378 0.574921 0.462891
0.956360 0.576019 0.464264
0.431671 0.560303 0.394287
0.432800 0.560303 0.394318
0.434143 0.560333 0.394379
0.435944 0.560364 0.394470
0.438568 0.560425 0.394623
0.442383 0.560516 0.394806
0.447906 0.560669 0.395081
0.455872 0.560852 0.395538
0.467163 0.561127 0.396179
0.482666 0.561584 0.397125
0.503113 0.562225 0.398560
0.528320 0.563171 0.400543
0.557617 0.564392 0.403137
0.589935 0.566010 0.406403
0.624359 0.567993 0.410370
0.659698 0.570374 0.414856
0.695038 0.573059 0.419861
0.729462 0.576080 0.425232
0.762238 0.579315 0.430695
0.792755 0.582611 0.436157
0.820404 0.585846 0.441345
0.844604 0.588898 0.446075
0.865417 0.591675 0.450256
0.883179 0.594147 0.453918
0.898285 0.596344 0.457092
0.911102 0.598236 0.459839
0.921906 0.599915 0.462189
0.931122 0.601318 0.464172
0.938995 0.602600 0.465912
0.945923 0.603699 0.467438
0.952148 0.604706 0.468842
0.958069 0.605682 0.470184
0.449829 0.597534 0.406921
0.450775 0.597565 0.406982
0.451935 0.597595 0.407043
0.453552 0.597626 0.407135
0.455841 0.597687 0.407227
0.459167 0.597748 0.407379
0.464081 0.597870 0.407623
0.471222 0.598022 0.408020
0.481384 0.598297 0.408600
0.495575 0.598694 0.409454
0.514557 0.599243 0.410706
0.538300 0.600006 0.412445
0.566132 0.601135 0.414734
0.597229 0.602539 0.417664
0.630585 0.604248 0.421173
0.665070 0.606323 0.425262
0.699707 0.608704 0.429810
0.733551 0.611359 0.434723
0.765900 0.614197 0.439758
0.796051 0.617096 0.444824
0.823395 0.619965 0.449646
0.847382 0.622711 0.454102
0.868011 0.625183 0.458069
0.885681 0.627380 0.461487
0.900696 0.629333 0.464539
0.913391 0.631042 0.467102
0.924194 0.632538 0.469330
0.933319 0.633820 0.471252
0.941162 0.634949 0.472870
0.948029 0.635956 0.474335
0.954224 0.636841 0.475647
0.960144 0.637726 0.476929
0.468170 0.635437 0.419800
0.469055 0.635468 0.419861
0.470062 0.635468 0.419922
0.471466 0.635498 0.419983
0.473511 0.635529 0.420074
0.476471 0.635590 0.420227
0.480804 0.635681 0.420441
0.487183 0.635834 0.420776
0.496399 0.636078 0.421295
0.509369 0.636414 0.422058
0.526978 0.636902 0.423157
0.549225 0.637634 0.424683
0.575623 0.638580 0.426758
0.605469 0.639832 0.429352
0.637665 0.641357 0.432526
0.671173 0.643188 0.436218
0.705017 0.645294 0.440369
0.738220 0.647644 0.444855
0.770050 0.650177 0.449524
0.799835 0.652771 0.454224
0.826874 0.655365 0.458710
0.850616 0.657806 0.462860
0.871063 0.660034 0.466553
0.888550 0.661987 0.469818
0.903442 0.663757 0.472656
0.916077 0.665283 0.475098
0.926788 0.666656 0.477203
0.935852 0.667816 0.479004
0.943665 0.668793 0.480591
0.950500 0.669708 0.481964
0.956696 0.670502 0.483246
0.962555 0.671326 0.484436
0.486298 0.673035 0.432587
0.487061 0.673065 0.432648
0.487976 0.673065 0.432678
0.489227 0.673096 0.432739
0.491028 0.673126 0.432831
0.493683 0.673187 0.432953
0.497589 0.673279 0.433136
0.503326 0.673401 0.433441
0.511719 0.673615 0.433899
0.523590 0.673920 0.434570
0.539886 0.674377 0.435577
0.560730 0.674988 0.436951
0.585754 0.675873 0.438812
0.614258 0.676971 0.441162
0.645294 0.678345 0.444031
0.677856 0.679993 0.447388
0.710846 0.681915 0.451202
0.743347 0.683990 0.455322
0.774658 0.686310 0.459625
0.803955 0.688629 0.463959
0.830688 0.690948 0.468170
0.854156 0.693146 0.472046
0.874420 0.695160 0.475525
0.891754 0.696960 0.478577
0.906525 0.698547 0.481262
0.919067 0.699951 0.483551
0.929718 0.701172 0.485565
0.938721 0.702209 0.487274
0.946442 0.703156 0.488770
0.953217 0.703949 0.490082
0.959412 0.704712 0.491241
0.965210 0.705444 0.492401
0.503754 0.709595 0.444946
0.504456 0.709595 0.444977
0.505280 0.709595 0.445007
0.506378 0.709625 0.445068
0.507996 0.709656 0.445160
0.510345 0.709717 0.445282
0.513916 0.709808 0.445465
0.519165 0.709930 0.445740
0.526794 0.710114 0.446106
0.537750 0.710388 0.446747
0.552887 0.710785 0.447632
0.572449 0.711365 0.448883
0.596161 0.712158 0.450592
0.623413 0.713135 0.452698
0.653290 0.714386 0.455353
0.684814 0.715881 0.458405
0.716949 0.717621 0.461914
0.748810 0.719543 0.465729
0.779510 0.721588 0.469727
0.808411 0.723724 0.473785
0.834778 0.725861 0.477722
0.858002 0.727844 0.481323
0.877991 0.729675 0.484589
0.895203 0.731323 0.487488
0.909821 0.732788 0.490021
0.922272 0.734070 0.492218
0.932800 0.735168 0.494080
0.941742 0.736145 0.495697
0.949463 0.736969 0.497101
0.956207 0.737732 0.498352
0.962280 0.738434 0.499512
0.968048 0.739075 0.500580
0.520142 0.744141 0.456604
0.520752 0.744171 0.456635
0.521515 0.744202 0.456665
0.522552 0.744232 0.456726
0.523987 0.744232 0.456818
0.526154 0.744293 0.456909
0.529419 0.744385 0.457092
0.534210 0.744476 0.457306
0.541260 0.744659 0.457703
0.551422 0.744904 0.458252
0.565521 0.745239 0.459076
0.583954 0.745789 0.460205
0.606445 0.746521 0.461761
0.632507 0.747406 0.463715
0.661346 0.748566 0.466156
0.691833 0.749939 0.469025
0.723175 0.751526 0.472260
0.754333 0.753296 0.475800
0.784546 0.755188 0.479523
0.812958 0.757172 0.483337
0.838959 0.759125 0.487030
0.861877 0.760956 0.490448
0.881683 0.762634 0.493500
0.898712 0.764160 0.496246
0.913239 0.765503 0.498657
0.925568 0.766693 0.500702
0.936005 0.767700 0.502502
0.944916 0.768616 0.504059
0.952515 0.769379 0.505402
0.959229 0.770050 0.506561
0.965271 0.770721 0.507660
0.971008 0.771332 0.508698
0.535095 0.775940 0.467316
0.535645 0.775940 0.467346
0.536346 0.775970 0.467377
0.537292 0.776001 0.467438
0.538635 0.776031 0.467499
0.540649 0.776062 0.467590
0.543640 0.776154 0.467743
0.548126 0.776215 0.467987
0.554657 0.776398 0.468292
0.564117 0.776611 0.468811
0.577393 0.776978 0.469574
0.594788 0.777466 0.470642
0.616272 0.778137 0.472076
0.641266 0.778992 0.473907
0.669067 0.780029 0.476166
0.698730 0.781311 0.478851
0.729248 0.782776 0.481873
0.759796 0.784424 0.485199
0.789429 0.786163 0.488739
0.817413 0.787994 0.492310
0.843079 0.789825 0.495789
0.865753 0.791534 0.499023
0.885376 0.793091 0.501923
0.902222 0.794525 0.504517
0.916595 0.795776 0.506836
0.928802 0.796875 0.508789
0.939209 0.797852 0.510498
0.948029 0.798676 0.511963
0.955597 0.799408 0.513245
0.962219 0.800049 0.514374
0.968231 0.800629 0.515411
0.973938 0.801208 0.516388
0.548248 0.804047 0.476776
0.548767 0.804077 0.476807
0.549408 0.804108 0.476807
0.550293 0.804138 0.476868
0.551544 0.804138 0.476929
0.553406 0.804199 0.477051
0.556213 0.804260 0.477173
0.560364 0.804352 0.477386
0.566528 0.804474 0.477692
0.575470 0.804718 0.478180
0.588043 0.805023 0.478882
0.604614 0.805511 0.479889
0.625153 0.806122 0.481232
0.649261 0.806915 0.482941
0.676178 0.807892 0.485077
0.705048 0.809113 0.487579
0.734894 0.810486 0.490479
0.764832 0.812012 0.493622
0.793976 0.813690 0.496948
0.821594 0.815399 0.500366
0.846954 0.817108 0.503693
0.869385 0.818726 0.506775
0.888794 0.820190 0.509583
0.905487 0.821533 0.512054
0.919769 0.822723 0.514221
0.931885 0.823761 0.516144
0.942169 0.824646 0.517761
0.950928 0.825439 0.519196
0.958466 0.826141 0.520416
0.965057 0.826721 0.521515
0.971039 0.827301 0.522491
0.976715 0.827820 0.523438
0.559570 0.828430 0.484955
0.560028 0.828461 0.484985
0.560638 0.828491 0.485016
0.561462 0.828491 0.485046
0.562683 0.828522 0.485107
0.564453 0.828552 0.485199
0.567108 0.828583 0.485321
0.571014 0.828705 0.485535
0.576874 0.828857 0.485809
0.585358 0.829071 0.486298
0.597382 0.829346 0.486938
0.613251 0.829803 0.487915
0.633087 0.830383 0.489197
0.656403 0.831146 0.490814
0.682556 0.832092 0.492859
0.710693 0.833191 0.495239
0.739990 0.834534 0.497986
0.769409 0.835999 0.501007
0.798157 0.837555 0.504211
0.825378 0.839203 0.507446
0.850464 0.840820 0.510620
0.872681 0.842346 0.513580
0.891907 0.843750 0.516296
0.908508 0.845032 0.518677
0.922638 0.846130 0.520782
0.934692 0.847137 0.522614
0.944916 0.848022 0.524170
0.953613 0.848724 0.525574
0.961090 0.849426 0.526733
0.967651 0.850006 0.527802
0.973602 0.850525 0.528748
0.979248 0.851044 0.529663
0.569214 0.849426 0.491974
0.569702 0.849426 0.491974
0.570251 0.849426 0.492035
0.571045 0.849457 0.492065
0.572174 0.849487 0.492126
0.573853 0.849518 0.492218
0.576416 0.849579 0.492340
0.580170 0.849670 0.492523
0.585754 0.849792 0.492828
0.593933 0.850006 0.493256
0.605469 0.850281 0.493896
0.620789 0.850708 0.494812
0.639984 0.851257 0.496063
0.662628 0.851990 0.497589
0.688171 0.852905 0.499542
0.715729 0.853973 0.501831
0.744476 0.855225 0.504486
0.773468 0.856628 0.507355
0.801819 0.858124 0.510437
0.828796 0.859711 0.513580
0.853607 0.861267 0.516663
0.875610 0.862732 0.519531
0.894714 0.864075 0.522125
0.911163 0.865295 0.524475
0.925262 0.866364 0.526489
0.937225 0.867310 0.528290
0.947357 0.868134 0.529816
0.956055 0.868866 0.531128
0.963470 0.869476 0.532288
0.969971 0.870026 0.533295
0.975922 0.870544 0.534210
0.981506 0.871033 0.535126
0.577454 0.867310 0.497986
0.577911 0.867310 0.497986
0.578461 0.867340 0.498016
0.579193 0.867340 0.498047
0.580322 0.867371 0.498138
0.581909 0.867432 0.498230
0.584381 0.867462 0.498322
0.587982 0.867554 0.498505
0.593353 0.867706 0.498810
0.601257 0.867859 0.499207
0.612427 0.868164 0.499847
0.627289 0.868561 0.500702
0.645935 0.869110 0.501892
0.668060 0.869812 0.503418
0.693054 0.870667 0.505310
0.720123 0.871735 0.507507
0.748444 0.872925 0.510071
0.777008 0.874298 0.512878
0.805084 0.875732 0.515839
0.831787 0.877258 0.518890
0.856384 0.878754 0.521881
0.878235 0.880157 0.524658
0.897186 0.881470 0.527222
0.913513 0.882629 0.529449
0.927521 0.883667 0.531433
0.939423 0.884583 0.533173
0.949524 0.885406 0.534668
0.958160 0.886078 0.535980
0.965546 0.886688 0.537079
0.972015 0.887207 0.538086
0.977936 0.887726 0.539001
0.983521 0.888214 0.539856
0.584412 0.882538 0.503082
0.584869 0.882538 0.503113
0.585419 0.882538 0.503143
0.586121 0.882538 0.503174
0.587189 0.882568 0.503235
0.588745 0.882629 0.503296
0.591095 0.882660 0.503418
0.594635 0.882751 0.503601
0.599854 0.882904 0.503876
0.607483 0.883057 0.504272
0.618347 0.883331 0.504883
0.632843 0.883728 0.505737
0.651062 0.884277 0.506897
0.672729 0.884949 0.508362
0.697296 0.885773 0.510193
0.723938 0.886780 0.512329
0.751862 0.887970 0.514801
0.780121 0.889282 0.517548
0.807922 0.890686 0.520447
0.834351 0.892151 0.523438
0.858795 0.893616 0.526337
0.880524 0.894989 0.529053
0.899353 0.896271 0.531525
0.915619 0.897400 0.533722
0.929504 0.898407 0.535675
0.941345 0.899292 0.537384
0.951447 0.900085 0.538818
0.960022 0.900726 0.540100
0.967377 0.901306 0.541199
0.973816 0.901825 0.542175
0.979736 0.902313 0.543060
0.985260 0.902771 0.543915
0.590332 0.895447 0.507416
0.590759 0.895477 0.507446
0.591248 0.895477 0.507446
0.591949 0.895477 0.507507
0.593018 0.895508 0.507568
0.594543 0.895538 0.507629
0.596832 0.895599 0.507751
0.600250 0.895691 0.507935
0.605347 0.895782 0.508179
0.612793 0.895996 0.508575
0.623413 0.896240 0.509186
0.637573 0.896606 0.510010
0.655426 0.897125 0.511108
0.676727 0.897797 0.512543
0.700897 0.898621 0.514313
0.727173 0.899628 0.516449
0.754822 0.900726 0.518860
0.782806 0.902039 0.521545
0.810364 0.903381 0.524384
0.836609 0.904816 0.527283
0.860901 0.906250 0.530121
0.882446 0.907593 0.532806
0.901245 0.908844 0.535248
0.917419 0.909943 0.537415
0.931274 0.910919 0.539307
0.943024 0.911774 0.540955
0.953064 0.912567 0.542389
0.961639 0.913208 0.543640
0.968964 0.913788 0.544739
0.975403 0.914276 0.545685
0.981262 0.914764 0.546570
0.986786 0.915222 0.547394
0.595337 0.906403 0.511078
0.595734 0.906403 0.511108
0.596252 0.906403 0.511139
0.596954 0.906433 0.511169
0.597961 0.906464 0.511230
0.599426 0.906494 0.511322
0.601685 0.906555 0.511414
0.605042 0.906647 0.511566
0.610016 0.906769 0.511841
0.617279 0.906921 0.512238
0.627686 0.907196 0.512817
0.641602 0.907562 0.513611
0.659180 0.908081 0.514709
