Avant Garde/Striped Purple - Turquoise.cube
#Created by: Adobe Photoshop Export Color Lookup Plugin
#Copyright: (C) Copyright 2019 Turquoise by Striped Purple - © Austin Barrett All Rights Reserved.
TITLE "Striped Purple - Turquoise"
#LUT size
LUT_3D_SIZE 32
#data domain
DOMAIN_MIN 0.0 0.0 0.0
DOMAIN_MAX 1.0 1.0 1.0
#LUT data points
0.176910 0.330597 0.445709
0.197876 0.330597 0.445709
0.218872 0.330597 0.445709
0.240021 0.330597 0.445709
0.261322 0.330597 0.445709
0.282776 0.330597 0.445709
0.304504 0.330597 0.445709
0.326447 0.330597 0.445709
0.348724 0.330597 0.445709
0.371307 0.330597 0.445709
0.394318 0.330597 0.445709
0.417694 0.330597 0.445709
0.441589 0.330597 0.445709
0.465942 0.330597 0.445709
0.490875 0.330597 0.445709
0.516418 0.330597 0.445709
0.542633 0.330597 0.445709
0.569489 0.330597 0.445709
0.596954 0.330597 0.445709
0.624969 0.330597 0.445709
0.653564 0.330597 0.445709
0.682617 0.330597 0.445709
0.712219 0.330597 0.445709
0.742188 0.330597 0.445709
0.772583 0.330597 0.445709
0.803314 0.330597 0.445709
0.834320 0.330597 0.445709
0.865570 0.330597 0.445709
0.897034 0.330597 0.445709
0.928680 0.330597 0.445709
0.960388 0.330597 0.445709
0.992157 0.330597 0.445709
0.176910 0.352844 0.445709
0.197876 0.352844 0.445709
0.218872 0.352844 0.445709
0.240021 0.352844 0.445709
0.261322 0.352844 0.445709
0.282776 0.352844 0.445709
0.304504 0.352844 0.445709
0.326447 0.352844 0.445709
0.348724 0.352844 0.445709
0.371307 0.352844 0.445709
0.394318 0.352844 0.445709
0.417694 0.352844 0.445709
0.441589 0.352844 0.445709
0.465942 0.352844 0.445709
0.490875 0.352844 0.445709
0.516418 0.352844 0.445709
0.542633 0.352844 0.445709
0.569489 0.352844 0.445709
0.596954 0.352844 0.445709
0.624969 0.352844 0.445709
0.653564 0.352844 0.445709
0.682617 0.352844 0.445709
0.712219 0.352844 0.445709
0.742188 0.352844 0.445709
0.772583 0.352844 0.445709
0.803314 0.352844 0.445709
0.834320 0.352844 0.445709
0.865570 0.352844 0.445709
0.897034 0.352844 0.445709
0.928680 0.352844 0.445709
0.960388 0.352844 0.445709
0.992157 0.352844 0.445709
0.176910 0.374969 0.445709
0.197876 0.374969 0.445709
0.218872 0.374969 0.445709
0.240021 0.374969 0.445709
0.261322 0.374969 0.445709
0.282776 0.374969 0.445709
0.304504 0.374969 0.445709
0.326447 0.374969 0.445709
0.348724 0.374969 0.445709
0.371307 0.374969 0.445709
0.394318 0.374969 0.445709
0.417694 0.374969 0.445709
0.441589 0.374969 0.445709
0.465942 0.374969 0.445709
0.490875 0.374969 0.445709
0.516418 0.374969 0.445709
0.542633 0.374969 0.445709
0.569489 0.374969 0.445709
0.596954 0.374969 0.445709
0.624969 0.374969 0.445709
0.653564 0.374969 0.445709
0.682617 0.374969 0.445709
0.712219 0.374969 0.445709
0.742188 0.374969 0.445709
0.772583 0.374969 0.445709
0.803314 0.374969 0.445709
0.834320 0.374969 0.445709
0.865570 0.374969 0.445709
0.897034 0.374969 0.445709
0.928680 0.374969 0.445709
0.960388 0.374969 0.445709
0.992157 0.374969 0.445709
0.176910 0.396942 0.445709
0.197876 0.396942 0.445709
0.218872 0.396942 0.445709
0.240021 0.396942 0.445709
0.261322 0.396942 0.445709
0.282776 0.396942 0.445709
0.304504 0.396942 0.445709
0.326447 0.396942 0.445709
0.348724 0.396942 0.445709
0.371307 0.396942 0.445709
0.394318 0.396942 0.445709
0.417694 0.396942 0.445709
0.441589 0.396942 0.445709
0.465942 0.396942 0.445709
0.490875 0.396942 0.445709
0.516418 0.396942 0.445709
0.542633 0.396942 0.445709
0.569489 0.396942 0.445709
0.596954 0.396942 0.445709
0.624969 0.396942 0.445709
0.653564 0.396942 0.445709
0.682617 0.396942 0.445709
0.712219 0.396942 0.445709
0.742188 0.396942 0.445709
0.772583 0.396942 0.445709
0.803314 0.396942 0.445709
0.834320 0.396942 0.445709
0.865570 0.396942 0.445709
0.897034 0.396942 0.445709
0.928680 0.396942 0.445709
0.960388 0.396942 0.445709
0.992157 0.396942 0.445709
0.176910 0.418793 0.445709
0.197876 0.418793 0.445709
0.218872 0.418793 0.445709
0.240021 0.418793 0.445709
0.261322 0.418793 0.445709
0.282776 0.418793 0.445709
0.304504 0.418793 0.445709
0.326447 0.418793 0.445709
0.348724 0.418793 0.445709
0.371307 0.418793 0.445709
0.394318 0.418793 0.445709
0.417694 0.418793 0.445709
0.441589 0.418793 0.445709
0.465942 0.418793 0.445709
0.490875 0.418793 0.445709
0.516418 0.418793 0.445709
0.542633 0.418793 0.445709
0.569489 0.418793 0.445709
0.596954 0.418793 0.445709
0.624969 0.418793 0.445709
0.653564 0.418793 0.445709
0.682617 0.418793 0.445709
0.712219 0.418793 0.445709
0.742188 0.418793 0.445709
0.772583 0.418793 0.445709
0.803314 0.418793 0.445709
0.834320 0.418793 0.445709
0.865570 0.418793 0.445709
0.897034 0.418793 0.445709
0.928680 0.418793 0.445709
0.960388 0.418793 0.445709
0.992157 0.418793 0.445709
0.176910 0.440399 0.445709
0.197876 0.440399 0.445709
0.218872 0.440399 0.445709
0.240021 0.440399 0.445709
0.261322 0.440399 0.445709
0.282776 0.440399 0.445709
0.304504 0.440399 0.445709
0.326447 0.440399 0.445709
0.348724 0.440399 0.445709
0.371307 0.440399 0.445709
0.394318 0.440399 0.445709
0.417694 0.440399 0.445709
0.441589 0.440399 0.445709
0.465942 0.440399 0.445709
0.490875 0.440399 0.445709
0.516418 0.440399 0.445709
0.542633 0.440399 0.445709
0.569489 0.440399 0.445709
0.596954 0.440399 0.445709
0.624969 0.440399 0.445709
0.653564 0.440399 0.445709
0.682617 0.440399 0.445709
0.712219 0.440399 0.445709
0.742188 0.440399 0.445709
0.772583 0.440399 0.445709
0.803314 0.440399 0.445709
0.834320 0.440399 0.445709
0.865570 0.440399 0.445709
0.897034 0.440399 0.445709
0.928680 0.440399 0.445709
0.960388 0.440399 0.445709
0.992157 0.440399 0.445709
0.176910 0.461823 0.445709
0.197876 0.461823 0.445709
0.218872 0.461823 0.445709
0.240021 0.461823 0.445709
0.261322 0.461823 0.445709
0.282776 0.461823 0.445709
0.304504 0.461823 0.445709
0.326447 0.461823 0.445709
0.348724 0.461823 0.445709
0.371307 0.461823 0.445709
0.394318 0.461823 0.445709
0.417694 0.461823 0.445709
0.441589 0.461823 0.445709
0.465942 0.461823 0.445709
0.490875 0.461823 0.445709
0.516418 0.461823 0.445709
0.542633 0.461823 0.445709
0.569489 0.461823 0.445709
0.596954 0.461823 0.445709
0.624969 0.461823 0.445709
0.653564 0.461823 0.445709
0.682617 0.461823 0.445709
0.712219 0.461823 0.445709
0.742188 0.461823 0.445709
0.772583 0.461823 0.445709
0.803314 0.461823 0.445709
0.834320 0.461823 0.445709
0.865570 0.461823 0.445709
0.897034 0.461823 0.445709
0.928680 0.461823 0.445709
0.960388 0.461823 0.445709
0.992157 0.461823 0.445709
0.176910 0.483002 0.445709
0.197876 0.483002 0.445709
0.218872 0.483002 0.445709
0.240021 0.483002 0.445709
0.261322 0.483002 0.445709
0.282776 0.483002 0.445709
0.304504 0.483002 0.445709
0.326447 0.483002 0.445709
0.348724 0.483002 0.445709
0.371307 0.483002 0.445709
0.394318 0.483002 0.445709
0.417694 0.483002 0.445709
0.441589 0.483002 0.445709
0.465942 0.483002 0.445709
0.490875 0.483002 0.445709
0.516418 0.483002 0.445709
0.542633 0.483002 0.445709
0.569489 0.483002 0.445709
0.596954 0.483002 0.445709
0.624969 0.483002 0.445709
0.653564 0.483002 0.445709
0.682617 0.483002 0.445709
0.712219 0.483002 0.445709
0.742188 0.483002 0.445709
0.772583 0.483002 0.445709
0.803314 0.483002 0.445709
0.834320 0.483002 0.445709
0.865570 0.483002 0.445709
0.897034 0.483002 0.445709
0.928680 0.483002 0.445709
0.960388 0.483002 0.445709
0.992157 0.483002 0.445709
0.176910 0.503906 0.445709
0.197876 0.503906 0.445709
0.218872 0.503906 0.445709
0.240021 0.503906 0.445709
0.261322 0.503906 0.445709
0.282776 0.503906 0.445709
0.304504 0.503906 0.445709
0.326447 0.503906 0.445709
0.348724 0.503906 0.445709
0.371307 0.503906 0.445709
0.394318 0.503906 0.445709
0.417694 0.503906 0.445709
0.441589 0.503906 0.445709
0.465942 0.503906 0.445709
0.490875 0.503906 0.445709
0.516418 0.503906 0.445709
0.542633 0.503906 0.445709
0.569489 0.503906 0.445709
0.596954 0.503906 0.445709
0.624969 0.503906 0.445709
0.653564 0.503906 0.445709
0.682617 0.503906 0.445709
0.712219 0.503906 0.445709
0.742188 0.503906 0.445709
0.772583 0.503906 0.445709
0.803314 0.503906 0.445709
0.834320 0.503906 0.445709
0.865570 0.503906 0.445709
0.897034 0.503906 0.445709
0.928680 0.503906 0.445709
0.960388 0.503906 0.445709
0.992157 0.503906 0.445709
0.176910 0.524536 0.445709
0.197876 0.524536 0.445709
0.218872 0.524536 0.445709
0.240021 0.524536 0.445709
0.261322 0.524536 0.445709
0.282776 0.524536 0.445709
0.304504 0.524536 0.445709
0.326447 0.524536 0.445709
0.348724 0.524536 0.445709
0.371307 0.524536 0.445709
0.394318 0.524536 0.445709
0.417694 0.524536 0.445709
0.441589 0.524536 0.445709
0.465942 0.524536 0.445709
0.490875 0.524536 0.445709
0.516418 0.524536 0.445709
0.542633 0.524536 0.445709
0.569489 0.524536 0.445709
0.596954 0.524536 0.445709
0.624969 0.524536 0.445709
0.653564 0.524536 0.445709
0.682617 0.524536 0.445709
0.712219 0.524536 0.445709
0.742188 0.524536 0.445709
0.772583 0.524536 0.445709
0.803314 0.524536 0.445709
0.834320 0.524536 0.445709
0.865570 0.524536 0.445709
0.897034 0.524536 0.445709
0.928680 0.524536 0.445709
0.960388 0.524536 0.445709
0.992157 0.524536 0.445709
0.176910 0.544861 0.445709
0.197876 0.544861 0.445709
0.218872 0.544861 0.445709
0.240021 0.544861 0.445709
0.261322 0.544861 0.445709
0.282776 0.544861 0.445709
0.304504 0.544861 0.445709
0.326447 0.544861 0.445709
0.348724 0.544861 0.445709
0.371307 0.544861 0.445709
0.394318 0.544861 0.445709
0.417694 0.544861 0.445709
0.441589 0.544861 0.445709
0.465942 0.544861 0.445709
0.490875 0.544861 0.445709
0.516418 0.544861 0.445709
0.542633 0.544861 0.445709
0.569489 0.544861 0.445709
0.596954 0.544861 0.445709
0.624969 0.544861 0.445709
0.653564 0.544861 0.445709
0.682617 0.544861 0.445709
0.712219 0.544861 0.445709
0.742188 0.544861 0.445709
0.772583 0.544861 0.445709
0.803314 0.544861 0.445709
0.834320 0.544861 0.445709
0.865570 0.544861 0.445709
0.897034 0.544861 0.445709
0.928680 0.544861 0.445709
0.960388 0.544861 0.445709
0.992157 0.544861 0.445709
0.176910 0.564819 0.445709
0.197876 0.564819 0.445709
0.218872 0.564819 0.445709
0.240021 0.564819 0.445709
0.261322 0.564819 0.445709
0.282776 0.564819 0.445709
0.304504 0.564819 0.445709
0.326447 0.564819 0.445709
0.348724 0.564819 0.445709
0.371307 0.564819 0.445709
0.394318 0.564819 0.445709
0.417694 0.564819 0.445709
0.441589 0.564819 0.445709
0.465942 0.564819 0.445709
0.490875 0.564819 0.445709
0.516418 0.564819 0.445709
0.542633 0.564819 0.445709
0.569489 0.564819 0.445709
0.596954 0.564819 0.445709
0.624969 0.564819 0.445709
0.653564 0.564819 0.445709
0.682617 0.564819 0.445709
0.712219 0.564819 0.445709
0.742188 0.564819 0.445709
0.772583 0.564819 0.445709
0.803314 0.564819 0.445709
0.834320 0.564819 0.445709
0.865570 0.564819 0.445709
0.897034 0.564819 0.445709
0.928680 0.564819 0.445709
0.960388 0.564819 0.445709
0.992157 0.564819 0.445709
0.176910 0.584381 0.445709
0.197876 0.584381 0.445709
0.218872 0.584381 0.445709
0.240021 0.584381 0.445709
0.261322 0.584381 0.445709
0.282776 0.584381 0.445709
0.304504 0.584381 0.445709
0.326447 0.584381 0.445709
0.348724 0.584381 0.445709
0.371307 0.584381 0.445709
0.394318 0.584381 0.445709
0.417694 0.584381 0.445709
0.441589 0.584381 0.445709
0.465942 0.584381 0.445709
0.490875 0.584381 0.445709
0.516418 0.584381 0.445709
0.542633 0.584381 0.445709
0.569489 0.584381 0.445709
0.596954 0.584381 0.445709
0.624969 0.584381 0.445709
0.653564 0.584381 0.445709
0.682617 0.584381 0.445709
0.712219 0.584381 0.445709
0.742188 0.584381 0.445709
0.772583 0.584381 0.445709
0.803314 0.584381 0.445709
0.834320 0.584381 0.445709
0.865570 0.584381 0.445709
0.897034 0.584381 0.445709
0.928680 0.584381 0.445709
0.960388 0.584381 0.445709
0.992157 0.584381 0.445709
0.176910 0.603607 0.445709
0.197876 0.603607 0.445709
0.218872 0.603607 0.445709
0.240021 0.603607 0.445709
0.261322 0.603607 0.445709
0.282776 0.603607 0.445709
0.304504 0.603607 0.445709
0.326447 0.603607 0.445709
0.348724 0.603607 0.445709
0.371307 0.603607 0.445709
0.394318 0.603607 0.445709
0.417694 0.603607 0.445709
0.441589 0.603607 0.445709
0.465942 0.603607 0.445709
0.490875 0.603607 0.445709
0.516418 0.603607 0.445709
0.542633 0.603607 0.445709
0.569489 0.603607 0.445709
0.596954 0.603607 0.445709
0.624969 0.603607 0.445709
0.653564 0.603607 0.445709
0.682617 0.603607 0.445709
0.712219 0.603607 0.445709
0.742188 0.603607 0.445709
0.772583 0.603607 0.445709
0.803314 0.603607 0.445709
0.834320 0.603607 0.445709
0.865570 0.603607 0.445709
0.897034 0.603607 0.445709
0.928680 0.603607 0.445709
0.960388 0.603607 0.445709
0.992157 0.603607 0.445709
0.176910 0.622467 0.445709
0.197876 0.622467 0.445709
0.218872 0.622467 0.445709
0.240021 0.622467 0.445709
0.261322 0.622467 0.445709
0.282776 0.622467 0.445709
0.304504 0.622467 0.445709
0.326447 0.622467 0.445709
0.348724 0.622467 0.445709
0.371307 0.622467 0.445709
0.394318 0.622467 0.445709
0.417694 0.622467 0.445709
0.441589 0.622467 0.445709
0.465942 0.622467 0.445709
0.490875 0.622467 0.445709
0.516418 0.622467 0.445709
0.542633 0.622467 0.445709
0.569489 0.622467 0.445709
0.596954 0.622467 0.445709
0.624969 0.622467 0.445709
0.653564 0.622467 0.445709
0.682617 0.622467 0.445709
0.712219 0.622467 0.445709
0.742188 0.622467 0.445709
0.772583 0.622467 0.445709
0.803314 0.622467 0.445709
0.834320 0.622467 0.445709
0.865570 0.622467 0.445709
0.897034 0.622467 0.445709
0.928680 0.622467 0.445709
0.960388 0.622467 0.445709
0.992157 0.622467 0.445709
0.176910 0.640930 0.445709
0.197876 0.640930 0.445709
0.218872 0.640930 0.445709
0.240021 0.640930 0.445709
0.261322 0.640930 0.445709
0.282776 0.640930 0.445709
0.304504 0.640930 0.445709
0.326447 0.640930 0.445709
0.348724 0.640930 0.445709
0.371307 0.640930 0.445709
0.394318 0.640930 0.445709
0.417694 0.640930 0.445709
0.441589 0.640930 0.445709
0.465942 0.640930 0.445709
0.490875 0.640930 0.445709
0.516418 0.640930 0.445709
0.542633 0.640930 0.445709
0.569489 0.640930 0.445709
0.596954 0.640930 0.445709
0.624969 0.640930 0.445709
0.653564 0.640930 0.445709
0.682617 0.640930 0.445709
0.712219 0.640930 0.445709
0.742188 0.640930 0.445709
0.772583 0.640930 0.445709
0.803314 0.640930 0.445709
0.834320 0.640930 0.445709
0.865570 0.640930 0.445709
0.897034 0.640930 0.445709
0.928680 0.640930 0.445709
0.960388 0.640930 0.445709
0.992157 0.640930 0.445709
0.176910 0.659058 0.445709
0.197876 0.659058 0.445709
0.218872 0.659058 0.445709
0.240021 0.659058 0.445709
0.261322 0.659058 0.445709
0.282776 0.659058 0.445709
0.304504 0.659058 0.445709
0.326447 0.659058 0.445709
0.348724 0.659058 0.445709
0.371307 0.659058 0.445709
0.394318 0.659058 0.445709
0.417694 0.659058 0.445709
0.441589 0.659058 0.445709
0.465942 0.659058 0.445709
0.490875 0.659058 0.445709
0.516418 0.659058 0.445709
0.542633 0.659058 0.445709
0.569489 0.659058 0.445709
0.596954 0.659058 0.445709
0.624969 0.659058 0.445709
0.653564 0.659058 0.445709
0.682617 0.659058 0.445709
0.712219 0.659058 0.445709
0.742188 0.659058 0.445709
0.772583 0.659058 0.445709
0.803314 0.659058 0.445709
0.834320 0.659058 0.445709
0.865570 0.659058 0.445709
0.897034 0.659058 0.445709
0.928680 0.659058 0.445709
0.960388 0.659058 0.445709
0.992157 0.659058 0.445709
0.176910 0.676758 0.445709
0.197876 0.676758 0.445709
0.218872 0.676758 0.445709
0.240021 0.676758 0.445709
0.261322 0.676758 0.445709
0.282776 0.676758 0.445709
0.304504 0.676758 0.445709
0.326447 0.676758 0.445709
0.348724 0.676758 0.445709
0.371307 0.676758 0.445709
0.394318 0.676758 0.445709
0.417694 0.676758 0.445709
0.441589 0.676758 0.445709
0.465942 0.676758 0.445709
0.490875 0.676758 0.445709
0.516418 0.676758 0.445709
0.542633 0.676758 0.445709
0.569489 0.676758 0.445709
0.596954 0.676758 0.445709
0.624969 0.676758 0.445709
0.653564 0.676758 0.445709
0.682617 0.676758 0.445709
0.712219 0.676758 0.445709
0.742188 0.676758 0.445709
0.772583 0.676758 0.445709
0.803314 0.676758 0.445709
0.834320 0.676758 0.445709
0.865570 0.676758 0.445709
0.897034 0.676758 0.445709
0.928680 0.676758 0.445709
0.960388 0.676758 0.445709
0.992157 0.676758 0.445709
0.176910 0.694153 0.445709
0.197876 0.694153 0.445709
0.218872 0.694153 0.445709
0.240021 0.694153 0.445709
0.261322 0.694153 0.445709
0.282776 0.694153 0.445709
0.304504 0.694153 0.445709
0.326447 0.694153 0.445709
0.348724 0.694153 0.445709
0.371307 0.694153 0.445709
0.394318 0.694153 0.445709
0.417694 0.694153 0.445709
0.441589 0.694153 0.445709
0.465942 0.694153 0.445709
0.490875 0.694153 0.445709
0.516418 0.694153 0.445709
0.542633 0.694153 0.445709
0.569489 0.694153 0.445709
0.596954 0.694153 0.445709
0.624969 0.694153 0.445709
0.653564 0.694153 0.445709
0.682617 0.694153 0.445709
0.712219 0.694153 0.445709
0.742188 0.694153 0.445709
0.772583 0.694153 0.445709
0.803314 0.694153 0.445709
0.834320 0.694153 0.445709
0.865570 0.694153 0.445709
0.897034 0.694153 0.445709
0.928680 0.694153 0.445709
0.960388 0.694153 0.445709
0.992157 0.694153 0.445709
0.176910 0.711212 0.445709
0.197876 0.711212 0.445709
0.218872 0.711212 0.445709
0.240021 0.711212 0.445709
0.261322 0.711212 0.445709
0.282776 0.711212 0.445709
0.304504 0.711212 0.445709
0.326447 0.711212 0.445709
0.348724 0.711212 0.445709
0.371307 0.711212 0.445709
0.394318 0.711212 0.445709
0.417694 0.711212 0.445709
0.441589 0.711212 0.445709
0.465942 0.711212 0.445709
0.490875 0.711212 0.445709
0.516418 0.711212 0.445709
0.542633 0.711212 0.445709
0.569489 0.711212 0.445709
0.596954 0.711212 0.445709
0.624969 0.711212 0.445709
0.653564 0.711212 0.445709
0.682617 0.711212 0.445709
0.712219 0.711212 0.445709
0.742188 0.711212 0.445709
0.772583 0.711212 0.445709
0.803314 0.711212 0.445709
0.834320 0.711212 0.445709
0.865570 0.711212 0.445709
0.897034 0.711212 0.445709
0.928680 0.711212 0.445709
0.960388 0.711212 0.445709
0.992157 0.711212 0.445709
0.176910 0.728027 0.445709
0.197876 0.728027 0.445709
0.218872 0.728027 0.445709
0.240021 0.728027 0.445709
0.261322 0.728027 0.445709
0.282776 0.728027 0.445709
0.304504 0.728027 0.445709
0.326447 0.728027 0.445709
0.348724 0.728027 0.445709
0.371307 0.728027 0.445709
0.394318 0.728027 0.445709
0.417694 0.728027 0.445709
0.441589 0.728027 0.445709
0.465942 0.728027 0.445709
0.490875 0.728027 0.445709
0.516418 0.728027 0.445709
0.542633 0.728027 0.445709
0.569489 0.728027 0.445709
0.596954 0.728027 0.445709
0.624969 0.728027 0.445709
0.653564 0.728027 0.445709
0.682617 0.728027 0.445709
0.712219 0.728027 0.445709
0.742188 0.728027 0.445709
0.772583 0.728027 0.445709
0.803314 0.728027 0.445709
0.834320 0.728027 0.445709
0.865570 0.728027 0.445709
0.897034 0.728027 0.445709
0.928680 0.728027 0.445709
0.960388 0.728027 0.445709
0.992157 0.728027 0.445709
0.176910 0.744568 0.445709
0.197876 0.744568 0.445709
0.218872 0.744568 0.445709
0.240021 0.744568 0.445709
0.261322 0.744568 0.445709
0.282776 0.744568 0.445709
0.304504 0.744568 0.445709
0.326447 0.744568 0.445709
0.348724 0.744568 0.445709
0.371307 0.744568 0.445709
0.394318 0.744568 0.445709
0.417694 0.744568 0.445709
0.441589 0.744568 0.445709
0.465942 0.744568 0.445709
0.490875 0.744568 0.445709
0.516418 0.744568 0.445709
0.542633 0.744568 0.445709
0.569489 0.744568 0.445709
0.596954 0.744568 0.445709
0.624969 0.744568 0.445709
0.653564 0.744568 0.445709
0.682617 0.744568 0.445709
0.712219 0.744568 0.445709
0.742188 0.744568 0.445709
0.772583 0.744568 0.445709
0.803314 0.744568 0.445709
0.834320 0.744568 0.445709
0.865570 0.744568 0.445709
0.897034 0.744568 0.445709
0.928680 0.744568 0.445709
0.960388 0.744568 0.445709
0.992157 0.744568 0.445709
0.176910 0.760834 0.445709
0.197876 0.760834 0.445709
0.218872 0.760834 0.445709
0.240021 0.760834 0.445709
0.261322 0.760834 0.445709
0.282776 0.760834 0.445709
0.304504 0.760834 0.445709
0.326447 0.760834 0.445709
0.348724 0.760834 0.445709
0.371307 0.760834 0.445709
0.394318 0.760834 0.445709
0.417694 0.760834 0.445709
0.441589 0.760834 0.445709
0.465942 0.760834 0.445709
0.490875 0.760834 0.445709
0.516418 0.760834 0.445709
0.542633 0.760834 0.445709
0.569489 0.760834 0.445709
0.596954 0.760834 0.445709
0.624969 0.760834 0.445709
0.653564 0.760834 0.445709
0.682617 0.760834 0.445709
0.712219 0.760834 0.445709
0.742188 0.760834 0.445709
0.772583 0.760834 0.445709
0.803314 0.760834 0.445709
0.834320 0.760834 0.445709
0.865570 0.760834 0.445709
0.897034 0.760834 0.445709
0.928680 0.760834 0.445709
0.960388 0.760834 0.445709
0.992157 0.760834 0.445709
0.176910 0.776947 0.445709
0.197876 0.776947 0.445709
0.218872 0.776947 0.445709
0.240021 0.776947 0.445709
0.261322 0.776947 0.445709
0.282776 0.776947 0.445709
0.304504 0.776947 0.445709
0.326447 0.776947 0.445709
0.348724 0.776947 0.445709
0.371307 0.776947 0.445709
0.394318 0.776947 0.445709
0.417694 0.776947 0.445709
0.441589 0.776947 0.445709
0.465942 0.776947 0.445709
0.490875 0.776947 0.445709
0.516418 0.776947 0.445709
0.542633 0.776947 0.445709
0.569489 0.776947 0.445709
0.596954 0.776947 0.445709
0.624969 0.776947 0.445709
0.653564 0.776947 0.445709
0.682617 0.776947 0.445709
0.712219 0.776947 0.445709
0.742188 0.776947 0.445709
0.772583 0.776947 0.445709
0.803314 0.776947 0.445709
0.834320 0.776947 0.445709
0.865570 0.776947 0.445709
0.897034 0.776947 0.445709
0.928680 0.776947 0.445709
0.960388 0.776947 0.445709
0.992157 0.776947 0.445709
0.176910 0.792877 0.445709
0.197876 0.792877 0.445709
0.218872 0.792877 0.445709
0.240021 0.792877 0.445709
0.261322 0.792877 0.445709
0.282776 0.792877 0.445709
0.304504 0.792877 0.445709
0.326447 0.792877 0.445709
0.348724 0.792877 0.445709
0.371307 0.792877 0.445709
0.394318 0.792877 0.445709
0.417694 0.792877 0.445709
0.441589 0.792877 0.445709
0.465942 0.792877 0.445709
0.490875 0.792877 0.445709
0.516418 0.792877 0.445709
0.542633 0.792877 0.445709
0.569489 0.792877 0.445709
0.596954 0.792877 0.445709
0.624969 0.792877 0.445709
0.653564 0.792877 0.445709
0.682617 0.792877 0.445709
0.712219 0.792877 0.445709
0.742188 0.792877 0.445709
0.772583 0.792877 0.445709
0.803314 0.792877 0.445709
0.834320 0.792877 0.445709
0.865570 0.792877 0.445709
0.897034 0.792877 0.445709
0.928680 0.792877 0.445709
0.960388 0.792877 0.445709
0.992157 0.792877 0.445709
0.176910 0.808594 0.445709
0.197876 0.808594 0.445709
0.218872 0.808594 0.445709
0.240021 0.808594 0.445709
0.261322 0.808594 0.445709
0.282776 0.808594 0.445709
0.304504 0.808594 0.445709
0.326447 0.808594 0.445709
0.348724 0.808594 0.445709
0.371307 0.808594 0.445709
0.394318 0.808594 0.445709
0.417694 0.808594 0.445709
0.441589 0.808594 0.445709
0.465942 0.808594 0.445709
0.490875 0.808594 0.445709
0.516418 0.808594 0.445709
0.542633 0.808594 0.445709
0.569489 0.808594 0.445709
0.596954 0.808594 0.445709
0.624969 0.808594 0.445709
0.653564 0.808594 0.445709
0.682617 0.808594 0.445709
0.712219 0.808594 0.445709
0.742188 0.808594 0.445709
0.772583 0.808594 0.445709
0.803314 0.808594 0.445709
0.834320 0.808594 0.445709
0.865570 0.808594 0.445709
0.897034 0.808594 0.445709
0.928680 0.808594 0.445709
0.960388 0.808594 0.445709
0.992157 0.808594 0.445709
0.176910 0.824188 0.445709
0.197876 0.824188 0.445709
0.218872 0.824188 0.445709
0.240021 0.824188 0.445709
0.261322 0.824188 0.445709
0.282776 0.824188 0.445709
0.304504 0.824188 0.445709
0.326447 0.824188 0.445709
0.348724 0.824188 0.445709
0.371307 0.824188 0.445709
0.394318 0.824188 0.445709
0.417694 0.824188 0.445709
0.441589 0.824188 0.445709
0.465942 0.824188 0.445709
0.490875 0.824188 0.445709
0.516418 0.824188 0.445709
0.542633 0.824188 0.445709
0.569489 0.824188 0.445709
0.596954 0.824188 0.445709
0.624969 0.824188 0.445709
0.653564 0.824188 0.445709
0.682617 0.824188 0.445709
0.712219 0.824188 0.445709
0.742188 0.824188 0.445709
0.772583 0.824188 0.445709
0.803314 0.824188 0.445709
0.834320 0.824188 0.445709
0.865570 0.824188 0.445709
0.897034 0.824188 0.445709
0.928680 0.824188 0.445709
0.960388 0.824188 0.445709
0.992157 0.824188 0.445709
0.176910 0.839691 0.445709
0.197876 0.839691 0.445709
0.218872 0.839691 0.445709
0.240021 0.839691 0.445709
0.261322 0.839691 0.445709
0.282776 0.839691 0.445709
0.304504 0.839691 0.445709
0.326447 0.839691 0.445709
0.348724 0.839691 0.445709
0.371307 0.839691 0.445709
0.394318 0.839691 0.445709
0.417694 0.839691 0.445709
0.441589 0.839691 0.445709
0.465942 0.839691 0.445709
