Avant Garde/Striped Purple - Blow Me Down.cube
#Created by: Adobe Photoshop Export Color Lookup Plugin
#Copyright: (C) Copyright 2019 Blow Me Down by Striped Purple © Austin Barrett 2018
TITLE "Blow Me Down"
#LUT size
LUT_3D_SIZE 5
#data domain
#LUT data points
DOMAIN_MIN 0.000000 0.000000 0.000000
DOMAIN_MAX 0.903226 0.903226 0.903226
0.136139 0.140289 0.146423
0.191803 0.135040 0.144226
0.689850 0.147614 0.015869
0.934265 0.057251 0.010986
1.000000 0.075897 0.000366
0.137024 0.149506 0.156677
0.141998 0.149933 0.156311
0.661346 0.256683 0.011505
0.915375 0.264221 0.004639
1.000000 0.230743 0.000000
0.121155 0.220612 0.233002
0.119202 0.215332 0.222504
0.265411 0.244720 0.161133
0.853668 0.487976 0.000000
0.990906 0.532288 0.000000
0.167328 0.417603 0.361420
0.111572 0.421143 0.329987
0.139740 0.432526 0.195251
0.637390 0.524750 0.187195
0.968567 0.768768 0.044983
0.231720 0.732056 0.532074
0.198517 0.732697 0.505951
0.109436 0.716400 0.324554
0.743225 0.757812 0.408875
0.932617 0.873840 0.493805
0.142212 0.151917 0.171082
0.151672 0.146545 0.171814
0.671570 0.035309 0.105377
0.929535 0.004456 0.077026
1.000000 0.130066 0.000061
0.144104 0.165375 0.177887
0.161011 0.176758 0.193939
0.666687 0.208557 0.029053
0.916962 0.234711 0.016296
1.000000 0.261841 0.000000
0.101196 0.253448 0.261627
0.049652 0.269928 0.291595
0.357941 0.307678 0.212250
0.873505 0.490906 0.008026
0.990570 0.537537 0.000000
0.181885 0.482758 0.438812
0.104462 0.494141 0.408203
0.079559 0.481049 0.200317
0.668610 0.557159 0.265045
0.968292 0.772400 0.062958
0.317780 0.750214 0.606110
0.262054 0.750427 0.574005
0.114624 0.740631 0.393005
0.747803 0.760498 0.419678
0.937622 0.882294 0.492188
0.171021 0.257141 0.350494
0.151398 0.262787 0.354156
0.400757 0.226288 0.392242
0.799072 0.289490 0.444550
1.000000 0.000000 0.413513
0.188812 0.292847 0.360992
0.104919 0.321320 0.393585
0.429688 0.303955 0.418274
0.846832 0.299866 0.450989
1.000000 0.000000 0.351318
0.179108 0.350800 0.399536
0.098633 0.372070 0.429535
0.502075 0.495422 0.479279
0.914154 0.419159 0.149811
1.000000 0.416046 0.055389
0.241852 0.529663 0.542358
0.300995 0.542389 0.552612
0.281281 0.638641 0.571808
0.727966 0.644318 0.496155
0.970123 0.776855 0.150299
0.382050 0.695557 0.674072
0.398041 0.735138 0.694733
0.433350 0.787567 0.674255
0.724976 0.776062 0.519836
0.960632 0.925781 0.558441
0.218292 0.497284 0.644592
0.231323 0.505066 0.650208
0.160950 0.506592 0.649811
0.737335 0.498840 0.661804
0.947632 0.596893 0.747955
0.240509 0.537842 0.661255
0.320984 0.546265 0.662567
0.408112 0.547363 0.657349
0.748230 0.544708 0.672058
0.952087 0.612671 0.741302
0.298615 0.588715 0.676544
0.406311 0.606110 0.684448
0.558380 0.641693 0.695740
0.778076 0.639618 0.703979
1.000000 0.625397 0.767578
0.310242 0.644928 0.701599
0.391571 0.667419 0.723602
0.512756 0.713043 0.770203
0.815125 0.768921 0.736603
1.000000 0.706421 0.604340
0.475006 0.875671 0.818909
0.502197 0.906860 0.826111
0.559387 0.920013 0.812622
0.716248 0.878418 0.731873
0.971436 1.000000 0.727356
0.700775 0.787811 0.866943
0.723907 0.786041 0.862518
0.787384 0.778809 0.853577
0.893036 0.761261 0.852783
1.000000 0.741089 0.854584
0.723297 0.804108 0.866699
0.745148 0.802063 0.862427
0.791626 0.791199 0.852570
0.888367 0.772034 0.852081
1.000000 0.754181 0.854309
0.689697 0.834534 0.886993
0.729431 0.846954 0.886871
0.811615 0.850891 0.867828
0.912811 0.822388 0.845398
1.000000 0.797119 0.847839
0.652313 0.886505 0.916016
0.675903 0.899536 0.921967
0.769928 0.907745 0.902954
0.944763 0.910278 0.840759
0.981567 0.888306 0.831360
0.630890 0.932709 0.934692
0.656067 0.935516 0.936432
0.736298 0.936066 0.925079
0.963806 0.907898 0.833069
0.976044 0.906403 0.828094
