Avant Garde/Striped Purple - Amber Haze.cube
#Created by: Adobe Photoshop Export Color Lookup Plugin
#Copyright: (C) Copyright 2019 Amber Haze by Striped Purple - © Austin Barrett All Rights Reserved.
TITLE "Striped Purple - Amber Haze"
#LUT size
LUT_3D_SIZE 5
#data domain
#LUT data points
DOMAIN_MIN 0.000000 0.000000 0.000000
DOMAIN_MAX 0.903226 0.903226 0.903226
0.015076 0.000000 0.000000
0.213470 0.000000 0.000000
0.394653 0.000000 0.000000
0.548187 0.000000 0.000000
0.680847 0.000000 0.000000
0.015076 0.151489 0.000000
0.213470 0.151489 0.000000
0.394653 0.151489 0.000000
0.548187 0.151489 0.000000
0.680847 0.151489 0.000000
0.015076 0.309326 0.000000
0.213470 0.309326 0.000000
0.394653 0.309326 0.000000
0.548187 0.309326 0.000000
0.680847 0.309326 0.000000
0.015076 0.480499 0.000000
0.213470 0.480499 0.000000
0.394653 0.480499 0.000000
0.548187 0.480499 0.000000
0.680847 0.480499 0.000000
0.015076 0.665863 0.000000
0.213470 0.665863 0.000000
0.394653 0.665863 0.000000
0.548187 0.665863 0.000000
0.680847 0.665863 0.000000
0.015076 0.000000 0.179871
0.213470 0.000000 0.179871
0.394653 0.000000 0.179871
0.548187 0.000000 0.179871
0.680847 0.000000 0.179871
0.015076 0.151489 0.179871
0.213470 0.151489 0.179871
0.394653 0.151489 0.179871
0.548187 0.151489 0.179871
0.680847 0.151489 0.179871
0.015076 0.309326 0.179871
0.213470 0.309326 0.179871
0.394653 0.309326 0.179871
0.548187 0.309326 0.179871
0.680847 0.309326 0.179871
0.015076 0.480499 0.179871
0.213470 0.480499 0.179871
0.394653 0.480499 0.179871
0.548187 0.480499 0.179871
0.680847 0.480499 0.179871
0.015076 0.665863 0.179871
0.213470 0.665863 0.179871
0.394653 0.665863 0.179871
0.548187 0.665863 0.179871
0.680847 0.665863 0.179871
0.015076 0.000000 0.359863
0.213470 0.000000 0.359863
0.394653 0.000000 0.359863
0.548187 0.000000 0.359863
0.680847 0.000000 0.359863
0.015076 0.151489 0.359863
0.213470 0.151489 0.359863
0.394653 0.151489 0.359863
0.548187 0.151489 0.359863
0.680847 0.151489 0.359863
0.015076 0.309326 0.359863
0.213470 0.309326 0.359863
0.394653 0.309326 0.359863
0.548187 0.309326 0.359863
0.680847 0.309326 0.359863
0.015076 0.480499 0.359863
0.213470 0.480499 0.359863
0.394653 0.480499 0.359863
0.548187 0.480499 0.359863
0.680847 0.480499 0.359863
0.015076 0.665863 0.359863
0.213470 0.665863 0.359863
0.394653 0.665863 0.359863
0.548187 0.665863 0.359863
0.680847 0.665863 0.359863
0.015076 0.000000 0.540070
0.213470 0.000000 0.540070
0.394653 0.000000 0.540070
0.548187 0.000000 0.540070
0.680847 0.000000 0.540070
0.015076 0.151489 0.540070
0.213470 0.151489 0.540070
0.394653 0.151489 0.540070
0.548187 0.151489 0.540070
0.680847 0.151489 0.540070
0.015076 0.309326 0.540070
0.213470 0.309326 0.540070
0.394653 0.309326 0.540070
0.548187 0.309326 0.540070
0.680847 0.309326 0.540070
0.015076 0.480499 0.540070
0.213470 0.480499 0.540070
0.394653 0.480499 0.540070
0.548187 0.480499 0.540070
0.680847 0.480499 0.540070
0.015076 0.665863 0.540070
0.213470 0.665863 0.540070
0.394653 0.665863 0.540070
0.548187 0.665863 0.540070
0.680847 0.665863 0.540070
0.015076 0.000000 0.720428
0.213470 0.000000 0.720428
0.394653 0.000000 0.720428
0.548187 0.000000 0.720428
0.680847 0.000000 0.720428
0.015076 0.151489 0.720428
0.213470 0.151489 0.720428
0.394653 0.151489 0.720428
0.548187 0.151489 0.720428
0.680847 0.151489 0.720428
0.015076 0.309326 0.720428
0.213470 0.309326 0.720428
0.394653 0.309326 0.720428
0.548187 0.309326 0.720428
0.680847 0.309326 0.720428
0.015076 0.480499 0.720428
0.213470 0.480499 0.720428
0.394653 0.480499 0.720428
0.548187 0.480499 0.720428
0.680847 0.480499 0.720428
0.015076 0.665863 0.720428
0.213470 0.665863 0.720428
0.394653 0.665863 0.720428
0.548187 0.665863 0.720428
0.680847 0.665863 0.720428
